jieun02-kim/RAON-RT-Revision/App/Indy7/rt_log_results/DataLog_20260423_120711.csv
timestamp_ns,q0,q1,q2,q3,q4,q5,q_ref0,q_ref1,q_ref2,q_ref3,q_ref4,q_ref5,qd0,qd1,qd2,qd3,qd4,qd5,tau0,tau1,tau2,tau3,tau4,tau5,tcp_x,tcp_y,tcp_z,ctrl_mode
576745427550789,-9.336904,-0.010289,7.291691,3.053076,-1.569200,0.000002,-9.350650,-0.004812,7.275629,3.067793,-1.610887,-0.022673,-0.000000,0.003169,0.000000,-0.000000,-0.000000,0.000000,-10.619907,-12.363005,-19.478334,-6.738213,1.334930,0.003237,0.420035,-0.162704,0.762016,4
576745428551246,-9.336905,-0.010288,7.291691,3.053076,-1.569200,0.000000,-9.350648,-0.004810,7.275631,3.067792,-1.610883,-0.022670,-0.000000,-0.000000,0.000000,-0.000000,0.002848,0.000000,-10.595582,-11.531490,-19.239733,-6.667964,1.341827,0.003220,0.420035,-0.162705,0.762016,4
576745429545594,-9.336904,-0.010285,7.291690,3.053075,-1.569202,0.000002,-9.350645,-0.004808,7.275633,3.067791,-1.610880,-0.022668,-0.000000,-0.000000,0.000000,-0.000000,-0.000000,0.000000,-10.592756,-11.528590,-19.241546,-6.667577,1.344597,0.003218,0.420036,-0.162705,0.762016,4
576745430555677,-9.336905,-0.010280,7.291691,3.053076,-1.569203,0.000002,-9.350643,-0.004806,7.275634,3.067789,-1.610876,-0.022666,-0.002377,-0.000000,0.000000,-0.000000,-0.000000,0.002848,-10.399325,-11.515212,-19.232268,-6.636153,1.351423,0.003105,0.420039,-0.162704,0.762012,4
576745431551705,-9.336905,-0.010277,7.291691,3.053077,-1.569202,0.000001,-9.350640,-0.004804,7.275636,3.067788,-1.610872,-0.022663,-0.000000,0.003169,0.000000,-0.000000,-0.000000,0.000000,-10.612095,-12.369750,-19.479114,-6.737424,1.335082,0.003234,0.420040,-0.162704,0.762011,4
576745432514271,-9.336906,-0.010272,7.291690,3.053076,-1.569203,0.000003,-9.350638,-0.004802,7.275637,3.067787,-1.610869,-0.022661,-0.000000,0.003962,0.000000,-0.000000,-0.000000,0.000000,-10.615400,-12.583350,-19.539018,-6.754798,1.332682,0.003237,0.420042,-0.162704,0.762010,4
576745433515610,-9.336905,-0.010270,7.291692,3.053076,-1.569201,0.000003,-9.350635,-0.004800,7.275639,3.067785,-1.610865,-0.022658,-0.000000,0.004754,0.002377,-0.000000,-0.000000,0.000000,-10.626256,-12.909416,-19.676295,-6.792271,1.336214,0.003243,0.420044,-0.162704,0.762008,4
576745434510612,-9.336904,-0.010266,7.291691,3.053076,-1.569201,0.000003,-9.350633,-0.004797,7.275640,3.067784,-1.610862,-0.022656,-0.000000,0.003169,0.000000,-0.000000,-0.000000,0.000000,-10.607498,-12.379698,-19.481297,-6.737408,1.335116,0.003232,0.420045,-0.162703,0.762007,4
576745435585083,-9.336904,-0.010262,7.291691,3.053077,-1.569198,0.000002,-9.336919,-0.010147,7.291573,3.053086,-1.569199,-0.000011,-0.000000,0.003962,0.000000,0.002848,0.002848,0.000000,-0.683486,5.533173,-14.145718,-4.007670,2.155852,-0.000935,0.420048,-0.162703,0.762006,4
576745436545153,-9.336904,-0.010260,7.291691,3.053076,-1.569199,0.000001,-9.336934,-0.010031,7.291455,3.053094,-1.569200,-0.000024,-0.000000,0.002377,0.000000,-0.000000,-0.000000,0.000000,-0.667208,6.207999,-13.974442,-3.949301,2.169265,-0.000944,0.420049,-0.162703,0.762005,4
576745437505680,-9.336904,-0.010257,7.291691,3.053076,-1.569202,0.000003,-9.336949,-0.009915,7.291337,3.053102,-1.569201,-0.000036,-0.000000,0.003962,0.000000,-0.000000,-0.002848,0.000000,-0.683207,6.030321,-14.050649,-3.971087,2.173190,-0.000937,0.420049,-0.162703,0.762003,4
576745438542465,-9.336905,-0.010253,7.291691,3.053076,-1.569203,0.000002,-9.336963,-0.009800,7.291219,3.053110,-1.569202,-0.000049,-0.000000,0.003169,0.000000,-0.000000,-0.000000,0.000000,-0.684784,6.468769,-13.945749,-3.940747,2.178652,-0.000940,0.420051,-0.162703,0.762002,4
576745439504609,-9.336904,-0.010250,7.291691,3.053076,-1.569201,0.000001,-9.336978,-0.009684,7.291101,3.053118,-1.569203,-0.000062,-0.000000,0.003962,0.000000,-0.000000,-0.000000,0.000000,-0.698048,6.495437,-13.960851,-3.945441,2.182076,-0.000935,0.420053,-0.162703,0.762000,4
576745440503742,-9.336905,-0.010245,7.291692,3.053076,-1.569201,0.000002,-9.336993,-0.009568,7.290983,3.053126,-1.569204,-0.000074,-0.000000,0.003169,0.000000,-0.000000,-0.000000,0.000000,-0.698220,6.932831,-13.859815,-3.915456,2.190302,-0.000940,0.420055,-0.162703,0.761998,4
576745441551597,-9.336902,-0.010238,7.291693,3.053077,-1.569202,0.000004,-9.337008,-0.009452,7.290865,3.053134,-1.569205,-0.000087,0.002377,0.007923,0.003169,-0.000000,-0.000000,0.000000,-0.942461,5.732506,-14.287544,-4.067027,2.182640,-0.000813,0.420059,-0.162701,0.761995,4
576745442503616,-9.336901,-0.010231,7.291698,3.053078,-1.569201,0.000003,-9.337023,-0.009337,7.290747,3.053142,-1.569206,-0.000100,0.003169,0.008716,0.005546,-0.000000,-0.000000,0.000000,-1.026071,5.621082,-14.389658,-4.103845,2.189671,-0.000773,0.420062,-0.162700,0.761989,4
576745443555087,-9.336897,-0.010220,7.291700,3.053084,-1.569198,0.000001,-9.337038,-0.009221,7.290629,3.053150,-1.569208,-0.000112,0.003962,0.011093,0.000000,0.005695,0.002848,0.000000,-1.125106,5.431964,-14.372701,-4.130653,2.169330,-0.000730,0.420069,-0.162697,0.761984,4
576745444560349,-9.336894,-0.010206,7.291706,3.053088,-1.569198,0.000003,-9.337053,-0.009105,7.290511,3.053158,-1.569209,-0.000125,0.003962,0.013470,0.004754,0.002848,0.002848,0.000000,-1.156037,4.798626,-14.659634,-4.203230,2.179448,-0.000710,0.420076,-0.162694,0.761975,4
576745445545263,-9.336891,-0.010191,7.291710,3.053091,-1.569197,0.000001,-9.337068,-0.008990,7.290393,3.053167,-1.569210,-0.000138,0.003962,0.015055,0.005546,0.003797,-0.000000,0.000000,-1.182231,4.538923,-14.777054,-4.239068,2.184856,-0.000699,0.420084,-0.162691,0.761967,4
576745446530011,-9.336886,-0.010170,7.291717,3.053094,-1.569196,0.000001,-9.337083,-0.008874,7.290275,3.053175,-1.569211,-0.000151,0.004754,0.018224,0.006339,0.002848,-0.000000,0.000000,-1.280931,3.849504,-15.011183,-4.315274,2.180264,-0.000646,0.420095,-0.162688,0.761955,4
576745447546905,-9.336885,-0.010148,7.291724,3.053098,-1.569193,0.000002,-9.337098,-0.008758,7.290157,3.053183,-1.569212,-0.000163,-0.000000,0.022186,0.007131,0.004746,0.002848,0.000000,-0.946737,2.981130,-15.285510,-4.344425,2.186471,-0.000812,0.420107,-0.162686,0.761943,4
576745448503825,-9.336881,-0.010126,7.291727,3.053102,-1.569191,0.000001,-9.337113,-0.008642,7.290039,3.053191,-1.569214,-0.000176,0.004754,0.022978,0.003169,0.003797,-0.000000,0.000000,-1.333190,3.113123,-15.209900,-4.381472,2.168712,-0.000617,0.420118,-0.162682,0.761933,4
576745449551108,-9.336878,-0.010104,7.291735,3.053108,-1.569192,0.000001,-9.337128,-0.008527,7.289920,3.053199,-1.569215,-0.000189,0.002377,0.022186,0.005546,0.005695,0.002848,0.000000,-1.161309,3.387183,-15.197465,-4.352232,2.186378,-0.000712,0.420129,-0.162679,0.761919,4
576745450550550,-9.336876,-0.010077,7.291742,3.053108,-1.569190,0.000000,-9.337143,-0.008411,7.289802,3.053207,-1.569217,-0.000202,0.002377,0.026940,0.005546,-0.000000,-0.000000,0.000000,-1.186271,2.350920,-15.505756,-4.429285,2.179993,-0.000683,0.420143,-0.162677,0.761906,4
576745451503458,-9.336876,-0.010051,7.291745,3.053114,-1.569190,0.000001,-9.337158,-0.008295,7.289684,3.053215,-1.569218,-0.000215,-0.000000,0.027732,0.003962,0.004746,-0.000000,0.000000,-1.021866,2.378095,-15.496596,-4.411951,2.185718,-0.000775,0.420155,-0.162674,0.761893,4
576745452549913,-9.336874,-0.010019,7.291752,3.053116,-1.569188,0.000001,-9.337173,-0.008180,7.289565,3.053223,-1.569220,-0.000227,-0.000000,0.030109,0.003962,0.002848,-0.000000,-0.002848,-1.044374,1.920642,-15.646278,-4.452052,2.183564,-0.000742,0.420171,-0.162671,0.761877,4
576745453551457,-9.336875,-0.009989,7.291754,3.053119,-1.569186,0.000002,-9.337188,-0.008064,7.289447,3.053232,-1.569221,-0.000240,-0.000000,0.030109,0.002377,0.002848,-0.000000,0.000000,-1.047990,2.155978,-15.573399,-4.432385,2.184765,-0.000759,0.420185,-0.162670,0.761864,4
576745454530237,-9.336874,-0.009958,7.291758,3.053121,-1.569185,0.000002,-9.337203,-0.007948,7.289328,3.053240,-1.569223,-0.000253,-0.000000,0.031694,0.003962,0.002848,-0.000000,0.000000,-1.074338,1.817007,-15.723004,-4.474976,2.188875,-0.000747,0.420200,-0.162668,0.761850,4
576745455549137,-9.336874,-0.009924,7.291759,3.053120,-1.569185,0.000000,-9.337218,-0.007833,7.289210,3.053248,-1.569225,-0.000266,-0.000000,0.030901,0.003169,-0.000000,-0.000000,-0.002848,-1.065319,2.230929,-15.608318,-4.435018,2.194272,-0.000733,0.420215,-0.162667,0.761835,4
576745456508375,-9.336874,-0.009888,7.291760,3.053121,-1.569184,0.000003,-9.337233,-0.007717,7.289091,3.053256,-1.569226,-0.000279,-0.000000,0.033279,0.000000,-0.000000,-0.000000,0.002848,-1.083937,1.905210,-15.663746,-4.455551,2.184107,-0.000754,0.420233,-0.162665,0.761820,4
576745457551677,-9.336877,-0.009854,7.291762,3.053121,-1.569181,0.000002,-9.337248,-0.007601,7.288973,3.053264,-1.569228,-0.000292,-0.002377,0.034863,0.000000,-0.000000,-0.000000,0.000000,-0.911106,1.662099,-15.749903,-4.452461,2.191094,-0.000824,0.420248,-0.162665,0.761806,4
576745458550253,-9.336878,-0.009816,7.291760,3.053123,-1.569181,0.000003,-9.337263,-0.007486,7.288854,3.053272,-1.569230,-0.000304,-0.000000,0.038825,0.000000,-0.000000,-0.000000,0.000000,-1.140338,0.736740,-16.039740,-4.566694,2.177024,-0.000704,0.420266,-0.162663,0.761791,4
576745459551671,-9.336876,-0.009780,7.291763,3.053119,-1.569180,0.000001,-9.337278,-0.007370,7.288735,3.053280,-1.569232,-0.000317,-0.000000,0.034863,0.000000,-0.002848,-0.000000,0.000000,-1.112353,1.935429,-15.718498,-4.464774,2.193817,-0.000722,0.420283,-0.162662,0.761776,4
576745460550803,-9.336878,-0.009738,7.291762,3.053120,-1.569179,0.000002,-9.337293,-0.007255,7.288617,3.053288,-1.569234,-0.000330,-0.000000,0.040410,0.000000,-0.000000,-0.000000,0.000000,-1.170827,0.588291,-16.128034,-4.592876,2.181685,-0.000691,0.420302,-0.162660,0.761760,4
576745461553228,-9.336878,-0.009701,7.291760,3.053121,-1.569176,0.000003,-9.337308,-0.007139,7.288498,3.053297,-1.569236,-0.000343,-0.000000,0.037240,0.000000,-0.000000,0.002848,0.000000,-1.158010,1.553645,-15.874780,-4.518637,2.193211,-0.000705,0.420320,-0.162659,0.761746,4
576745462551124,-9.336878,-0.009663,7.291763,3.053121,-1.569178,0.000001,-9.337323,-0.007023,7.288379,3.053305,-1.569238,-0.000356,-0.000000,0.038033,0.002377,-0.000000,-0.000000,0.000000,-1.177969,1.365806,-15.999632,-4.551851,2.204247,-0.000697,0.420337,-0.162658,0.761729,4
576745463554898,-9.336878,-0.009617,7.291762,3.053122,-1.569176,0.000002,-9.337338,-0.006908,7.288260,3.053313,-1.569241,-0.000369,-0.000000,0.045956,0.000000,-0.000000,-0.000000,0.000000,-1.239847,-0.476664,-16.498155,-4.702650,2.178906,-0.000653,0.420358,-0.162655,0.761711,4
576745464543594,-9.336878,-0.009573,7.291762,3.053122,-1.569171,0.000001,-9.337353,-0.006792,7.288141,3.053321,-1.569243,-0.000382,-0.000000,0.043579,0.000000,-0.000000,0.004746,0.000000,-1.235043,0.260951,-16.307507,-4.647527,2.185991,-0.000661,0.420379,-0.162654,0.761694,4
576745465543820,-9.336877,-0.009527,7.291763,3.053122,-1.569170,0.000000,-9.337368,-0.006677,7.288022,3.053329,-1.569245,-0.000394,-0.000000,0.045956,0.000000,-0.000000,-0.000000,0.000000,-1.261504,-0.245077,-16.479278,-4.697387,2.187868,-0.000647,0.420401,-0.162651,0.761675,4
576745466543489,-9.336877,-0.009479,7.291763,3.053126,-1.569167,0.000002,-9.337383,-0.006561,7.287903,3.053337,-1.569248,-0.000407,-0.000000,0.048333,0.000000,0.003797,0.002848,0.000000,-1.303917,-0.791581,-16.662092,-4.761667,2.182308,-0.000630,0.420424,-0.162648,0.761655,4
576745467546202,-9.336877,-0.009432,7.291767,3.053131,-1.569165,0.000002,-9.337398,-0.006446,7.287784,3.053345,-1.569250,-0.000420,-0.000000,0.048333,0.003169,0.004746,0.002848,0.000000,-1.326093,-0.846484,-16.763574,-4.790152,2.194599,-0.000624,0.420447,-0.162645,0.761634,4
576745468504206,-9.336875,-0.009383,7.291768,3.053132,-1.569164,0.000003,-9.337413,-0.006330,7.287665,3.053353,-1.569253,-0.000433,-0.000000,0.049125,0.000000,-0.000000,-0.000000,0.000000,-1.318189,-0.757573,-16.695494,-4.762010,2.191588,-0.000620,0.420470,-0.162642,0.761614,4
576745469552859,-9.336874,-0.009331,7.291769,3.053133,-1.569161,0.000004,-9.337428,-0.006215,7.287545,3.053361,-1.569255,-0.000446,-0.000000,0.051502,0.000000,-0.000000,-0.000000,0.000000,-1.347845,-1.283379,-16.867580,-4.813302,2.188651,-0.000603,0.420495,-0.162639,0.761592,4
576745470549935,-9.336875,-0.009280,7.291772,3.053140,-1.569157,0.000003,-9.337443,-0.006099,7.287426,3.053370,-1.569258,-0.000459,-0.000000,0.051502,0.003169,0.006645,-0.000000,0.000000,-1.388343,-1.393744,-16.997083,-4.863723,2.200816,-0.000598,0.420519,-0.162636,0.761570,4
576745471540638,-9.336875,-0.009230,7.291774,3.053143,-1.569153,0.000004,-9.337458,-0.005984,7.287306,3.053378,-1.569261,-0.000472,-0.000000,0.053087,0.004754,0.005695,0.005695,0.000000,-1.414687,-1.783832,-17.152324,-4.907057,2.198734,-0.000582,0.420543,-0.162633,0.761549,4
576745472550596,-9.336875,-0.009175,7.291776,3.053147,-1.569151,0.000003,-9.337473,-0.005868,7.287187,3.053386,-1.569264,-0.000485,-0.000000,0.051502,0.003169,0.003797,-0.000000,0.000000,-1.400976,-1.188706,-16.980972,-4.852287,2.209431,-0.000591,0.420570,-0.162630,0.761525,4
576745473512647,-9.336878,-0.009120,7.291778,3.053152,-1.569147,0.000000,-9.337488,-0.005753,7.287067,3.053394,-1.569267,-0.000498,-0.002377,0.054672,0.002377,0.005695,0.004746,-0.002848,-1.248737,-1.887084,-17.180239,-4.889728,2.204382,-0.000650,0.420596,-0.162628,0.761501,4
576745474550596,-9.336874,-0.009067,7.291780,3.053159,-1.569142,0.000003,-9.337503,-0.005638,7.286948,3.053402,-1.569270,-0.000511,0.003169,0.054672,0.000000,0.006645,0.003797,0.000000,-1.706752,-1.739462,-17.134252,-4.947945,2.187771,-0.000440,0.420622,-0.162623,0.761479,4
576745475562149,-9.336875,-0.009007,7.291783,3.053162,-1.569138,0.000001,-9.337518,-0.005522,7.286828,3.053410,-1.569273,-0.000524,-0.000000,0.059426,0.003169,0.002848,0.003797,0.000000,-1.492276,-3.009071,-17.560989,-5.023332,2.194352,-0.000536,0.420651,-0.162620,0.761453,4
576745476551033,-9.336876,-0.008955,7.291782,3.053167,-1.569132,0.000003,-9.337533,-0.005407,7.286708,3.053418,-1.569277,-0.000537,-0.000000,0.056257,0.000000,0.002848,0.005695,0.000000,-1.472443,-1.930935,-17.217990,-4.926354,2.198579,-0.000552,0.420676,-0.162617,0.761432,4
576745477545775,-9.336876,-0.008896,7.291784,3.053169,-1.569126,0.000004,-9.337548,-0.005292,7.286588,3.053426,-1.569280,-0.000550,-0.000000,0.053879,0.000000,0.002848,0.004746,0.000000,-1.466279,-1.235978,-17.046772,-4.875489,2.210734,-0.000562,0.420705,-0.162614,0.761408,4
576745478549471,-9.336874,-0.008839,7.291782,3.053175,-1.569122,0.000002,-9.337563,-0.005176,7.286468,3.053434,-1.569283,-0.000563,-0.000000,0.057841,0.000000,0.005695,0.004746,0.000000,-1.517829,-2.210680,-17.351464,-4.973100,2.202764,-0.000536,0.420732,-0.162610,0.761385,4
576745479550121,-9.336874,-0.008785,7.291783,3.053181,-1.569114,0.000001,-9.337578,-0.005061,7.286348,3.053443,-1.569287,-0.000576,-0.000000,0.054672,0.000000,0.005695,0.005695,-0.002848,-1.506803,-1.296484,-17.116061,-4.903831,2.215595,-0.000533,0.420759,-0.162606,0.761363,4
576745480563219,-9.336874,-0.008725,7.291782,3.053182,-1.569105,0.000001,-9.337593,-0.004946,7.286228,3.053451,-1.569291,-0.000589,-0.000000,0.060218,0.000000,-0.000000,0.012340,0.000000,-1.543824,-2.640144,-17.498799,-5.005427,2.196239,-0.000512,0.420789,-0.162603,0.761340,4
576745481543949,-9.336876,-0.008664,7.291783,3.053182,-1.569098,0.000001,-9.337608,-0.004831,7.286108,3.053459,-1.569294,-0.000602,-0.002377,0.058634,0.000000,-0.000000,0.007594,0.000000,-1.347310,-2.130793,-17.378306,-4.939826,2.216489,-0.000616,0.420818,-0.162601,0.761316,4
576745482555623,-9.336874,-0.008609,7.291781,3.053184,-1.569093,0.000001,-9.337623,-0.004715,7.285988,3.053467,-1.569298,-0.000615,-0.000000,0.058634,-0.002377,-0.000000,0.004746,0.000000,-1.544000,-1.947083,-17.313562,-4.951594,2.210679,-0.000519,0.420844,-0.162598,0.761295,4
576745483551481,-9.336877,-0.008547,7.291780,3.053185,-1.569083,0.000000,-9.337638,-0.004600,7.285868,3.053475,-1.569302,-0.000628,-0.000000,0.057841,0.000000,-0.000000,0.010442,-0.002848,-1.556893,-1.795395,-17.332237,-4.955430,2.217286,-0.000499,0.420875,-0.162596,0.761271,4
576745484552677,-9.336875,-0.008493,7.291777,3.053185,-1.569075,0.000002,-9.337653,-0.004485,7.285747,3.053483,-1.569306,-0.000641,-0.000000,0.057049,-0.003169,-0.000000,0.010442,0.000000,-1.555292,-1.342147,-17.167173,-4.910879,2.215936,-0.000519,0.420901,-0.162593,0.761252,4
576745485504812,-9.336875,-0.008433,7.291777,3.053185,-1.569065,0.000002,-9.337668,-0.004370,7.285627,3.053491,-1.569310,-0.000654,-0.000000,0.057049,0.000000,-0.000000,0.013289,0.000000,-1.576498,-1.431033,-17.272187,-4.938800,2.224852,-0.000511,0.420931,-0.162590,0.761229,4
576745486548920,-9.336875,-0.008374,7.291775,3.053187,-1.569054,0.000002,-9.337683,-0.004255,7.285507,3.053499,-1.569314,-0.000667,-0.000000,0.058634,-0.002377,-0.000000,0.010442,0.000000,-1.591887,-1.651001,-17.315599,-4.954064,2.220903,-0.000502,0.420960,-0.162587,0.761207,4
576745487551032,-9.336874,-0.008313,7.291774,3.053186,-1.569046,0.000002,-9.337698,-0.004140,7.285386,3.053507,-1.569319,-0.000680,-0.000000,0.061011,0.000000,-0.000000,0.008543,0.000000,-1.626520,-2.321044,-17.575023,-5.027535,2.225241,-0.000484,0.420990,-0.162585,0.761184,4
576745488553642,-9.336874,-0.008260,7.291774,3.053185,-1.569036,0.000001,-9.337713,-0.004025,7.285265,3.053516,-1.569323,-0.000693,-0.000000,0.060218,0.000000,-0.000000,0.009492,0.000000,-1.632111,-2.024665,-17.513564,-5.009625,2.230874,-0.000484,0.421016,-0.162583,0.761163,4
576745489564969,-9.336876,-0.008194,7.291775,3.053187,-1.569024,0.000002,-9.337728,-0.003910,7.285145,3.053524,-1.569327,-0.000706,-0.000000,0.061011,0.000000,-0.000000,0.011391,0.000000,-1.649603,-2.180189,-17.578975,-5.029409,2.230423,-0.000476,0.421048,-0.162580,0.761138,4
576745490552884,-9.336874,-0.008134,7.291774,3.053186,-1.569016,0.000002,-9.337743,-0.003795,7.285024,3.053532,-1.569332,-0.000719,-0.000000,0.060218,0.000000,-0.000000,0.008543,0.000000,-1.655199,-1.901034,-17.526743,-5.013422,2.239458,-0.000477,0.421078,-0.162577,0.761115,4
576745491550779,-9.336874,-0.008074,7.291774,3.053185,-1.569000,0.000003,-9.337758,-0.003680,7.284903,3.053540,-1.569337,-0.000732,-0.000000,0.060218,0.000000,-0.000000,0.015188,0.000000,-1.670236,-1.837269,-17.524433,-5.014586,2.236861,-0.000470,0.421108,-0.162574,0.761092,4
576745492550396,-9.336876,-0.008013,7.291774,3.053185,-1.568988,0.000003,-9.337773,-0.003565,7.284782,3.053548,-1.569341,-0.000745,-0.000000,0.061011,0.000000,-0.000000,0.012340,0.000000,-1.684627,-1.975738,-17.590127,-5.033131,2.241151,-0.000464,0.421138,-0.162572,0.761069,4
576745493550504,-9.336875,-0.007950,7.291772,3.053185,-1.568977,0.000002,-9.337788,-0.003450,7.284662,3.053556,-1.569346,-0.000758,-0.000000,0.063388,0.000000,-0.000000,0.011391,0.000000,-1.713938,-2.536417,-17.772627,-5.087131,2.238613,-0.000447,0.421170,-0.162569,0.761046,4
576745494554343,-9.336875,-0.007885,7.291772,3.053185,-1.568963,0.000003,-9.337803,-0.003335,7.284541,3.053564,-1.569351,-0.000771,-0.000000,0.064972,0.000000,-0.000000,0.013289,0.000000,-1.738449,-2.897334,-17.895808,-5.124202,2.235701,-0.000434,0.421202,-0.162567,0.761021,4
576745495553594,-9.336874,-0.007824,7.291772,3.053183,-1.568950,0.000002,-9.337818,-0.003220,7.284420,3.053572,-1.569356,-0.000784,-0.000000,0.064972,0.000000,-0.000000,0.013289,0.000000,-1.751332,-2.828978,-17.899894,-5.125643,2.239535,-0.000429,0.421233,-0.162564,0.760998,4
576745496509229,-9.336878,-0.007761,7.291773,3.053182,-1.568938,0.000000,-9.337833,-0.003105,7.284298,3.053580,-1.569361,-0.000798,-0.003962,0.063388,0.000000,-0.000000,0.012340,0.000000,-1.427164,-2.315833,-17.770179,-5.039198,2.260540,-0.000596,0.421263,-0.162563,0.760974,4
576745497545001,-9.336876,-0.007695,7.291771,3.053183,-1.568923,0.000002,-9.337848,-0.002990,7.284177,3.053588,-1.569366,-0.000811,-0.000000,0.062595,0.000000,-0.000000,0.015188,-0.002848,-1.756692,-2.096160,-17.737556,-5.077886,2.252421,-0.000418,0.421297,-0.162559,0.760950,4
576745498545147,-9.336874,-0.007633,7.291770,3.053182,-1.568908,0.000003,-9.337863,-0.002875,7.284056,3.053597,-1.569372,-0.000824,0.002377,0.064180,0.000000,-0.000000,0.014239,0.000000,-1.973689,-2.469058,-17.872671,-5.146394,2.245442,-0.000325,0.421328,-0.162555,0.760927,4
576745499540356,-9.336875,-0.007574,7.291768,3.053182,-1.568895,0.000003,-9.337878,-0.002761,7.283935,3.053605,-1.569377,-0.000837,-0.000000,0.061803,-0.002377,-0.000000,0.014239,0.000000,-1.768116,-1.635641,-17.609924,-5.043101,2.257537,-0.000433,0.421358,-0.162553,0.760906,4
576745500548633,-9.336877,-0.007505,7.291766,3.053182,-1.568879,0.000003,-9.337893,-0.002646,7.283813,3.053613,-1.569382,-0.000850,-0.000000,0.064972,0.000000,-0.000000,0.013289,0.000000,-1.807585,-2.537505,-17.933312,-5.135516,2.258244,-0.000411,0.421392,-0.162551,0.760881,4
576745501542442,-9.336875,-0.007444,7.291766,3.053181,-1.568865,0.000003,-9.337908,-0.002531,7.283692,3.053621,-1.569388,-0.000863,-0.000000,0.061011,0.000000,-0.000000,0.014239,0.000000,-1.792333,-1.436393,-17.644877,-5.050581,2.273112,-0.000427,0.421423,-0.162548,0.760858,4
576745502550179,-9.336876,-0.007381,7.291760,3.053181,-1.568847,0.000004,-9.337923,-0.002417,7.283571,3.053629,-1.569394,-0.000876,-0.000000,0.063388,-0.005546,-0.000000,0.016137,0.000000,-1.807384,-1.725009,-17.641628,-5.057227,2.254078,-0.000415,0.421456,-0.162545,0.760836,4
576745503550298,-9.336875,-0.007319,7.291760,3.053180,-1.568830,0.000002,-9.337938,-0.002302,7.283449,3.053637,-1.569399,-0.000890,-0.000000,0.061803,0.000000,-0.000000,0.015188,0.000000,-1.822048,-1.521072,-17.713173,-5.071274,2.277161,-0.000415,0.421487,-0.162542,0.760814,4
576745504551799,-9.336875,-0.007256,7.291756,3.053181,-1.568812,0.000003,-9.337953,-0.002187,7.283328,3.053645,-1.569405,-0.000903,-0.000000,0.063388,-0.003962,-0.000000,0.017086,0.000000,-1.836297,-1.681736,-17.704160,-5.074309,2.264428,-0.000405,0.421520,-0.162539,0.760792,4
576745505548410,-9.336876,-0.007193,7.291755,3.053181,-1.568796,0.000002,-9.337968,-0.002073,7.283206,3.053653,-1.569411,-0.000916,-0.000000,0.061803,0.000000,-0.000000,0.016137,0.000000,-1.845542,-1.401527,-17.724112,-5.074906,2.283630,-0.000407,0.421551,-0.162537,0.760768,4
576745506550461,-9.336874,-0.007133,7.291754,3.053179,-1.568778,0.000002,-9.337983,-0.001958,7.283084,3.053661,-1.569417,-0.000929,-0.000000,0.060218,0.000000,-0.000000,0.018036,0.000000,-1.848708,-0.921115,-17.609337,-5.041789,2.290285,-0.000410,0.421583,-0.162534,0.760747,4
576745507546678,-9.336876,-0.007072,7.291749,3.053179,-1.568761,0.000000,-9.337998,-0.001844,7.282963,3.053669,-1.569423,-0.000942,-0.000000,0.061803,-0.004754,-0.000000,0.017086,0.000000,-1.856887,-1.033440,-17.574679,-5.037124,2.278514,-0.000403,0.421614,-0.162532,0.760727,4
576745508550744,-9.336874,-0.007008,7.291748,3.053180,-1.568741,0.000002,-9.338013,-0.001729,7.282841,3.053677,-1.569429,-0.000955,-0.000000,0.063388,0.000000,-0.000000,0.019934,0.000000,-1.895648,-1.627325,-17.851870,-5.114315,2.286211,-0.000384,0.421647,-0.162528,0.760704,4
576745509552358,-9.336875,-0.006943,7.291745,3.053181,-1.568724,0.000004,-9.338028,-0.001615,7.282719,3.053685,-1.569436,-0.000969,-0.000000,0.062595,-0.002377,-0.000000,0.017086,0.000000,-1.893664,-1.248684,-17.726373,-5.079410,2.289170,-0.000388,0.421680,-0.162525,0.760680,4
576745510551321,-9.336876,-0.006880,7.291742,3.053180,-1.568706,0.000004,-9.338043,-0.001501,7.282597,3.053693,-1.569442,-0.000982,-0.000000,0.064180,-0.003169,-0.000000,0.018036,0.000000,-1.914634,-1.563876,-17.821954,-5.108974,2.285195,-0.000376,0.421712,-0.162523,0.760658,4
576745511552439,-9.336876,-0.006820,7.291740,3.053181,-1.568686,0.000002,-9.338058,-0.001386,7.282475,3.053701,-1.569448,-0.000995,-0.000000,0.060218,0.000000,-0.000000,0.019934,0.000000,-1.906752,-0.618893,-17.635844,-5.050461,2.306860,-0.000390,0.421744,-0.162520,0.760637,4
576745512517232,-9.336876,-0.006757,7.291741,3.053182,-1.568668,0.000003,-9.338073,-0.001272,7.282353,3.053710,-1.569455,-0.001008,-0.000000,0.062595,0.000000,-0.000000,0.018036,0.000000,-1.935032,-1.180629,-17.820290,-5.104674,2.305286,-0.000374,0.421776,-0.162517,0.760613,4
576745513559944,-9.336874,-0.006692,7.291741,3.053181,-1.568648,0.000001,-9.338088,-0.001158,7.282231,3.053718,-1.569462,-0.001022,0.002377,0.064972,0.000000,-0.000000,0.019934,0.000000,-2.160141,-1.774960,-18.015047,-5.191613,2.293013,-0.000259,0.421810,-0.162513,0.760589,4
576745514504144,-9.336874,-0.006628,7.291742,3.053181,-1.568630,0.000001,-9.338103,-0.001043,7.282109,3.053726,-1.569468,-0.001035,-0.000000,0.064180,0.000000,-0.000000,0.018036,0.000000,-1.972869,-1.489133,-17.954589,-5.144890,2.307785,-0.000356,0.421843,-0.162510,0.760565,4
576745515551256,-9.336876,-0.006566,7.291740,3.053182,-1.568611,0.000002,-9.338118,-0.000929,7.281987,3.053734,-1.569475,-0.001048,-0.000000,0.064180,0.000000,-0.000000,0.018985,0.000000,-1.983059,-1.427989,-17.959291,-5.146342,2.310655,-0.000353,0.421875,-0.162508,0.760543,4
576745516548787,-9.336875,-0.006498,7.291740,3.053180,-1.568590,0.000002,-9.338133,-0.000815,7.281864,3.053742,-1.569482,-0.001061,-0.000000,0.063388,0.000000,-0.000000,0.020883,0.000000,-1.991251,-1.178966,-17.910100,-5.132424,2.314694,-0.000352,0.421910,-0.162505,0.760519,4
576745517551468,-9.336874,-0.006434,7.291740,3.053185,-1.568568,0.000002,-9.338147,-0.000701,7.281742,3.053750,-1.569489,-0.001075,-0.000000,0.067349,0.000000,0.002848,0.021833,0.000000,-2.043469,-2.184095,-18.222737,-5.232504,2.305432,-0.000326,0.421944,-0.162501,0.760494,4
576745518550093,-9.336878,-0.006364,7.291742,3.053182,-1.568548,0.000002,-9.338162,-0.000587,7.281620,3.053758,-1.569496,-0.001088,-0.000000,0.066557,0.000000,-0.000000,0.022782,0.000000,-2.037941,-1.918875,-18.164355,-5.208108,2.310543,-0.000326,0.421979,-0.162500,0.760468,4
576745519552490,-9.336874,-0.006295,7.291740,3.053181,-1.568529,0.000001,-9.338177,-0.000473,7.281497,3.053766,-1.569503,-0.001101,0.003962,0.068934,0.000000,-0.000000,0.018985,0.000000,-2.390413,-2.535573,-18.375492,-5.317497,2.299051,-0.000149,0.422015,-0.162495,0.760443,4
576745520550874,-9.336877,-0.006225,7.291742,3.053180,-1.568507,0.000002,-9.338192,-0.000358,7.281375,3.053774,-1.569510,-0.001114,-0.003169,0.066557,0.000000,-0.000000,0.021833,0.000000,-1.806007,-1.809550,-18.174175,-5.173139,2.327527,-0.000446,0.422051,-0.162493,0.760417,4
576745521550948,-9.336876,-0.006156,7.291740,3.053180,-1.568485,0.000003,-9.338207,-0.000244,7.281252,3.053782,-1.569518,-0.001128,-0.000000,0.069726,0.000000,-0.000000,0.021833,0.000000,-2.099300,-2.631263,-18.436846,-5.288973,2.312263,-0.000296,0.422087,-0.162490,0.760392,4
576745522551334,-9.336876,-0.006084,7.291740,3.053179,-1.568465,0.000003,-9.338222,-0.000130,7.281130,3.053790,-1.569525,-0.001141,-0.000000,0.072103,0.000000,-0.000000,0.019934,0.000000,-2.128191,-3.220507,-18.628760,-5.345362,2.310313,-0.000279,0.422124,-0.162487,0.760366,4
576745523552925,-9.336878,-0.006019,7.291740,3.053180,-1.568445,0.000001,-9.338237,-0.000017,7.281007,3.053798,-1.569533,-0.001154,-0.000000,0.064972,0.000000,-0.000000,0.019934,0.000000,-2.087140,-1.303711,-18.111275,-5.191947,2.335582,-0.000314,0.422157,-0.162484,0.760342,4
576745524553151,-9.336878,-0.005951,7.291738,3.053178,-1.568424,0.000002,-9.338252,0.000097,7.280884,3.053806,-1.569541,-0.001168,-0.000000,0.068142,0.000000,-0.000000,0.020883,0.000000,-2.122894,-2.091123,-18.355596,-5.264619,2.328563,-0.000292,0.422192,-0.162482,0.760318,4
576745525556906,-9.336877,-0.005880,7.291738,3.053178,-1.568403,0.000002,-9.338267,0.000211,7.280761,3.053814,-1.569548,-0.001181,-0.000000,0.070519,0.000000,-0.000000,0.020883,0.000000,-2.153542,-2.678253,-18.544993,-5.320899,2.324806,-0.000275,0.422229,-0.162478,0.760291,4
576745526554300,-9.336876,-0.005809,7.291736,3.053182,-1.568386,0.000002,-9.338282,0.000325,7.280638,3.053822,-1.569556,-0.001194,-0.000000,0.070519,-0.002377,0.003797,0.017086,0.000000,-2.171879,-2.549827,-18.499820,-5.319010,2.326076,-0.000274,0.422265,-0.162474,0.760265,4
576745527550873,-9.336878,-0.005743,7.291733,3.053178,-1.568362,0.000005,-9.338297,0.000439,7.280515,3.053830,-1.569564,-0.001207,-0.000000,0.068934,-0.003169,-0.003797,0.024680,0.000000,-2.147172,-1.998830,-18.326872,-5.252245,2.325064,-0.000276,0.422300,-0.162472,0.760243,4
576745528557719,-9.336875,-0.005675,7.291733,3.053178,-1.568342,0.000000,-9.338312,0.000553,7.280392,3.053838,-1.569572,-0.001221,0.002377,0.068142,0.000000,-0.000000,0.019934,0.000000,-2.367510,-1.954357,-18.417051,-5.311607,2.336484,-0.000178,0.422335,-0.162468,0.760218,4
576745529550957,-9.336878,-0.005604,7.291731,3.053178,-1.568323,0.000003,-9.338326,0.000666,7.280269,3.053846,-1.569580,-0.001234,-0.002377,0.070519,0.000000,-0.000000,0.018985,0.000000,-2.008657,-2.494176,-18.582538,-5.303394,2.347355,-0.000355,0.422371,-0.162466,0.760192,4
576745530546845,-9.336875,-0.005536,7.291728,3.053178,-1.568306,0.000002,-9.338341,0.000780,7.280146,3.053854,-1.569589,-0.001247,0.002377,0.068142,-0.003169,-0.000000,0.017086,0.000000,-2.382886,-1.717479,-18.340043,-5.292233,2.338403,-0.000174,0.422406,-0.162462,0.760168,4
576745531547153,-9.336876,-0.005465,7.291725,3.053177,-1.568282,0.000001,-9.338356,0.000894,7.280023,3.053862,-1.569597,-0.001261,-0.000000,0.071311,-0.002377,-0.000000,0.023731,0.000000,-2.230304,-2.535080,-18.595569,-5.340319,2.334474,-0.000245,0.422443,-0.162459,0.760143,4
576745532552288,-9.336878,-0.005390,7.291724,3.053179,-1.568262,0.000004,-9.338371,0.001007,7.279900,3.053870,-1.569606,-0.001274,-0.000000,0.072896,0.000000,-0.000000,0.019934,0.002848,-2.257504,-3.040770,-18.810924,-5.399988,2.342547,-0.000248,0.422480,-0.162456,0.760116,4
576745533552977,-9.336876,-0.005321,7.291723,3.053178,-1.568243,0.000000,-9.338386,0.001121,7.279776,3.053878,-1.569614,-0.001288,-0.000000,0.071311,0.000000,-0.000000,0.018985,-0.002848,-2.259436,-2.586630,-18.707414,-5.369324,2.351715,-0.000219,0.422516,-0.162452,0.760090,4
576745534565144,-9.336875,-0.005248,7.291722,3.053177,-1.568221,0.000002,-9.338401,0.001235,7.279653,3.053886,-1.569623,-0.001301,-0.000000,0.072896,0.000000,-0.000000,0.021833,0.000000,-2.285976,-2.976115,-18.837642,-5.408827,2.347476,-0.000221,0.422553,-0.162449,0.760064,4
576745535547032,-9.336877,-0.005176,7.291721,3.053179,-1.568200,-0.000001,-9.338416,0.001348,7.279530,3.053894,-1.569632,-0.001314,-0.000000,0.072103,0.000000,-0.000000,0.020883,-0.003797,-2.291270,-2.740487,-18.795662,-5.396055,2.354179,-0.000199,0.422591,-0.162446,0.760037,4
576745536551250,-9.336874,-0.005102,7.291721,3.053181,-1.568179,0.000002,-9.338431,0.001462,7.279406,3.053902,-1.569641,-0.001328,0.002377,0.073688,0.000000,-0.000000,0.020883,0.002848,-2.511333,-3.154228,-18.942225,-5.468266,2.345877,-0.000128,0.422629,-0.162441,0.760009,4
576745537549879,-9.336876,-0.005028,7.291719,3.053178,-1.568159,0.000000,-9.338446,0.001575,7.279282,3.053910,-1.569650,-0.001341,-0.000000,0.073688,0.000000,-0.000000,0.019934,0.000000,-2.328784,-3.104749,-18.946829,-5.440795,2.356959,-0.000204,0.422666,-0.162439,0.759983,4
576745538550034,-9.336877,-0.004951,7.291719,3.053178,-1.568135,0.000003,-9.338461,0.001688,7.279159,3.053918,-1.569659,-0.001355,-0.000000,0.077650,0.000000,-0.000000,0.024680,0.002848,-2.372645,-4.132150,-19.255129,-5.533364,2.343574,-0.000192,0.422706,-0.162436,0.759954,4
576745539548464,-9.336876,-0.004875,7.291718,3.053179,-1.568114,0.000002,-9.338475,0.001802,7.279035,3.053926,-1.569668,-0.001368,-0.000000,0.075273,0.000000,-0.000000,0.020883,0.000000,-2.367290,-3.487582,-19.101309,-5.486971,2.357709,-0.000185,0.422745,-0.162432,0.759927,4
576745540548573,-9.336875,-0.004803,7.291721,3.053181,-1.568093,0.000002,-9.338490,0.001915,7.278911,3.053934,-1.569677,-0.001381,-0.000000,0.076858,0.002377,-0.000000,0.020883,0.000000,-2.398729,-3.992559,-19.313168,-5.546894,2.362187,-0.000169,0.422783,-0.162428,0.759898,4
576745541549425,-9.336878,-0.004727,7.291719,3.053181,-1.568071,0.000002,-9.338505,0.002028,7.278787,3.053942,-1.569687,-0.001395,-0.002377,0.076065,0.000000,-0.000000,0.021833,0.000000,-2.204956,-3.627564,-19.182057,-5.482710,2.367950,-0.000268,0.422821,-0.162426,0.759871,4
576745542548643,-9.336878,-0.004648,7.291719,3.053182,-1.568046,0.000000,-9.338520,0.002142,7.278663,3.053950,-1.569696,-0.001408,-0.000000,0.079235,0.000000,-0.000000,0.024680,0.000000,-2.436395,-4.474338,-19.447289,-5.590512,2.351915,-0.000148,0.422862,-0.162422,0.759841,4
576745543550199,-9.336878,-0.004569,7.291717,3.053180,-1.568025,0.000001,-9.338535,0.002255,7.278539,3.053958,-1.569706,-0.001422,-0.000000,0.078442,0.000000,-0.000000,0.021833,0.000000,-2.442299,-4.254140,-19.411877,-5.579275,2.360222,-0.000149,0.422902,-0.162419,0.759813,4
576745544552130,-9.336877,-0.004492,7.291718,3.053179,-1.568000,-0.000001,-9.338550,0.002368,7.278415,3.053966,-1.569716,-0.001435,-0.000000,0.077650,0.000000,-0.000000,0.024680,0.000000,-2.452110,-4.037532,-19.371525,-5.568221,2.363028,-0.000146,0.422943,-0.162415,0.759784,4
576745545550488,-9.336877,-0.004415,7.291718,3.053178,-1.567977,-0.000001,-9.338565,0.002481,7.278291,3.053974,-1.569725,-0.001449,-0.000000,0.076858,0.000000,-0.000000,0.022782,0.000000,-2.458546,-3.814709,-19.334675,-5.556821,2.370496,-0.000147,0.422982,-0.162412,0.759756,4
576745546504387,-9.336876,-0.004339,7.291716,3.053178,-1.567952,0.000004,-9.338580,0.002594,7.278167,3.053982,-1.569735,-0.001462,-0.000000,0.076065,-0.002377,-0.000000,0.024680,0.002848,-2.461640,-3.474326,-19.214934,-5.525084,2.368360,-0.000164,0.423022,-0.162408,0.759729,4
576745547548743,-9.336877,-0.004261,7.291715,3.053177,-1.567928,0.000002,-9.338594,0.002707,7.278042,3.053990,-1.569746,-0.001476,-0.000000,0.075273,0.000000,-0.000000,0.024680,0.000000,-2.474521,-3.372741,-19.254725,-5.533790,2.379761,-0.000145,0.423062,-0.162405,0.759701,4
576745548504226,-9.336876,-0.004185,7.291713,3.053177,-1.567906,0.000003,-9.338609,0.002820,7.277918,3.053998,-1.569756,-0.001489,-0.000000,0.076065,-0.002377,-0.000000,0.021833,0.000000,-2.486579,-3.443473,-19.256536,-5.536767,2.377479,-0.000139,0.423101,-0.162401,0.759674,4
576745549550853,-9.336876,-0.004115,7.291712,3.053175,-1.567882,0.000003,-9.338624,0.002933,7.277794,3.054006,-1.569766,-0.001503,-0.000000,0.076858,0.000000,-0.000000,0.022782,0.002848,-2.511515,-3.737264,-19.406757,-5.578525,2.383382,-0.000144,0.423138,-0.162398,0.759649,4
576745550550898,-9.336878,-0.004035,7.291710,3.053177,-1.567857,0.000004,-9.338639,0.003046,7.277669,3.054014,-1.569776,-0.001516,-0.000000,0.075273,0.000000,-0.000000,0.023731,0.000000,-2.512703,-3.315912,-19.310141,-5.550092,2.390349,-0.000131,0.423179,-0.162395,0.759620,4
576745551550726,-9.336878,-0.003962,7.291708,3.053175,-1.567833,0.000002,-9.338654,0.003159,7.277545,3.054022,-1.569787,-0.001530,-0.000000,0.075273,-0.003962,-0.000000,0.022782,0.000000,-2.514922,-3.096482,-19.198008,-5.521676,2.384826,-0.000131,0.423217,-0.162392,0.759594,4
576745552503498,-9.336877,-0.003883,7.291706,3.053175,-1.567807,0.000002,-9.338669,0.003272,7.277420,3.054030,-1.569798,-0.001543,-0.000000,0.076065,-0.003169,-0.000000,0.024680,0.000000,-2.537876,-3.335116,-19.301537,-5.552050,2.385580,-0.000119,0.423258,-0.162388,0.759566,4
576745553551375,-9.336875,-0.003802,7.291705,3.053177,-1.567782,0.000002,-9.338683,0.003385,7.277295,3.054038,-1.569808,-0.001557,-0.000000,0.081612,0.000000,-0.000000,0.024680,0.000000,-2.601584,-4.943710,-19.839275,-5.707648,2.379572,-0.000080,0.423301,-0.162383,0.759536,4
576745554550925,-9.336878,-0.003721,7.291705,3.053175,-1.567758,0.000005,-9.338698,0.003497,7.277170,3.054046,-1.569819,-0.001570,-0.002377,0.080027,0.000000,-0.000000,0.024680,0.002848,-2.407583,-4.504497,-19.733583,-5.647632,2.394331,-0.000198,0.423342,-0.162381,0.759506,4
576745555550735,-9.336877,-0.003649,7.291700,3.053178,-1.567732,0.000004,-9.338713,0.003610,7.277046,3.054054,-1.569830,-0.001584,-0.000000,0.077650,-0.003169,0.002848,0.028477,0.000000,-2.601561,-3.744762,-19.489667,-5.616027,2.386408,-0.000094,0.423380,-0.162377,0.759482,4
576745556554111,-9.336878,-0.003569,7.291699,3.053178,-1.567706,0.000002,-9.338728,0.003723,7.276921,3.054062,-1.569841,-0.001597,-0.000000,0.077650,-0.002377,0.003797,0.026579,0.000000,-2.618662,-3.786014,-19.544217,-5.632929,2.393274,-0.000090,0.423422,-0.162373,0.759453,4
576745557553352,-9.336876,-0.003483,7.291698,3.053176,-1.567683,0.000002,-9.338743,0.003835,7.276796,3.054070,-1.569852,-0.001611,-0.000000,0.080819,0.000000,-0.000000,0.022782,0.000000,-2.648193,-4.713851,-19.870858,-5.716670,2.396080,-0.000066,0.423465,-0.162369,0.759422,4
576745558507550,-9.336876,-0.003403,7.291698,3.053178,-1.567660,0.000001,-9.338758,0.003948,7.276671,3.054078,-1.569864,-0.001624,-0.000000,0.080027,0.000000,-0.000000,0.022782,0.000000,-2.656260,-4.503401,-19.835661,-5.706340,2.401596,-0.000065,0.423507,-0.162365,0.759391,4
576745559555195,-9.336878,-0.003326,7.291696,3.053177,-1.567632,0.000002,-9.338772,0.004060,7.276546,3.054086,-1.569875,-0.001638,-0.000000,0.081612,0.000000,-0.000000,0.027528,0.000000,-2.682079,-4.909152,-19.968206,-5.746726,2.395367,-0.000050,0.423547,-0.162362,0.759364,4
576745560549754,-9.336878,-0.003243,7.291694,3.053177,-1.567604,0.000002,-9.338787,0.004173,7.276420,3.054094,-1.569887,-0.001652,-0.000000,0.083196,-0.002377,-0.000000,0.028477,0.000000,-2.701876,-5.212591,-20.031380,-5.768805,2.386720,-0.000038,0.423590,-0.162359,0.759335,4
576745561553083,-9.336877,-0.003166,7.291694,3.053176,-1.567580,0.000001,-9.338802,0.004285,7.276295,3.054102,-1.569898,-0.001665,-0.000000,0.081612,0.000000,-0.000000,0.025630,0.000000,-2.709027,-4.902179,-20.016099,-5.760609,2.403307,-0.000040,0.423630,-0.162355,0.759306,4
576745562551548,-9.336877,-0.003084,7.291691,3.053174,-1.567552,0.000003,-9.338817,0.004398,7.276170,3.054110,-1.569910,-0.001679,-0.000000,0.080027,-0.003169,-0.000000,0.025630,0.000000,-2.703067,-4.333694,-19.818886,-5.706277,2.403187,-0.000047,0.423673,-0.162352,0.759278,4
576745563536916,-9.336876,-0.003001,7.291691,3.053173,-1.567522,0.000001,-9.338832,0.004510,7.276044,3.054118,-1.569922,-0.001692,-0.000000,0.083196,0.000000,-0.000000,0.029427,0.000000,-2.750787,-5.329816,-20.179454,-5.810225,2.400613,-0.000019,0.423717,-0.162348,0.759248,4
576745564550619,-9.336878,-0.002914,7.291688,3.053172,-1.567494,0.000002,-9.338847,0.004622,7.275919,3.054126,-1.569934,-0.001706,-0.002377,0.083196,-0.002377,-0.000000,0.028477,0.000000,-2.561942,-5.203653,-20.117954,-5.766116,2.405391,-0.000114,0.423761,-0.162345,0.759217,4
576745565545411,-9.336877,-0.002831,7.291687,3.053174,-1.567465,0.000001,-9.338861,0.004735,7.275793,3.054134,-1.569946,-0.001720,-0.000000,0.083196,0.000000,-0.000000,0.028477,0.000000,-2.777745,-5.351476,-20.234103,-5.826229,2.407278,-0.000009,0.423805,-0.162340,0.759187,4
576745566549320,-9.336877,-0.002756,7.291685,3.053175,-1.567440,0.000002,-9.338876,0.004847,7.275668,3.054142,-1.569958,-0.001733,-0.000000,0.080027,-0.002377,-0.000000,0.026579,0.000000,-2.761056,-4.387125,-19.942807,-5.742559,2.416032,-0.000024,0.423845,-0.162336,0.759160,4
576745567547756,-9.336878,-0.002675,7.291684,3.053175,-1.567403,0.000003,-9.338891,0.004959,7.275542,3.054150,-1.569971,-0.001747,-0.000000,0.080819,0.000000,-0.000000,0.031325,0.000000,-2.788502,-4.717162,-20.098963,-5.787066,2.417788,-0.000011,0.423889,-0.162333,0.759132,4
576745568551931,-9.336878,-0.002593,7.291682,3.053175,-1.567372,0.000004,-9.338906,0.005071,7.275416,3.054158,-1.569983,-0.001761,-0.000000,0.082404,-0.002377,-0.000000,0.030376,0.000000,-2.807291,-5.018458,-20.163726,-5.809104,2.410987,0.000000,0.423932,-0.162329,0.759103,4
576745569549649,-9.336876,-0.002510,7.291679,3.053176,-1.567339,0.000002,-9.338921,0.005183,7.275290,3.054166,-1.569996,-0.001774,-0.000000,0.082404,-0.003169,-0.000000,0.033224,0.000000,-2.822278,-4.986589,-20.159857,-5.810088,2.409059,0.000007,0.423977,-0.162324,0.759075,4
576745570556386,-9.336878,-0.002425,7.291675,3.053177,-1.567308,0.000002,-9.338935,0.005295,7.275165,3.054174,-1.570008,-0.001788,-0.000000,0.084781,-0.003169,-0.000000,0.031325,0.000000,-2.851146,-5.618786,-20.363747,-5.869887,2.406559,0.000024,0.424021,-0.162321,0.759045,4
576745571549427,-9.336878,-0.002341,7.291678,3.053175,-1.567275,0.000002,-9.338950,0.005407,7.275039,3.054182,-1.570021,-0.001802,-0.000000,0.083196,0.002377,-0.000000,0.033224,0.000000,-2.868920,-5.494303,-20.455552,-5.890532,2.426004,0.000026,0.424066,-0.162317,0.759014,4
576745572549957,-9.336876,-0.002261,7.291676,3.053175,-1.567242,0.000003,-9.338965,0.005519,7.274913,3.054190,-1.570034,-0.001815,-0.000000,0.083989,0.000000,-0.000000,0.032274,0.000000,-2.883275,-5.580680,-20.459849,-5.894869,2.421644,0.000034,0.424109,-0.162313,0.758986,4
576745573550373,-9.336877,-0.002173,7.291674,3.053176,-1.567208,0.000002,-9.338980,0.005631,7.274787,3.054198,-1.570047,-0.001829,-0.000000,0.087950,-0.002377,-0.000000,0.034173,0.000000,-2.920649,-6.522960,-20.702289,-5.970228,2.404707,0.000059,0.424156,-0.162309,0.758955,4
576745574553564,-9.336876,-0.002087,7.291672,3.053177,-1.567176,-0.000001,-9.338995,0.005743,7.274660,3.054205,-1.570060,-0.001843,-0.000000,0.086366,0.000000,-0.000000,0.032274,-0.002848,-2.929370,-6.242276,-20.693892,-5.964427,2.419898,0.000075,0.424201,-0.162304,0.758924,4
576745575556658,-9.336878,-0.001997,7.291673,3.053174,-1.567140,0.000003,-9.339009,0.005855,7.274534,3.054213,-1.570073,-0.001856,-0.000000,0.087158,0.000000,-0.002848,0.036071,0.000000,-2.940437,-6.461711,-20.769440,-5.980693,2.416530,0.000069,0.424249,-0.162301,0.758892,4
576745576564704,-9.336878,-0.001915,7.291671,3.053176,-1.567104,0.000003,-9.339024,0.005966,7.274408,3.054221,-1.570087,-0.001870,-0.000000,0.086366,-0.002377,-0.000000,0.036071,0.000000,-2.952386,-6.162473,-20.669763,-5.961245,2.415928,0.000068,0.424294,-0.162297,0.758864,4
576745577550784,-9.336879,-0.001824,7.291672,3.053176,-1.567069,0.000001,-9.339039,0.006078,7.274282,3.054229,-1.570100,-0.001884,-0.000000,0.086366,0.000000,-0.000000,0.035122,0.000000,-2.971246,-6.312578,-20.782495,-5.991189,2.425392,0.000075,0.424342,-0.162293,0.758830,4
576745578551356,-9.336878,-0.001737,7.291669,3.053176,-1.567032,0.000001,-9.339054,0.006190,7.274155,3.054237,-1.570114,-0.001898,-0.000000,0.087158,-0.003169,-0.000000,0.037021,0.000000,-2.985796,-6.385109,-20.764367,-5.990685,2.415968,0.000083,0.424389,-0.162288,0.758801,4
576745579561578,-9.336877,-0.001649,7.291668,3.053176,-1.566996,0.000001,-9.339068,0.006301,7.274029,3.054245,-1.570128,-0.001911,-0.000000,0.087950,0.000000,-0.000000,0.036071,0.000000,-3.014331,-6.772059,-20.958163,-6.044007,2.424911,0.000096,0.424436,-0.162284,0.758770,4
576745580543848,-9.336878,-0.001561,7.291667,3.053174,-1.566959,0.000000,-9.339083,0.006413,7.273902,3.054253,-1.570141,-0.001925,-0.000000,0.087950,0.000000,-0.000000,0.037021,0.000000,-3.028438,-6.796674,-20.987792,-6.052960,2.426685,0.000102,0.424483,-0.162280,0.758739,4
576745581554294,-9.336879,-0.001471,7.291664,3.053173,-1.566919,-0.000001,-9.339098,0.006524,7.273775,3.054261,-1.570155,-0.001939,-0.000000,0.089535,-0.003169,-0.000000,0.039868,0.000000,-3.046382,-7.084476,-21.029158,-6.069884,2.413938,0.000114,0.424531,-0.162277,0.758709,4
576745582503477,-9.336875,-0.001384,7.291661,3.053170,-1.566882,0.000001,-9.339113,0.006636,7.273649,3.054269,-1.570169,-0.001953,0.003169,0.087158,-0.002377,-0.003797,0.037021,0.000000,-3.294421,-6.523885,-20.911914,-6.062618,2.419248,0.000237,0.424579,-0.162272,0.758679,4
576745583557481,-9.336877,-0.001295,7.291660,3.053173,-1.566844,0.000004,-9.339128,0.006747,7.273522,3.054277,-1.570184,-0.001967,-0.000000,0.091912,0.000000,-0.000000,0.037021,0.002848,-3.101376,-7.909571,-21.372333,-6.167261,2.422503,0.000124,0.424627,-0.162268,0.758648,4
576745584504659,-9.336876,-0.001208,7.291656,3.053172,-1.566804,0.000001,-9.339142,0.006858,7.273395,3.054285,-1.570198,-0.001980,-0.000000,0.087158,-0.003962,-0.000000,0.037021,-0.002848,-3.072037,-6.491074,-20.920392,-6.038637,2.429664,0.000134,0.424674,-0.162263,0.758619,4
576745585551879,-9.336877,-0.001126,7.291652,3.053170,-1.566768,0.000002,-9.339157,0.006970,7.273268,3.054293,-1.570212,-0.001994,-0.000000,0.086366,-0.003962,-0.000000,0.038919,0.000000,-3.080408,-6.292726,-20.885256,-6.028708,2.432995,0.000119,0.424718,-0.162260,0.758591,4
576745586551826,-9.336878,-0.001029,7.291646,3.053171,-1.566727,0.000002,-9.339172,0.007081,7.273141,3.054301,-1.570227,-0.002008,-0.000000,0.089535,-0.007131,-0.000000,0.037970,0.000000,-3.108517,-7.012637,-21.052562,-6.081992,2.418857,0.000138,0.424770,-0.162256,0.758559,4
576745587551240,-9.336881,-0.000948,7.291644,3.053170,-1.566688,0.000003,-9.339187,0.007192,7.273014,3.054308,-1.570242,-0.002022,-0.003169,0.089535,-0.003169,-0.000000,0.038919,0.002848,-2.870867,-7.185581,-21.190931,-6.080086,2.439639,0.000001,0.424814,-0.162253,0.758531,4
576745588551201,-9.336878,-0.000849,7.291639,3.053170,-1.566649,0.000003,-9.339201,0.007303,7.272887,3.054316,-1.570257,-0.002036,-0.000000,0.090327,-0.005546,-0.000000,0.038919,0.000000,-3.148805,-7.359128,-21.225693,-6.131839,2.424419,0.000156,0.424867,-0.162247,0.758498,4
576745589551842,-9.336878,-0.000760,7.291635,3.053171,-1.566608,0.000004,-9.339216,0.007414,7.272760,3.054324,-1.570271,-0.002049,-0.000000,0.089535,-0.003962,-0.000000,0.040818,0.000000,-3.162131,-7.260794,-21.248821,-6.137242,2.431359,0.000159,0.424916,-0.162243,0.758468,4
576745590555090,-9.336878,-0.000669,7.291629,3.053170,-1.566567,0.000003,-9.339231,0.007525,7.272633,3.054332,-1.570286,-0.002063,-0.000000,0.091120,-0.006339,-0.000000,0.040818,0.000000,-3.182190,-7.590670,-21.319650,-6.161375,2.423116,0.000172,0.424965,-0.162239,0.758438,4
576745591557479,-9.336877,-0.000578,7.291624,3.053170,-1.566529,0.000004,-9.339245,0.007636,7.272506,3.054340,-1.570302,-0.002077,-0.000000,0.094289,-0.004754,-0.000000,0.037970,0.002848,-3.223778,-8.527652,-21.640328,-6.253925,2.422645,0.000179,0.425014,-0.162234,0.758408,4
576745592550594,-9.336878,-0.000486,7.291618,3.053171,-1.566486,0.000002,-9.339260,0.007747,7.272379,3.054348,-1.570317,-0.002091,-0.000000,0.092704,-0.005546,-0.000000,0.043665,0.000000,-3.227649,-8.116299,-21.525580,-6.222558,2.422267,0.000195,0.425065,-0.162230,0.758377,4
576745593529656,-9.336878,-0.000394,7.291616,3.053172,-1.566444,0.000003,-9.339275,0.007857,7.272251,3.054356,-1.570332,-0.002105,-0.000000,0.091912,-0.002377,-0.000000,0.041767,0.000000,-3.243241,-8.101897,-21.607042,-6.242180,2.436742,0.000198,0.425115,-0.162225,0.758346,4
576745594552096,-9.336878,-0.000303,7.291608,3.053173,-1.566405,0.000002,-9.339290,0.007968,7.272124,3.054364,-1.570348,-0.002119,-0.000000,0.090327,-0.007923,-0.000000,0.038919,0.000000,-3.230923,-7.441198,-21.341592,-6.170033,2.433029,0.000189,0.425163,-0.162221,0.758317,4
576745595550083,-9.336878,-0.000213,7.291603,3.053173,-1.566364,0.000001,-9.339304,0.008079,7.271996,3.054372,-1.570363,-0.002133,-0.000000,0.090327,-0.004754,-0.000000,0.040818,0.000000,-3.255499,-7.631697,-21.476019,-6.206585,2.441370,0.000199,0.425213,-0.162216,0.758287,4
576745596543746,-9.336878,-0.000123,7.291596,3.053169,-1.566323,0.000002,-9.339319,0.008189,7.271869,3.054380,-1.570379,-0.002146,-0.000000,0.090327,-0.008716,-0.004746,0.045564,0.000000,-3.245439,-7.435381,-21.352494,-6.164744,2.429419,0.000203,0.425261,-0.162213,0.758258,4
576745597544768,-9.336878,-0.000028,7.291591,3.053172,-1.566280,0.000001,-9.339334,0.008300,7.271741,3.054387,-1.570395,-0.002160,-0.000000,0.091120,-0.007923,-0.000000,0.040818,0.000000,-3.282227,-7.759895,-21.497851,-6.217258,2.435832,0.000212,0.425313,-0.162208,0.758226,4
576745598551605,-9.336879,0.000063,7.291584,3.053173,-1.566236,0.000001,-9.339349,0.008410,7.271613,3.054395,-1.570411,-0.002174,-0.000000,0.090327,-0.007923,-0.000000,0.043665,0.000000,-3.292095,-7.586361,-21.467859,-6.209256,2.437778,0.000214,0.425363,-0.162204,0.758198,4
576745599549130,-9.336879,0.000150,7.291576,3.053169,-1.566199,0.000004,-9.339363,0.008521,7.271486,3.054403,-1.570427,-0.002188,-0.000000,0.091912,-0.007131,-0.003797,0.038919,0.002848,-3.304215,-8.031231,-21.628001,-6.245257,2.442079,0.000210,0.425409,-0.162200,0.758170,4
576745600548422,-9.336880,0.000242,7.291570,3.053172,-1.566157,0.000002,-9.339378,0.008631,7.271358,3.054411,-1.570443,-0.002202,-0.000000,0.092704,-0.006339,0.002848,0.041767,0.000000,-3.350447,-8.368042,-21.771827,-6.303849,2.441175,0.000239,0.425460,-0.162196,0.758139,4
576745601550466,-9.336879,0.000338,7.291564,3.053171,-1.566112,0.000000,-9.339393,0.008742,7.271230,3.054419,-1.570460,-0.002216,-0.000000,0.091912,-0.006339,-0.000000,0.042716,-0.002848,-3.351468,-8.187186,-21.736211,-6.286909,2.444791,0.000258,0.425512,-0.162191,0.758109,4
576745602548954,-9.336878,0.000429,7.291555,3.053170,-1.566066,0.000001,-9.339407,0.008852,7.271102,3.054427,-1.570476,-0.002230,-0.000000,0.091120,-0.008716,-0.000000,0.045564,0.000000,-3.357467,-7.899025,-21.628835,-6.259290,2.440747,0.000243,0.425562,-0.162186,0.758081,4
576745603551427,-9.336878,0.000517,7.291549,3.053169,-1.566026,0.000003,-9.339422,0.008962,7.270974,3.054435,-1.570493,-0.002244,-0.000000,0.091912,-0.006339,-0.000000,0.039868,0.000000,-3.379895,-8.245934,-21.800720,-6.305668,2.452225,0.000252,0.425610,-0.162182,0.758052,4
576745604549172,-9.336878,0.000609,7.291541,3.053173,-1.565980,0.000003,-9.339437,0.009072,7.270846,3.054443,-1.570509,-0.002258,-0.000000,0.092704,-0.007923,0.003797,0.046513,0.000000,-3.413346,-8.447759,-21.850762,-6.333793,2.441677,0.000264,0.425661,-0.162177,0.758023,4
576745605550304,-9.336878,0.000702,7.291534,3.053171,-1.565935,0.000001,-9.339451,0.009182,7.270718,3.054450,-1.570526,-0.002272,-0.000000,0.092704,-0.007131,-0.000000,0.044615,0.000000,-3.417065,-8.497940,-21.896297,-6.336798,2.447685,0.000270,0.425712,-0.162173,0.757993,4
576745606552491,-9.336879,0.000797,7.291527,3.053173,-1.565892,0.000003,-9.339466,0.009292,7.270590,3.054458,-1.570543,-0.002286,-0.000000,0.095081,-0.006339,-0.000000,0.043665,0.000000,-3.449597,-9.205911,-22.134898,-6.406202,2.445654,0.000289,0.425764,-0.162168,0.757962,4
576745607564970,-9.336876,0.000889,7.291520,3.053173,-1.565845,0.000004,-9.339481,0.009402,7.270462,3.054466,-1.570560,-0.002300,0.003169,0.091912,-0.007131,-0.000000,0.046513,0.000000,-3.705215,-8.408675,-21.921570,-6.383320,2.443481,0.000408,0.425815,-0.162162,0.757933,4
576745608504351,-9.336878,0.000990,7.291511,3.053172,-1.565799,0.000002,-9.339496,0.009512,7.270334,3.054474,-1.570577,-0.002314,-0.000000,0.095081,-0.008716,-0.000000,0.045564,0.003797,-3.476603,-9.191087,-22.128380,-6.408373,2.442078,0.000278,0.425869,-0.162159,0.757901,4
576745609550946,-9.336878,0.001083,7.291506,3.053173,-1.565757,0.000001,-9.339510,0.009622,7.270206,3.054482,-1.570595,-0.002328,-0.000000,0.093497,-0.005546,-0.000000,0.042716,0.000000,-3.486158,-8.974911,-22.153372,-6.411052,2.459688,0.000299,0.425920,-0.162154,0.757870,4
576745610551001,-9.336878,0.001179,7.291498,3.053173,-1.565715,0.000005,-9.339525,0.009731,7.270077,3.054490,-1.570612,-0.002342,-0.000000,0.095874,-0.007923,-0.000000,0.041767,0.003797,-3.512008,-9.528189,-22.288235,-6.453931,2.449768,0.000293,0.425972,-0.162150,0.757839,4
576745611503773,-9.336877,0.001263,7.291490,3.053174,-1.565670,0.000002,-9.339540,0.009841,7.269949,3.054498,-1.570629,-0.002356,-0.000000,0.091912,-0.007923,-0.000000,0.047462,0.000000,-3.502437,-8.512205,-22.017294,-6.375659,2.458555,0.000303,0.426019,-0.162145,0.757813,4
576745612553328,-9.336879,0.001362,7.291484,3.053172,-1.565620,0.000002,-9.339554,0.009951,7.269821,3.054506,-1.570647,-0.002370,-0.000000,0.091120,-0.006339,-0.002848,0.046513,0.000000,-3.503797,-8.421950,-22.039162,-6.372774,2.467813,0.000305,0.426073,-0.162141,0.757781,4
576745613543292,-9.336878,0.001456,7.291477,3.053175,-1.565575,0.000002,-9.339569,0.010060,7.269692,3.054513,-1.570665,-0.002384,-0.000000,0.093497,-0.007131,0.002848,0.045564,0.000000,-3.554610,-9.090466,-22.248941,-6.449921,2.461780,0.000323,0.426125,-0.162135,0.757751,4
576745614504687,-9.336878,0.001543,7.291470,3.053172,-1.565528,0.000001,-9.339584,0.010170,7.269564,3.054521,-1.570683,-0.002398,-0.000000,0.094289,-0.006339,-0.000000,0.048412,0.000000,-3.568608,-9.345004,-22.348827,-6.472462,2.460983,0.000336,0.426174,-0.162132,0.757724,4
576745615546406,-9.336878,0.001643,7.291460,3.053171,-1.565477,0.000001,-9.339598,0.010279,7.269435,3.054529,-1.570701,-0.002412,-0.000000,0.092704,-0.009508,-0.000000,0.048412,0.000000,-3.564728,-8.835184,-22.166839,-6.422799,2.459776,0.000331,0.426229,-0.162127,0.757694,4
576745616548942,-9.336880,0.001730,7.291451,3.053172,-1.565428,0.000001,-9.339613,0.010388,7.269306,3.054537,-1.570719,-0.002426,-0.002377,0.091120,-0.008716,-0.000000,0.051259,0.000000,-3.373257,-8.467603,-22.091271,-6.371657,2.472903,0.000232,0.426278,-0.162124,0.757667,4
576745617543345,-9.336878,0.001818,7.291443,3.053171,-1.565377,0.000001,-9.339628,0.010498,7.269178,3.054545,-1.570737,-0.002440,-0.000000,0.090327,-0.011093,-0.000000,0.051259,0.000000,-3.574486,-8.192596,-21.996248,-6.375496,2.464789,0.000329,0.426328,-0.162118,0.757641,4
576745618545010,-9.336879,0.001918,7.291435,3.053169,-1.565324,0.000004,-9.339642,0.010607,7.269049,3.054553,-1.570755,-0.002454,-0.000000,0.095874,-0.008716,-0.000000,0.048412,0.003797,-3.633016,-9.825388,-22.527333,-6.528931,2.458672,0.000343,0.426383,-0.162114,0.757610,4
576745619514024,-9.336878,0.002013,7.291424,3.053171,-1.565275,0.000002,-9.339657,0.010716,7.268920,3.054560,-1.570774,-0.002468,-0.000000,0.095081,-0.010300,-0.000000,0.049361,0.000000,-3.640029,-9.589416,-22.451612,-6.509164,2.458201,0.000367,0.426436,-0.162109,0.757581,4
576745620551261,-9.336880,0.002106,7.291414,3.053169,-1.565229,-0.000002,-9.339671,0.010825,7.268792,3.054568,-1.570792,-0.002483,-0.000000,0.092704,-0.010300,-0.002848,0.047462,-0.003797,-3.625549,-8.986695,-22.299161,-6.456534,2.469332,0.000381,0.426487,-0.162106,0.757553,4
576745621552843,-9.336880,0.002200,7.291404,3.053169,-1.565175,0.000002,-9.339686,0.010934,7.268663,3.054576,-1.570811,-0.002497,-0.000000,0.094289,-0.010300,-0.000000,0.054107,0.003797,-3.665474,-9.474929,-22.457153,-6.512290,2.460089,0.000354,0.426540,-0.162101,0.757525,4
576745622550294,-9.336878,0.002289,7.291393,3.053169,-1.565122,0.000001,-9.339701,0.011043,7.268534,3.054584,-1.570829,-0.002511,0.002377,0.092704,-0.009508,-0.000000,0.053158,0.000000,-3.868232,-9.153697,-22.409585,-6.525855,2.462967,0.000471,0.426591,-0.162096,0.757499,4
576745623552435,-9.336879,0.002394,7.291381,3.053169,-1.565064,0.000000,-9.339715,0.011152,7.268405,3.054592,-1.570848,-0.002525,-0.000000,0.095874,-0.014262,-0.000000,0.052209,-0.003797,-3.697610,-9.803284,-22.519969,-6.536048,2.451065,0.000415,0.426650,-0.162091,0.757468,4
576745624552447,-9.336878,0.002484,7.291369,3.053171,-1.565011,0.000002,-9.339730,0.011261,7.268276,3.054600,-1.570867,-0.002539,-0.000000,0.092704,-0.011885,-0.000000,0.053158,0.000000,-3.697818,-9.126436,-22.394012,-6.496528,2.467513,0.000385,0.426701,-0.162085,0.757443,4
576745625550684,-9.336880,0.002578,7.291360,3.053170,-1.564954,0.000003,-9.339745,0.011369,7.268147,3.054608,-1.570886,-0.002553,-0.002377,0.094289,-0.008716,-0.000000,0.056955,0.003797,-3.535781,-9.727409,-22.635429,-6.536456,2.475765,0.000285,0.426755,-0.162082,0.757415,4
576745626549522,-9.336877,0.002673,7.291347,3.053166,-1.564899,0.000002,-9.339759,0.011478,7.268018,3.054615,-1.570905,-0.002567,0.003169,0.095081,-0.013470,-0.004746,0.055056,0.000000,-3.988762,-9.766035,-22.582131,-6.581678,2.449309,0.000539,0.426809,-0.162077,0.757389,4
576745627549546,-9.336878,0.002774,7.291335,3.053170,-1.564846,0.000003,-9.339774,0.011587,7.267889,3.054623,-1.570925,-0.002581,-0.000000,0.095874,-0.011885,0.004746,0.053158,0.000000,-3.782282,-10.156031,-22.758939,-6.616750,2.463566,0.000420,0.426865,-0.162071,0.757358,4
576745628552332,-9.336881,0.002866,7.291322,3.053170,-1.564792,0.000002,-9.339789,0.011695,7.267760,3.054631,-1.570944,-0.002596,-0.002377,0.096666,-0.012678,-0.000000,0.053158,0.000000,-3.586116,-10.307697,-22.792134,-6.587588,2.468141,0.000333,0.426917,-0.162068,0.757332,4
576745629545791,-9.336880,0.002960,7.291309,3.053167,-1.564737,0.000006,-9.339803,0.011803,7.267631,3.054639,-1.570964,-0.002610,-0.000000,0.094289,-0.013470,-0.003797,0.055056,0.003797,-3.767397,-9.690529,-22.618823,-6.557341,2.466443,0.000401,0.426970,-0.162064,0.757306,4
576745630541519,-9.336879,0.003054,7.291293,3.053166,-1.564680,0.000001,-9.339818,0.011912,7.267502,3.054647,-1.570983,-0.002624,-0.000000,0.093497,-0.015847,-0.000000,0.056955,-0.004746,-3.785447,-9.440048,-22.529490,-6.544032,2.462863,0.000452,0.427023,-0.162059,0.757281,4
576745631549849,-9.336880,0.003152,7.291278,3.053166,-1.564623,0.000000,-9.339832,0.012020,7.267373,3.054654,-1.571003,-0.002638,-0.000000,0.098251,-0.014262,-0.000000,0.056955,0.000000,-3.838436,-10.822296,-22.970243,-6.672739,2.454257,0.000457,0.427079,-0.162054,0.757253,4
576745632563947,-9.336879,0.003248,7.291262,3.053166,-1.564569,0.000001,-9.339847,0.012128,7.267243,3.054662,-1.571023,-0.002652,-0.000000,0.095874,-0.016639,-0.000000,0.055056,0.000000,-3.830403,-10.132891,-22.753170,-6.611407,2.459046,0.000448,0.427133,-0.162049,0.757227,4
576745633504077,-9.336881,0.003342,7.291246,3.053166,-1.564509,0.000002,-9.339862,0.012236,7.267114,3.054670,-1.571043,-0.002667,-0.000000,0.094289,-0.015847,-0.000000,0.060752,0.000000,-3.837820,-9.809964,-22.690555,-6.593532,2.461961,0.000448,0.427187,-0.162045,0.757203,4
576745634550709,-9.336879,0.003439,7.291228,3.053166,-1.564449,0.000000,-9.339876,0.012344,7.266985,3.054678,-1.571063,-0.002681,-0.000000,0.096666,-0.018224,-0.000000,0.058853,0.000000,-3.864818,-10.367598,-22.825020,-6.636444,2.452377,0.000465,0.427243,-0.162039,0.757178,4
576745635566287,-9.336878,0.003541,7.291210,3.053164,-1.564389,0.000003,-9.339891,0.012452,7.266856,3.054686,-1.571083,-0.002695,-0.000000,0.097458,-0.017432,-0.000000,0.059802,0.000000,-3.889488,-10.685500,-22.948503,-6.672677,2.452439,0.000477,0.427301,-0.162034,0.757150,4
576745636551149,-9.336879,0.003631,7.291195,3.053168,-1.564333,0.000001,-9.339905,0.012560,7.266726,3.054694,-1.571103,-0.002709,-0.000000,0.098251,-0.015847,0.002848,0.059802,0.000000,-3.923340,-11.029879,-23.102123,-6.723385,2.455888,0.000488,0.427353,-0.162029,0.757126,4
576745637551137,-9.336878,0.003735,7.291174,3.053165,-1.564273,0.000001,-9.339920,0.012668,7.266597,3.054701,-1.571123,-0.002723,-0.000000,0.094289,-0.019809,-0.000000,0.058853,0.000000,-3.891196,-9.849304,-22.708169,-6.605041,2.460129,0.000470,0.427411,-0.162024,0.757099,4
576745638551370,-9.336879,0.003833,7.291154,3.053164,-1.564214,0.000002,-9.339935,0.012776,7.266468,3.054709,-1.571144,-0.002738,-0.000000,0.097458,-0.019809,-0.002848,0.058853,0.000000,-3.918935,-10.714529,-22.965583,-6.674626,2.452208,0.000493,0.427466,-0.162020,0.757075,4
576745639511245,-9.336878,0.003924,7.291135,3.053165,-1.564154,0.000003,-9.339949,0.012883,7.266338,3.054717,-1.571164,-0.002752,-0.000000,0.097458,-0.019016,-0.000000,0.060752,0.000000,-3.947480,-10.817989,-23.033152,-6.701568,2.453976,0.000501,0.427520,-0.162015,0.757052,4
576745640557059,-9.336879,0.004025,7.291113,3.053167,-1.564093,0.000004,-9.339964,0.012991,7.266209,3.054725,-1.571185,-0.002766,-0.000000,0.100628,-0.022186,-0.000000,0.060752,0.000000,-3.977386,-11.556010,-23.200548,-6.755534,2.438052,0.000521,0.427577,-0.162010,0.757027,4
576745641543829,-9.336878,0.004119,7.291094,3.053165,-1.564031,0.000003,-9.339978,0.013098,7.266080,3.054733,-1.571206,-0.002780,-0.000000,0.093497,-0.019016,-0.000000,0.061701,0.000000,-3.950418,-9.893842,-22.809298,-6.636376,2.467807,0.000493,0.427632,-0.162005,0.757004,4
576745642550568,-9.336881,0.004211,7.291074,3.053165,-1.563973,0.000001,-9.339993,0.013206,7.265950,3.054740,-1.571226,-0.002795,-0.000000,0.095874,-0.020601,-0.000000,0.059802,0.000000,-3.975307,-10.480034,-22.966285,-6.684430,2.460391,0.000508,0.427685,-0.162001,0.756981,4
576745643551656,-9.336878,0.004313,7.291053,3.053165,-1.563910,0.000001,-9.340008,0.013313,7.265821,3.054748,-1.571247,-0.002809,-0.000000,0.097458,-0.021393,-0.000000,0.059802,0.000000,-4.002785,-10.924615,-23.095862,-6.724554,2.454926,0.000524,0.427743,-0.161995,0.756956,4
576745644550242,-9.336880,0.004410,7.291032,3.053167,-1.563851,0.000001,-9.340022,0.013420,7.265692,3.054756,-1.571268,-0.002823,-0.000000,0.097458,-0.020601,-0.000000,0.062650,0.000000,-4.020463,-11.023702,-23.154694,-6.741985,2.455629,0.000531,0.427799,-0.161991,0.756931,4
576745645552683,-9.336879,0.004505,7.291011,3.053165,-1.563792,0.000005,-9.340037,0.013527,7.265562,3.054764,-1.571289,-0.002837,-0.000000,0.095081,-0.021393,-0.000000,0.056955,0.003797,-4.014184,-10.408905,-22.991524,-6.693618,2.467789,0.000499,0.427853,-0.161986,0.756908,4
576745646540440,-9.336878,0.004600,7.290985,3.053164,-1.563730,0.000004,-9.340051,0.013634,7.265433,3.054772,-1.571311,-0.002852,-0.000000,0.095081,-0.025355,-0.000000,0.061701,0.000000,-4.022694,-10.265973,-22.888901,-6.670111,2.454744,0.000526,0.427908,-0.161981,0.756887,4
576745647550346,-9.336879,0.004696,7.290964,3.053166,-1.563666,-0.000002,-9.340066,0.013741,7.265303,3.054779,-1.571332,-0.002866,-0.000000,0.095874,-0.021393,-0.000000,0.064549,-0.005695,-4.054713,-10.725832,-23.109079,-6.731427,2.460854,0.000575,0.427964,-0.161976,0.756864,4
576745648542646,-9.336879,0.004795,7.290941,3.053164,-1.563604,0.000003,-9.340080,0.013848,7.265174,3.054787,-1.571353,-0.002880,-0.000000,0.094289,-0.022978,-0.000000,0.061701,0.004746,-4.053218,-10.292742,-22.978579,-6.694432,2.465740,0.000509,0.428021,-0.161971,0.756840,4
576745649540193,-9.336879,0.004889,7.290918,3.053164,-1.563539,0.000002,-9.340095,0.013955,7.265044,3.054795,-1.571375,-0.002895,-0.000000,0.095081,-0.022978,-0.000000,0.067396,0.000000,-4.077185,-10.551608,-23.063548,-6.721591,2.459298,0.000550,0.428075,-0.161966,0.756819,4
576745650553098,-9.336879,0.004984,7.290896,3.053168,-1.563477,0.000001,-9.340109,0.014062,7.264915,3.054803,-1.571396,-0.002909,-0.000000,0.095081,-0.022186,0.003797,0.063599,0.000000,-4.105671,-10.668231,-23.142727,-6.752751,2.466397,0.000555,0.428131,-0.161961,0.756796,4
576745651550936,-9.336878,0.005081,7.290873,3.053165,-1.563415,0.000003,-9.340124,0.014168,7.264785,3.054811,-1.571418,-0.002923,-0.000000,0.096666,-0.022978,-0.002848,0.063599,0.000000,-4.108498,-11.051324,-23.240063,-6.766961,2.461078,0.000570,0.428187,-0.161956,0.756773,4
576745652549546,-9.336880,0.005181,7.290850,3.053164,-1.563352,0.000001,-9.340139,0.014275,7.264656,3.054818,-1.571440,-0.002938,-0.000000,0.100628,-0.022978,-0.000000,0.062650,0.000000,-4.160248,-12.176375,-23.583380,-6.875461,2.451511,0.000596,0.428244,-0.161952,0.756749,4
576745653553987,-9.336879,0.005278,7.290826,3.053166,-1.563285,0.000001,-9.340153,0.014381,7.264526,3.054826,-1.571462,-0.002952,-0.000000,0.096666,-0.023770,-0.000000,0.064549,0.000000,-4.147278,-11.158747,-23.297177,-6.792887,2.460760,0.000582,0.428301,-0.161946,0.756727,4
576745654554624,-9.336879,0.005378,7.290800,3.053165,-1.563218,0.000001,-9.340168,0.014487,7.264397,3.054834,-1.571483,-0.002966,-0.000000,0.096666,-0.026147,-0.000000,0.066447,0.000000,-4.158013,-11.109844,-23.253983,-6.784113,2.454148,0.000587,0.428359,-0.161941,0.756704,4
576745655550932,-9.336878,0.005474,7.290776,3.053169,-1.563152,0.000002,-9.340182,0.014594,7.264268,3.054842,-1.571506,-0.002981,-0.000000,0.095874,-0.023770,0.003797,0.066447,0.000000,-4.187691,-11.103529,-23.323566,-6.811589,2.463678,0.000591,0.428416,-0.161935,0.756682,4
576745656552135,-9.336880,0.005568,7.290752,3.053166,-1.563087,0.000002,-9.340197,0.014700,7.264138,3.054849,-1.571528,-0.002995,-0.000000,0.098251,-0.024563,-0.002848,0.065498,0.000000,-4.193178,-11.685136,-23.477435,-6.841994,2.457005,0.000609,0.428470,-0.161931,0.756662,4
576745657554377,-9.336881,0.005662,7.290724,3.053167,-1.563017,0.000001,-9.340211,0.014806,7.264009,3.054857,-1.571550,-0.003009,-0.000000,0.094289,-0.027732,-0.000000,0.069295,0.000000,-4.183091,-10.564584,-23.120102,-6.748619,2.458491,0.000592,0.428526,-0.161927,0.756643,4
576745658551198,-9.336878,0.005756,7.290700,3.053166,-1.562951,0.000003,-9.340226,0.014912,7.263879,3.054865,-1.571572,-0.003024,0.002377,0.093497,-0.023770,-0.000000,0.066447,0.000000,-4.401126,-10.623252,-23.238213,-6.807073,2.467866,0.000694,0.428582,-0.161921,0.756622,4
576745659550885,-9.336881,0.005852,7.290675,3.053165,-1.562883,0.000004,-9.340240,0.015018,7.263750,3.054873,-1.571594,-0.003038,-0.002377,0.096666,-0.025355,-0.000000,0.067396,0.000000,-4.037762,-11.387528,-23.429898,-6.809242,2.468616,0.000522,0.428638,-0.161917,0.756601,4
576745660554253,-9.336881,0.005954,7.290648,3.053164,-1.562816,0.000002,-9.340255,0.015124,7.263620,3.054881,-1.571617,-0.003052,-0.000000,0.098251,-0.026940,-0.000000,0.067396,0.000000,-4.258829,-11.817411,-23.544230,-6.874103,2.454181,0.000632,0.428697,-0.161912,0.756579,4
576745661553043,-9.336882,0.006045,7.290617,3.053164,-1.562748,0.000004,-9.340269,0.015229,7.263491,3.054888,-1.571639,-0.003067,-0.000000,0.091120,-0.030901,-0.000000,0.068346,0.000000,-4.211720,-9.795140,-22.913484,-6.693043,2.465874,0.000596,0.428751,-0.161908,0.756562,4
576745662551844,-9.336880,0.006138,7.290592,3.053163,-1.562680,0.000001,-9.340284,0.015335,7.263361,3.054896,-1.571662,-0.003081,0.002377,0.093497,-0.025355,-0.000000,0.067396,0.000000,-4.457549,-10.761531,-23.315299,-6.834018,2.467893,0.000717,0.428806,-0.161902,0.756543,4
576745663564864,-9.336880,0.006232,7.290563,3.053162,-1.562607,0.000003,-9.340298,0.015441,7.263232,3.054904,-1.571685,-0.003095,-0.000000,0.094289,-0.028524,-0.000000,0.073092,0.000000,-4.275548,-10.844898,-23.283909,-6.802325,2.460150,0.000630,0.428863,-0.161898,0.756525,4
576745664549271,-9.336880,0.006332,7.290534,3.053163,-1.562541,0.000002,-9.340313,0.015546,7.263103,3.054912,-1.571707,-0.003110,-0.000000,0.096666,-0.029317,-0.000000,0.066447,0.000000,-4.302808,-11.489336,-23.475480,-6.858834,2.458618,0.000646,0.428921,-0.161892,0.756503,4
576745665542636,-9.336880,0.006426,7.290504,3.053162,-1.562470,0.000003,-9.340328,0.015651,7.262973,3.054919,-1.571730,-0.003124,-0.000000,0.094289,-0.029317,-0.000000,0.070244,0.000000,-4.303013,-10.920851,-23.327205,-6.816519,2.463104,0.000641,0.428977,-0.161887,0.756485,4
576745666548466,-9.336879,0.006519,7.290473,3.053162,-1.562399,0.000004,-9.340342,0.015757,7.262844,3.054927,-1.571753,-0.003139,-0.000000,0.092704,-0.032486,-0.000000,0.071193,0.000000,-4.300119,-10.395748,-23.134082,-6.764353,2.460105,0.000636,0.429033,-0.161882,0.756468,4
576745667503922,-9.336880,0.006609,7.290443,3.053163,-1.562332,0.000001,-9.340357,0.015862,7.262714,3.054935,-1.571776,-0.003153,-0.000000,0.092704,-0.030901,-0.000000,0.070244,0.000000,-4.317841,-10.513533,-23.215031,-6.786540,2.466262,0.000643,0.429087,-0.161878,0.756451,4
576745668549675,-9.336879,0.006705,7.290411,3.053161,-1.562266,0.000001,-9.340371,0.015967,7.262585,3.054943,-1.571799,-0.003167,-0.000000,0.095874,-0.032486,-0.000000,0.065498,0.000000,-4.349931,-11.315753,-23.433176,-6.852508,2.458589,0.000663,0.429143,-0.161873,0.756433,4
576745669548814,-9.336880,0.006801,7.290379,3.053162,-1.562191,-0.000001,-9.340386,0.016072,7.262456,3.054951,-1.571822,-0.003182,-0.000000,0.095874,-0.031694,-0.000000,0.070244,0.000000,-4.369219,-11.414552,-23.486620,-6.869153,2.456921,0.000672,0.429200,-0.161868,0.756416,4
576745670511637,-9.336880,0.006892,7.290347,3.053160,-1.562124,0.000002,-9.340400,0.016177,7.262327,3.054958,-1.571845,-0.003196,-0.002377,0.093497,-0.034071,-0.000000,0.072143,0.000000,-4.163690,-10.694710,-23.246703,-6.773709,2.464219,0.000567,0.429254,-0.161863,0.756400,4
576745671548733,-9.336880,0.006988,7.290310,3.053162,-1.562050,0.000001,-9.340415,0.016281,7.262197,3.054966,-1.571869,-0.003211,-0.000000,0.092704,-0.034863,-0.000000,0.072143,0.000000,-4.369900,-10.525084,-23.204178,-6.791397,2.458574,0.000665,0.429312,-0.161858,0.756384,4
576745672551779,-9.336881,0.007079,7.290277,3.053160,-1.561977,0.000003,-9.340429,0.016386,7.262068,3.054974,-1.571892,-0.003225,-0.000000,0.091120,-0.033279,-0.000000,0.072143,0.000000,-4.376572,-10.230830,-23.166381,-6.778691,2.468270,0.000664,0.429367,-0.161854,0.756369,4
576745673552845,-9.336879,0.007170,7.290242,3.053160,-1.561906,0.000002,-9.340444,0.016491,7.261939,3.054982,-1.571915,-0.003240,-0.000000,0.094289,-0.036448,-0.000000,0.073092,0.000000,-4.408342,-10.946383,-23.322973,-6.830202,2.451122,0.000685,0.429422,-0.161848,0.756354,4
576745674550266,-9.336881,0.007267,7.290205,3.053158,-1.561835,0.000003,-9.340458,0.016595,7.261810,3.054989,-1.571939,-0.003254,-0.002377,0.095081,-0.037240,-0.003797,0.069295,0.000000,-4.212247,-11.117579,-23.361792,-6.804376,2.458200,0.000596,0.429479,-0.161844,0.756339,4
576745675551052,-9.336879,0.007358,7.290168,3.053159,-1.561764,0.000004,-9.340472,0.016700,7.261681,3.054997,-1.571962,-0.003268,-0.000000,0.091120,-0.036448,-0.000000,0.071193,0.000000,-4.414825,-10.212982,-23.147481,-6.779109,2.464108,0.000679,0.429534,-0.161838,0.756324,4
576745676550081,-9.336878,0.007451,7.290130,3.053161,-1.561692,0.000004,-9.340487,0.016804,7.261552,3.055005,-1.571986,-0.003283,-0.000000,0.093497,-0.038825,-0.000000,0.072143,0.000000,-4.442443,-10.766143,-23.272256,-6.820203,2.451087,0.000697,0.429591,-0.161833,0.756310,4
576745677551403,-9.336878,0.007546,7.290092,3.053160,-1.561617,0.000003,-9.340501,0.016908,7.261423,3.055013,-1.572010,-0.003297,-0.000000,0.094289,-0.037240,-0.000000,0.074990,0.000000,-4.468734,-11.105215,-23.409251,-6.860201,2.450729,0.000710,0.429648,-0.161828,0.756296,4
576745678551653,-9.336878,0.007638,7.290054,3.053161,-1.561543,0.000002,-9.340516,0.017012,7.261294,3.055020,-1.572033,-0.003312,-0.000000,0.092704,-0.038033,-0.000000,0.074041,0.000000,-4.470067,-10.696704,-23.294383,-6.827703,2.455207,0.000706,0.429704,-0.161823,0.756282,4
576745679541657,-9.336880,0.007731,7.290016,3.053159,-1.561469,0.000001,-9.340530,0.017116,7.261165,3.055028,-1.572057,-0.003326,-0.000000,0.092704,-0.038033,-0.000000,0.074041,0.000000,-4.483445,-10.743057,-23.321713,-6.836252,2.456099,0.000712,0.429760,-0.161819,0.756269,4
576745680547322,-9.336881,0.007822,7.289978,3.053159,-1.561396,0.000002,-9.340545,0.017220,7.261036,3.055036,-1.572081,-0.003341,-0.000000,0.091120,-0.038033,-0.000000,0.073092,0.000000,-4.485780,-10.369522,-23.231575,-6.809934,2.462613,0.000708,0.429815,-0.161814,0.756255,4
576745681548676,-9.336880,0.007918,7.289937,3.053162,-1.561322,0.000001,-9.340559,0.017324,7.260907,3.055044,-1.572105,-0.003355,-0.000000,0.091120,-0.041202,0.002848,0.074041,0.000000,-4.504343,-10.289052,-23.167903,-6.803221,2.454458,0.000712,0.429873,-0.161808,0.756241,4
576745682551413,-9.336879,0.008008,7.289894,3.053156,-1.561251,0.000002,-9.340574,0.017428,7.260778,3.055051,-1.572129,-0.003370,-0.000000,0.093497,-0.042787,-0.005695,0.074041,0.000000,-4.503464,-10.808297,-23.279393,-6.818280,2.444263,0.000731,0.429927,-0.161804,0.756231,4
576745683550957,-9.336878,0.008103,7.289850,3.053157,-1.561174,0.000003,-9.340588,0.017531,7.260649,3.055059,-1.572153,-0.003384,-0.000000,0.094289,-0.044371,-0.000000,0.076889,0.000000,-4.541969,-11.030947,-23.334287,-6.852066,2.435795,0.000741,0.429984,-0.161799,0.756219,4
576745684550028,-9.336881,0.008192,7.289808,3.053158,-1.561099,0.000002,-9.340603,0.017635,7.260520,3.055067,-1.572177,-0.003399,-0.002377,0.089535,-0.041994,-0.000000,0.074990,0.000000,-4.326465,-9.916586,-23.074230,-6.743518,2.465245,0.000625,0.430039,-0.161795,0.756209,4
576745685503504,-9.336881,0.008284,7.289763,3.053160,-1.561018,0.000002,-9.340617,0.017738,7.260392,3.055075,-1.572201,-0.003413,-0.000000,0.091912,-0.045164,-0.000000,0.076889,0.000000,-4.549903,-10.449703,-23.180821,-6.808950,2.442285,0.000738,0.430096,-0.161790,0.756199,4
576745686553141,-9.336880,0.008382,7.289719,3.053157,-1.560942,0.000003,-9.340632,0.017841,7.260263,3.055082,-1.572225,-0.003427,-0.000000,0.093497,-0.043579,-0.002848,0.075940,0.000000,-4.571755,-10.983401,-23.369445,-6.856564,2.442886,0.000755,0.430155,-0.161784,0.756186,4
576745687552124,-9.336881,0.008468,7.289676,3.053157,-1.560871,0.000003,-9.340646,0.017944,7.260135,3.055090,-1.572249,-0.003442,-0.000000,0.089535,-0.042787,-0.000000,0.071193,0.000000,-4.566126,-10.028252,-23.139057,-6.793677,2.462067,0.000737,0.430207,-0.161780,0.756176,4
576745688549247,-9.336880,0.008556,7.289634,3.053157,-1.560803,0.000002,-9.340661,0.018048,7.260006,3.055098,-1.572273,-0.003456,-0.000000,0.087950,-0.045164,-0.000000,0.073092,0.000000,-4.565268,-9.529468,-22.964320,-6.746389,2.459813,0.000733,0.430260,-0.161775,0.756166,4
576745689552388,-9.336879,0.008644,7.289587,3.053157,-1.560717,0.000001,-9.340675,0.018151,7.259878,3.055106,-1.572297,-0.003471,-0.000000,0.086366,-0.044371,-0.000000,0.076889,0.000000,-4.573360,-9.189571,-22.890681,-6.725629,2.463287,0.000733,0.430316,-0.161770,0.756159,4
576745690552100,-9.336880,0.008735,7.289536,3.053158,-1.560642,0.000003,-9.340690,0.018253,7.259749,3.055113,-1.572322,-0.003485,-0.000000,0.091120,-0.050710,-0.000000,0.074990,0.000000,-4.604603,-10.158732,-23.058451,-6.783650,2.435921,0.000758,0.430371,-0.161765,0.756151,4
576745691548733,-9.336881,0.008822,7.289489,3.053156,-1.560561,0.000002,-9.340704,0.018356,7.259621,3.055121,-1.572346,-0.003500,-0.000000,0.087158,-0.046748,-0.000000,0.081635,0.000000,-4.603340,-9.352822,-22.909539,-6.737088,2.451581,0.000748,0.430426,-0.161761,0.756144,4
576745692550792,-9.336881,0.008915,7.289441,3.053157,-1.560480,0.000003,-9.340718,0.018459,7.259493,3.055129,-1.572371,-0.003514,-0.000000,0.089535,-0.048333,-0.000000,0.080686,0.000000,-4.631007,-9.944574,-23.059660,-6.784203,2.441990,0.000765,0.430484,-0.161756,0.756135,4
576745693549043,-9.336879,0.009003,7.289393,3.053158,-1.560403,0.000002,-9.340733,0.018561,7.259365,3.055137,-1.572395,-0.003529,-0.000000,0.087158,-0.048333,-0.000000,0.076889,0.000000,-4.628081,-9.349389,-22.907402,-6.739262,2.453218,0.000757,0.430538,-0.161750,0.756128,4
576745694550776,-9.336880,0.009088,7.289344,3.053156,-1.560326,0.000001,-9.340747,0.018664,7.259237,3.055144,-1.572419,-0.003543,-0.000000,0.091120,-0.048333,-0.000000,0.076889,0.000000,-4.669818,-10.412847,-23.219512,-6.832368,2.442310,0.000784,0.430591,-0.161746,0.756122,4
576745695550455,-9.336880,0.009178,7.289294,3.053158,-1.560241,0.000001,-9.340762,0.018766,7.259109,3.055152,-1.572444,-0.003558,-0.000000,0.089535,-0.050710,-0.000000,0.085432,0.000000,-4.672099,-9.923718,-23.037552,-6.784868,2.433112,0.000783,0.430648,-0.161741,0.756116,4
576745696550998,-9.336881,0.009265,7.289246,3.053160,-1.560160,0.000002,-9.340776,0.018868,7.258981,3.055160,-1.572468,-0.003572,-0.000000,0.087158,-0.047541,-0.000000,0.080686,0.000000,-4.674402,-9.486163,-22.990702,-6.766550,2.453190,0.000776,0.430703,-0.161736,0.756109,4
576745697545857,-9.336879,0.009356,7.289195,3.053160,-1.560080,0.000004,-9.340791,0.018970,7.258853,3.055168,-1.572493,-0.003587,-0.000000,0.086366,-0.050710,-0.000000,0.079737,0.000000,-4.676714,-9.162629,-22.851516,-6.730292,2.448867,0.000775,0.430760,-0.161730,0.756102,4
576745698503973,-9.336879,0.009438,7.289146,3.053157,-1.560001,-0.000001,-9.340805,0.019072,7.258725,3.055175,-1.572517,-0.003601,-0.000000,0.084781,-0.049918,-0.002848,0.083534,-0.002848,-4.673644,-8.785978,-22.760354,-6.697309,2.452425,0.000792,0.430812,-0.161726,0.756098,4
576745699503461,-9.336880,0.009526,7.289096,3.053158,-1.559916,0.000001,-9.340819,0.019174,7.258597,3.055183,-1.572542,-0.003616,-0.000000,0.087158,-0.049918,-0.000000,0.081635,0.000000,-4.713112,-9.459964,-22.970161,-6.766650,2.447835,0.000792,0.430867,-0.161721,0.756093,4
576745700550582,-9.336879,0.009611,7.289042,3.053160,-1.559837,0.000002,-9.340834,0.019276,7.258470,3.055191,-1.572567,-0.003630,-0.000000,0.085573,-0.053087,-0.000000,0.085432,0.000000,-4.711239,-8.916238,-22.762695,-6.711457,2.441331,0.000789,0.430921,-0.161716,0.756088,4
576745701552626,-9.336879,0.009697,7.288996,3.053159,-1.559763,0.000004,-9.340848,0.019378,7.258342,3.055199,-1.572591,-0.003645,-0.000000,0.087158,-0.050710,-0.000000,0.079737,0.003797,-4.739717,-9.472819,-22.983259,-6.773019,2.448872,0.000780,0.430974,-0.161711,0.756081,4
576745702562047,-9.336880,0.009782,7.288945,3.053159,-1.559679,0.000003,-9.340863,0.019479,7.258215,3.055206,-1.572616,-0.003659,-0.000000,0.085573,-0.050710,-0.000000,0.084483,0.000000,-4.744658,-9.088754,-22.879863,-6.744575,2.449382,0.000801,0.431029,-0.161707,0.756077,4
576745703549927,-9.336881,0.009870,7.288892,3.053157,-1.559590,0.000004,-9.340877,0.019581,7.258087,3.055214,-1.572641,-0.003674,-0.000000,0.083989,-0.051502,-0.000000,0.082584,0.002848,-4.744008,-8.666767,-22.757602,-6.709752,2.454182,0.000780,0.431085,-0.161702,0.756073,4
576745704503470,-9.336879,0.009961,7.288842,3.053159,-1.559507,0.000002,-9.340892,0.019682,7.257960,3.055222,-1.572666,-0.003688,-0.000000,0.090327,-0.049918,-0.000000,0.083534,0.000000,-4.810308,-10.448999,-23.301493,-6.870156,2.439029,0.000839,0.431142,-0.161696,0.756066,4
576745705550654,-9.336880,0.010047,7.288793,3.053157,-1.559427,0.000002,-9.340906,0.019783,7.257833,3.055230,-1.572690,-0.003703,-0.000000,0.086366,-0.049125,-0.000000,0.079737,0.000000,-4.795521,-9.478057,-23.057162,-6.796606,2.456803,0.000822,0.431196,-0.161692,0.756061,4
576745706549891,-9.336881,0.010132,7.288741,3.053158,-1.559345,0.000003,-9.340920,0.019884,7.257706,3.055237,-1.572715,-0.003717,-0.000000,0.084781,-0.052295,-0.000000,0.082584,0.000000,-4.791555,-8.933382,-22.850356,-6.741120,2.451227,0.000817,0.431250,-0.161688,0.756057,4
576745707504364,-9.336881,0.010212,7.288691,3.053159,-1.559268,0.000002,-9.340935,0.019985,7.257579,3.055245,-1.572740,-0.003732,-0.000000,0.082404,-0.051502,-0.000000,0.081635,0.000000,-4.790097,-8.361772,-22.715611,-6.700963,2.461771,0.000810,0.431301,-0.161683,0.756053,4
576745708551107,-9.336880,0.010300,7.288638,3.053158,-1.559178,0.000003,-9.340949,0.020086,7.257452,3.055253,-1.572765,-0.003746,-0.000000,0.086366,-0.050710,-0.000000,0.082584,0.000000,-4.836298,-9.478035,-23.055259,-6.801811,2.451504,0.000839,0.431358,-0.161678,0.756049,4
576745709550522,-9.336879,0.010385,7.288586,3.053158,-1.559093,0.000002,-9.340964,0.020187,7.257325,3.055261,-1.572790,-0.003761,-0.000000,0.084781,-0.052295,-0.000000,0.084483,0.000000,-4.837238,-9.012210,-22.901614,-6.759989,2.450707,0.000836,0.431413,-0.161673,0.756046,4
576745710550974,-9.336880,0.010465,7.288535,3.053157,-1.559018,0.000002,-9.340978,0.020288,7.257198,3.055268,-1.572815,-0.003775,-0.000000,0.082404,-0.054672,-0.000000,0.080686,0.000000,-4.825371,-8.279146,-22.664337,-6.692595,2.456128,0.000824,0.431463,-0.161669,0.756043,4
576745711504615,-9.336880,0.010554,7.288482,3.053157,-1.558930,0.000002,-9.340993,0.020388,7.257071,3.055276,-1.572840,-0.003790,-0.000000,0.084781,-0.050710,0.002848,0.080686,0.000000,-4.876618,-9.159851,-23.004195,-6.796048,2.459323,0.000846,0.431520,-0.161664,0.756038,4
576745712553148,-9.336880,0.010636,7.288432,3.053159,-1.558848,0.000002,-9.341007,0.020489,7.256945,3.055284,-1.572865,-0.003804,-0.000000,0.081612,-0.050710,-0.000000,0.081635,0.000000,-4.859204,-8.327756,-22.772156,-6.721790,2.468166,0.000836,0.431573,-0.161659,0.756035,4
576745713513984,-9.336881,0.010722,7.288380,3.053158,-1.558763,0.000000,-9.341021,0.020589,7.256818,3.055292,-1.572890,-0.003819,-0.000000,0.086366,-0.051502,-0.000000,0.085432,0.000000,-4.906960,-9.569541,-23.114381,-6.825940,2.449066,0.000867,0.431628,-0.161654,0.756031,4
576745714543181,-9.336880,0.010804,7.288329,3.053160,-1.558688,0.000000,-9.341036,0.020689,7.256692,3.055299,-1.572915,-0.003833,-0.000000,0.087950,-0.053879,0.002848,0.084483,-0.002848,-4.936649,-9.907637,-23.183010,-6.857025,2.440038,0.000895,0.431680,-0.161649,0.756027,4
576745715548453,-9.336880,0.010896,7.288276,3.053154,-1.558598,0.000000,-9.341050,0.020789,7.256566,3.055307,-1.572940,-0.003848,-0.000000,0.083196,-0.053087,-0.003797,0.084483,-0.002848,-4.896637,-8.698110,-22.850955,-6.742576,2.455865,0.000878,0.431737,-0.161645,0.756023,4
576745716550708,-9.336879,0.010972,7.288225,3.053156,-1.558524,0.000002,-9.341065,0.020889,7.256439,3.055315,-1.572965,-0.003862,-0.000000,0.083989,-0.053087,-0.000000,0.080686,0.000000,-4.927764,-8.936125,-22.941503,-6.778648,2.458055,0.000869,0.431786,-0.161640,0.756020,4
576745717551003,-9.336878,0.011060,7.288172,3.053155,-1.558441,0.000003,-9.341079,0.020989,7.256313,3.055322,-1.572990,-0.003877,-0.000000,0.083989,-0.050710,-0.000000,0.083534,0.000000,-4.950569,-9.093063,-23.037342,-6.805862,2.461462,0.000878,0.431842,-0.161635,0.756016,4
576745718551368,-9.336879,0.011144,7.288122,3.053157,-1.558361,0.000002,-9.341093,0.021089,7.256187,3.055330,-1.573015,-0.003891,-0.000000,0.083989,-0.049918,-0.000000,0.079737,0.000000,-4.964313,-9.156553,-23.085287,-6.818926,2.467673,0.000882,0.431895,-0.161630,0.756011,4
576745719528847,-9.336878,0.011230,7.288073,3.053155,-1.558281,0.000003,-9.341108,0.021189,7.256061,3.055338,-1.573040,-0.003906,-0.000000,0.085573,-0.048333,-0.000000,0.080686,0.000000,-4.995273,-9.683721,-23.274198,-6.874064,2.466580,0.000899,0.431949,-0.161625,0.756005,4
576745720506360,-9.336879,0.011314,7.288022,3.053154,-1.558196,0.000003,-9.341122,0.021288,7.255935,3.055346,-1.573065,-0.003920,-0.000000,0.083989,-0.051502,-0.000000,0.081635,0.000000,-4.990203,-9.139083,-23.069309,-6.818598,2.462759,0.000893,0.432003,-0.161621,0.756002,4
576745721552834,-9.336879,0.011398,7.287970,3.053156,-1.558118,-0.000001,-9.341136,0.021388,7.255809,3.055353,-1.573090,-0.003935,-0.000000,0.083989,-0.051502,-0.000000,0.077838,0.000000,-5.002718,-9.163167,-23.090823,-6.824974,2.466925,0.000897,0.432056,-0.161616,0.755997,4
576745722550921,-9.336881,0.011479,7.287921,3.053154,-1.558042,0.000000,-9.341151,0.021487,7.255684,3.055361,-1.573115,-0.003949,-0.000000,0.080819,-0.050710,-0.000000,0.077838,0.000000,-4.993741,-8.389809,-22.897388,-6.767330,2.478781,0.000885,0.432106,-0.161613,0.755994,4
576745723552583,-9.336879,0.011560,7.287866,3.053153,-1.557970,0.000001,-9.341165,0.021586,7.255558,3.055369,-1.573141,-0.003964,0.002377,0.083989,-0.054672,-0.000000,0.077838,0.000000,-5.223178,-9.063110,-23.028250,-6.841008,2.453304,0.001002,0.432157,-0.161608,0.755992,4
576745724537533,-9.336880,0.011647,7.287806,3.053151,-1.557888,0.000002,-9.341180,0.021685,7.255432,3.055377,-1.573166,-0.003978,-0.000000,0.080027,-0.057049,-0.000000,0.077838,0.000000,-5.002249,-7.919514,-22.662618,-6.708188,2.465749,0.000887,0.432212,-0.161604,0.755990,4
576745725550291,-9.336879,0.011732,7.287749,3.053151,-1.557812,0.000000,-9.341194,0.021784,7.255307,3.055384,-1.573191,-0.003993,-0.000000,0.084781,-0.057841,-0.000000,0.076889,0.000000,-5.048771,-9.152907,-23.006619,-6.811886,2.451175,0.000918,0.432265,-0.161599,0.755988,4
576745726550145,-9.336882,0.011811,7.287692,3.053150,-1.557734,0.000002,-9.341208,0.021883,7.255181,3.055392,-1.573216,-0.004007,-0.003169,0.079235,-0.056257,-0.000000,0.077838,0.000000,-4.756994,-7.760031,-22.642894,-6.664964,2.479924,0.000765,0.432315,-0.161596,0.755988,4
576745727552359,-9.336880,0.011889,7.287637,3.053148,-1.557662,0.000000,-9.341223,0.021982,7.255056,3.055400,-1.573242,-0.004022,0.002377,0.080027,-0.059426,-0.002848,0.074990,0.000000,-5.227362,-7.848122,-22.626914,-6.724692,2.456962,0.000997,0.432364,-0.161591,0.755987,4
576745728550702,-9.336879,0.011972,7.287576,3.053147,-1.557581,0.000002,-9.341237,0.022081,7.254931,3.055408,-1.573267,-0.004036,-0.000000,0.082404,-0.057841,-0.000000,0.076889,0.000000,-5.073103,-8.569642,-22.867427,-6.773826,2.459246,0.000921,0.432416,-0.161586,0.755988,4
576745729549829,-9.336881,0.012052,7.287517,3.053145,-1.557505,0.000002,-9.341251,0.022179,7.254806,3.055415,-1.573292,-0.004051,-0.000000,0.080819,-0.058634,-0.000000,0.075940,0.000000,-5.071590,-8.130187,-22.737484,-6.736963,2.463144,0.000916,0.432467,-0.161583,0.755988,4
576745730543906,-9.336880,0.012134,7.287457,3.053146,-1.557425,0.000002,-9.341266,0.022278,7.254681,3.055423,-1.573318,-0.004065,-0.000000,0.081612,-0.060218,-0.000000,0.079737,0.000000,-5.090275,-8.280762,-22.753944,-6.746136,2.453396,0.000926,0.432519,-0.161578,0.755989,4
576745731540554,-9.336881,0.012216,7.287395,3.053144,-1.557350,0.000001,-9.341280,0.022376,7.254556,3.055431,-1.573343,-0.004080,-0.000000,0.082404,-0.061803,-0.000000,0.074990,0.000000,-5.102529,-8.425950,-22.778166,-6.755006,2.451975,0.000932,0.432570,-0.161574,0.755989,4
576745732503574,-9.336880,0.012300,7.287336,3.053144,-1.557274,0.000001,-9.341295,0.022474,7.254431,3.055439,-1.573368,-0.004094,-0.000000,0.083989,-0.059426,-0.000000,0.075940,0.000000,-5.135240,-8.985769,-22.988646,-6.815727,2.452617,0.000949,0.432623,-0.161569,0.755988,4
576745733554459,-9.336881,0.012384,7.287276,3.053145,-1.557202,0.000004,-9.341309,0.022572,7.254307,3.055446,-1.573394,-0.004109,-0.000000,0.083196,-0.060218,-0.000000,0.075940,0.002848,-5.141070,-8.761505,-22.918381,-6.796977,2.453184,0.000932,0.432674,-0.161564,0.755987,4
576745734553729,-9.336881,0.012469,7.287217,3.053147,-1.557124,0.000002,-9.341323,0.022670,7.254182,3.055454,-1.573419,-0.004123,-0.000000,0.085573,-0.060218,-0.000000,0.077838,0.000000,-5.172907,-9.417450,-23.110342,-6.855321,2.444664,0.000968,0.432727,-0.161560,0.755984,4
576745735504353,-9.336881,0.012549,7.287154,3.053150,-1.557052,0.000001,-9.341338,0.022768,7.254058,3.055462,-1.573444,-0.004138,-0.002377,0.083989,-0.062595,-0.000000,0.076889,0.000000,-4.968481,-8.874126,-22.915092,-6.772900,2.451306,0.000866,0.432777,-0.161555,0.755985,4
576745736550366,-9.336880,0.012634,7.287089,3.053149,-1.556976,0.000003,-9.341352,0.022866,7.253933,3.055469,-1.573470,-0.004152,0.002377,0.080819,-0.063388,-0.000000,0.073092,0.000000,-5.359211,-8.072553,-22.695097,-6.766501,2.448382,0.001046,0.432830,-0.161549,0.755986,4
576745737550313,-9.336879,0.012720,7.287027,3.053150,-1.556900,0.000001,-9.341366,0.022964,7.253809,3.055477,-1.573495,-0.004167,-0.000000,0.083196,-0.062595,-0.000000,0.075940,0.000000,-5.194056,-8.746996,-22.899910,-6.799487,2.447597,0.000970,0.432884,-0.161544,0.755985,4
576745738554699,-9.336880,0.012797,7.286965,3.053151,-1.556831,0.000002,-9.341381,0.023061,7.253685,3.055485,-1.573520,-0.004181,-0.000000,0.083196,-0.064972,-0.000000,0.073092,0.000000,-5.199624,-8.632013,-22.833512,-6.783169,2.444824,0.000971,0.432932,-0.161540,0.755986,4
576745739550701,-9.336881,0.012884,7.286901,3.053152,-1.556747,0.000003,-9.341395,0.023159,7.253561,3.055493,-1.573546,-0.004196,-0.002377,0.082404,-0.061803,-0.000000,0.077838,0.000000,-5.016479,-8.597391,-22.879497,-6.766400,2.457183,0.000881,0.432987,-0.161535,0.755987,4
576745740549971,-9.336881,0.012966,7.286841,3.053150,-1.556672,0.000004,-9.341409,0.023256,7.253437,3.055500,-1.573571,-0.004210,-0.000000,0.081612,-0.060218,-0.002848,0.075940,0.000000,-5.219620,-8.488900,-22.887775,-6.789258,2.458582,0.000980,0.433038,-0.161531,0.755987,4
576745741550945,-9.336881,0.013048,7.286777,3.053150,-1.556599,0.000001,-9.341424,0.023353,7.253313,3.055508,-1.573597,-0.004225,-0.000000,0.082404,-0.063388,-0.000000,0.072143,0.000000,-5.238409,-8.578652,-22.871145,-6.795309,2.452229,0.000984,0.433089,-0.161527,0.755987,4
576745742550244,-9.336881,0.013132,7.286711,3.053150,-1.556522,0.000001,-9.341438,0.023451,7.253189,3.055516,-1.573622,-0.004239,-0.000000,0.083196,-0.065765,-0.000000,0.077838,0.000000,-5.256059,-8.695921,-22.859537,-6.797734,2.438394,0.000995,0.433141,-0.161522,0.755990,4
576745743563958,-9.336880,0.013215,7.286648,3.053150,-1.556445,0.000000,-9.341452,0.023548,7.253065,3.055524,-1.573648,-0.004254,-0.000000,0.083196,-0.063388,-0.000000,0.076889,0.000000,-5.276366,-8.837678,-22.952631,-6.823294,2.445298,0.001003,0.433193,-0.161517,0.755990,4
576745744551632,-9.336881,0.013298,7.286585,3.053150,-1.556371,0.000001,-9.341467,0.023644,7.252942,3.055531,-1.573673,-0.004268,-0.000000,0.083196,-0.063388,-0.000000,0.074041,0.000000,-5.288215,-8.859844,-22.969232,-6.828505,2.448157,0.001006,0.433245,-0.161513,0.755991,4
576745745553350,-9.336881,0.013382,7.286518,3.053149,-1.556289,0.000002,-9.341481,0.023741,7.252819,3.055539,-1.573698,-0.004283,-0.000000,0.083989,-0.066557,-0.000000,0.081635,0.000000,-5.304266,-8.942208,-22.930281,-6.824281,2.430409,0.001017,0.433298,-0.161508,0.755993,4
576745746550099,-9.336881,0.013465,7.286454,3.053149,-1.556210,0.000003,-9.341495,0.023838,7.252695,3.055547,-1.573724,-0.004297,-0.000000,0.080819,-0.064180,-0.000000,0.078787,0.000000,-5.299425,-8.251708,-22.789464,-6.779952,2.448234,0.001006,0.433350,-0.161504,0.755995,4
576745747547287,-9.336881,0.013548,7.286390,3.053149,-1.556133,0.000001,-9.341510,0.023934,7.252572,3.055555,-1.573749,-0.004312,-0.000000,0.082404,-0.064180,-0.000000,0.076889,0.000000,-5.323813,-8.688810,-22.922183,-6.819895,2.445556,0.001019,0.433402,-0.161499,0.755996,4
576745748541476,-9.336881,0.013628,7.286326,3.053148,-1.556055,0.000002,-9.341524,0.024031,7.252449,3.055562,-1.573775,-0.004326,-0.000000,0.083989,-0.063388,-0.000000,0.078787,0.000000,-5.352035,-9.164342,-23.076441,-6.866202,2.441221,0.001034,0.433453,-0.161495,0.755998,4
576745749564028,-9.336881,0.013711,7.286261,3.053150,-1.555977,0.000002,-9.341538,0.024127,7.252326,3.055570,-1.573800,-0.004341,-0.000000,0.082404,-0.065765,-0.000000,0.077838,0.000000,-5.348625,-8.652747,-22.894241,-6.816359,2.440667,0.001029,0.433506,-0.161490,0.756000,4
576745750553723,-9.336881,0.013799,7.286195,3.053147,-1.555901,0.000001,-9.341553,0.024223,7.252203,3.055578,-1.573826,-0.004355,-0.000000,0.087950,-0.065765,-0.002848,0.076889,0.000000,-5.393062,-10.124556,-23.312388,-6.934127,2.425450,0.001065,0.433560,-0.161486,0.756000,4
576745751551688,-9.336881,0.013879,7.286131,3.053149,-1.555818,0.000002,-9.341567,0.024319,7.252080,3.055585,-1.573851,-0.004370,-0.000000,0.080027,-0.065765,-0.000000,0.082584,0.000000,-5.363494,-8.088847,-22.741988,-6.775156,2.442625,0.001030,0.433611,-0.161481,0.756003,4
576745752552615,-9.336881,0.013964,7.286065,3.053149,-1.555735,0.000002,-9.341581,0.024415,7.251958,3.055593,-1.573877,-0.004384,-0.000000,0.081612,-0.063388,-0.000000,0.078787,0.000000,-5.392207,-8.650644,-22.956321,-6.835651,2.447579,0.001044,0.433665,-0.161476,0.756005,4
576745753505627,-9.336879,0.014047,7.286002,3.053150,-1.555650,0.000001,-9.341596,0.024511,7.251835,3.055601,-1.573902,-0.004399,0.002377,0.085573,-0.062595,-0.000000,0.084483,0.000000,-5.643708,-9.786912,-23.298899,-6.967752,2.425683,0.001172,0.433720,-0.161470,0.756006,4
576745754551728,-9.336881,0.014130,7.285936,3.053150,-1.555566,0.000002,-9.341610,0.024607,7.251713,3.055609,-1.573928,-0.004413,-0.002377,0.082404,-0.066557,-0.000000,0.084483,0.000000,-5.220320,-8.737677,-22.922132,-6.804922,2.438381,0.000963,0.433773,-0.161466,0.756009,4
576745755553033,-9.336881,0.014213,7.285871,3.053149,-1.555485,0.000002,-9.341624,0.024703,7.251590,3.055616,-1.573953,-0.004428,-0.000000,0.083196,-0.064972,-0.000000,0.080686,0.000000,-5.444234,-9.071265,-23.062423,-6.873389,2.436802,0.001069,0.433826,-0.161462,0.756011,4
576745756548767,-9.336881,0.014291,7.285807,3.053146,-1.555408,0.000003,-9.341639,0.024798,7.251468,3.055624,-1.573979,-0.004442,-0.000000,0.080819,-0.064972,-0.004746,0.083534,0.003797,-5.425451,-8.426119,-22.872530,-6.807550,2.440896,0.001042,0.433875,-0.161458,0.756015,4
576745757548453,-9.336883,0.014375,7.285734,3.053148,-1.555313,0.000001,-9.341653,0.024893,7.251346,3.055632,-1.574004,-0.004457,-0.002377,0.081612,-0.069726,-0.000000,0.088280,0.000000,-5.249394,-8.442135,-22.791194,-6.774828,2.428500,0.000974,0.433931,-0.161454,0.756021,4
576745758553893,-9.336881,0.014460,7.285668,3.053149,-1.555229,0.000000,-9.341667,0.024989,7.251224,3.055640,-1.574030,-0.004471,0.002377,0.081612,-0.066557,-0.000000,0.084483,0.000000,-5.675207,-8.676611,-22.938211,-6.872289,2.426101,0.001174,0.433986,-0.161447,0.756023,4
576745759548728,-9.336880,0.014540,7.285600,3.053145,-1.555144,0.000001,-9.341682,0.025084,7.251103,3.055647,-1.574055,-0.004486,-0.000000,0.081612,-0.068142,-0.003797,0.084483,0.000000,-5.471198,-8.565510,-22.868528,-6.817111,2.428704,0.001083,0.434038,-0.161443,0.756028,4
576745760548941,-9.336882,0.014622,7.285528,3.053147,-1.555057,0.000001,-9.341696,0.025179,7.250981,3.055655,-1.574080,-0.004500,-0.002377,0.081612,-0.071311,-0.000000,0.087331,0.000000,-5.288047,-8.437321,-22.776573,-6.776285,2.424569,0.000989,0.434091,-0.161439,0.756034,4
576745761550182,-9.336880,0.014700,7.285458,3.053147,-1.554972,0.000002,-9.341710,0.025274,7.250859,3.055663,-1.574106,-0.004515,0.002377,0.077650,-0.070519,-0.000000,0.084483,0.000000,-5.679653,-7.491237,-22.542031,-6.764243,2.426653,0.001166,0.434142,-0.161434,0.756041,4
576745762551536,-9.336884,0.014781,7.285386,3.053147,-1.554889,0.000003,-9.341725,0.025368,7.250738,3.055670,-1.574131,-0.004529,-0.003962,0.081612,-0.072103,-0.000000,0.087331,0.000000,-5.177725,-8.415304,-22.760775,-6.755973,2.426642,0.000934,0.434194,-0.161431,0.756047,4
576745763504254,-9.336884,0.014861,7.285316,3.053146,-1.554794,0.000003,-9.341739,0.025463,7.250617,3.055678,-1.574157,-0.004544,-0.000000,0.080027,-0.069726,-0.000000,0.089229,0.000000,-5.523495,-8.176260,-22.749002,-6.799189,2.423514,0.001094,0.434248,-0.161426,0.756054,4
576745764551215,-9.336882,0.014945,7.285246,3.053148,-1.554713,0.000002,-9.341753,0.025558,7.250496,3.055686,-1.574182,-0.004558,-0.000000,0.083989,-0.070519,-0.000000,0.087331,0.000000,-5.564715,-9.204753,-23.032609,-6.885144,2.411687,0.001120,0.434302,-0.161420,0.756057,4
576745765546699,-9.336881,0.015025,7.285175,3.053149,-1.554622,0.000001,-9.341767,0.025652,7.250375,3.055694,-1.574208,-0.004573,-0.000000,0.080027,-0.070519,-0.000000,0.086381,0.000000,-5.551611,-8.183990,-22.748895,-6.802615,2.423464,0.001105,0.434355,-0.161415,0.756064,4
576745766542560,-9.336882,0.015104,7.285107,3.053149,-1.554540,0.000002,-9.341782,0.025746,7.250254,3.055701,-1.574233,-0.004587,-0.000000,0.080819,-0.069726,-0.000000,0.087331,0.000000,-5.572046,-8.447062,-22.842408,-6.830614,2.422185,0.001115,0.434406,-0.161411,0.756069,4
576745767565654,-9.336883,0.015188,7.285035,3.053151,-1.554445,0.000003,-9.341796,0.025840,7.250133,3.055709,-1.574258,-0.004602,-0.000000,0.083196,-0.070519,-0.000000,0.090178,0.000000,-5.602421,-9.064929,-23.003345,-6.881361,2.410107,0.001133,0.434462,-0.161406,0.756075,4
576745768552382,-9.336881,0.015272,7.284963,3.053150,-1.554360,0.000004,-9.341810,0.025934,7.250013,3.055717,-1.574284,-0.004616,-0.000000,0.083989,-0.072103,-0.000000,0.089229,0.000000,-5.619288,-9.223550,-23.023693,-6.890671,2.404262,0.001142,0.434516,-0.161401,0.756080,4
576745769549042,-9.336881,0.015356,7.284894,3.053148,-1.554269,0.000003,-9.341825,0.026028,7.249892,3.055725,-1.574309,-0.004630,-0.000000,0.083989,-0.068934,-0.000000,0.091128,0.000000,-5.642386,-9.414890,-23.140064,-6.922883,2.409939,0.001152,0.434571,-0.161396,0.756085,4
576745770549813,-9.336881,0.015442,7.284824,3.053149,-1.554174,0.000003,-9.341839,0.026122,7.249772,3.055732,-1.574334,-0.004645,-0.000000,0.084781,-0.069726,-0.000000,0.091128,0.000000,-5.660810,-9.623234,-23.188672,-6.939666,2.405094,0.001161,0.434628,-0.161391,0.756089,4
576745771550111,-9.336882,0.015523,7.284757,3.053151,-1.554082,0.000001,-9.341853,0.026216,7.249652,3.055740,-1.574360,-0.004659,-0.000000,0.080819,-0.066557,-0.000000,0.092077,0.000000,-5.654644,-8.766814,-23.009769,-6.884315,2.423105,0.001149,0.434682,-0.161386,0.756094,4
576745772550514,-9.336883,0.015604,7.284689,3.053149,-1.553997,0.000001,-9.341867,0.026309,7.249532,3.055748,-1.574385,-0.004674,-0.000000,0.083196,-0.068934,-0.002848,0.091128,0.000000,-5.668619,-9.274470,-23.108471,-6.910516,2.410959,0.001164,0.434734,-0.161382,0.756099,4
576745773545556,-9.336881,0.015686,7.284621,3.053148,-1.553901,0.000003,-9.341882,0.026402,7.249412,3.055756,-1.574410,-0.004688,-0.000000,0.082404,-0.067349,-0.000000,0.093026,0.000000,-5.693447,-9.198059,-23.125444,-6.922482,2.414893,0.001168,0.434790,-0.161377,0.756104,4
576745774550983,-9.336884,0.015768,7.284551,3.053145,-1.553810,0.000000,-9.341896,0.026496,7.249292,3.055763,-1.574436,-0.004703,-0.002377,0.082404,-0.069726,-0.002848,0.095874,-0.002848,-5.489064,-9.067098,-23.033039,-6.864291,2.412537,0.001093,0.434844,-0.161374,0.756110,4
576745775550272,-9.336883,0.015848,7.284482,3.053145,-1.553712,0.000000,-9.341910,0.026589,7.249172,3.055771,-1.574461,-0.004717,-0.000000,0.079235,-0.069726,-0.000000,0.093975,0.000000,-5.692095,-8.298264,-22.832828,-6.841724,2.416069,0.001160,0.434898,-0.161368,0.756118,4
576745776550763,-9.336882,0.015927,7.284412,3.053144,-1.553625,0.000001,-9.341925,0.026682,7.249053,3.055779,-1.574486,-0.004732,-0.000000,0.079235,-0.069726,-0.000000,0.090178,0.000000,-5.704733,-8.315449,-22.846404,-6.846160,2.419394,0.001164,0.434950,-0.161364,0.756124,4
576745777551230,-9.336882,0.016009,7.284342,3.053143,-1.553526,0.000000,-9.341939,0.026775,7.248934,3.055787,-1.574512,-0.004746,-0.000000,0.079235,-0.069726,-0.000000,0.093026,-0.002848,-5.720600,-8.348301,-22.856473,-6.851294,2.416037,0.001188,0.435006,-0.161359,0.756131,4
576745778552150,-9.336882,0.016088,7.284273,3.053143,-1.553426,0.000001,-9.341953,0.026867,7.248814,3.055794,-1.574537,-0.004760,-0.000000,0.078442,-0.068934,-0.000000,0.099671,0.000000,-5.734581,-8.204712,-22.827259,-6.844858,2.413365,0.001176,0.435061,-0.161354,0.756139,4
576745779551393,-9.336882,0.016165,7.284203,3.053142,-1.553330,0.000004,-9.341967,0.026960,7.248695,3.055802,-1.574562,-0.004775,-0.000000,0.079235,-0.070519,-0.000000,0.095874,0.000000,-5.748125,-8.348175,-22.846222,-6.852835,2.410377,0.001182,0.435114,-0.161350,0.756147,4
576745780544000,-9.336883,0.016249,7.284131,3.053140,-1.553231,0.000001,-9.341982,0.027052,7.248576,3.055810,-1.574587,-0.004789,-0.000000,0.079235,-0.072103,-0.000000,0.098722,0.000000,-5.759226,-8.303976,-22.803938,-6.844401,2.402939,0.001188,0.435170,-0.161345,0.756154,4
576745781550192,-9.336882,0.016331,7.284063,3.053138,-1.553135,0.000003,-9.341996,0.027145,7.248458,3.055817,-1.574613,-0.004804,-0.000000,0.082404,-0.067349,-0.000000,0.096823,0.000000,-5.807580,-9.403901,-23.211964,-6.959923,2.407300,0.001214,0.435225,-0.161340,0.756160,4
576745782554981,-9.336884,0.016411,7.283998,3.053138,-1.553039,0.000001,-9.342010,0.027237,7.248339,3.055825,-1.574638,-0.004818,-0.000000,0.080027,-0.065765,-0.000000,0.095874,0.000000,-5.806795,-8.884412,-23.100420,-6.925820,2.418590,0.001207,0.435279,-0.161336,0.756165,4
576745783552561,-9.336884,0.016490,7.283928,3.053138,-1.552942,0.000002,-9.342024,0.027329,7.248221,3.055833,-1.574663,-0.004833,-0.000000,0.082404,-0.069726,-0.000000,0.097772,0.000000,-5.829131,-9.336118,-23.155714,-6.949109,2.399539,0.001222,0.435333,-0.161331,0.756173,4
576745784550641,-9.336883,0.016571,7.283860,3.053140,-1.552838,0.000001,-9.342039,0.027421,7.248102,3.055841,-1.574688,-0.004847,-0.000000,0.080819,-0.068142,-0.000000,0.102519,0.000000,-5.839670,-9.031933,-23.098054,-6.932921,2.402783,0.001224,0.435390,-0.161326,0.756179,4
576745785551177,-9.336883,0.016652,7.283788,3.053139,-1.552737,0.000002,-9.342053,0.027513,7.247984,3.055848,-1.574713,-0.004861,-0.000000,0.080819,-0.072103,-0.000000,0.100620,0.000000,-5.843048,-8.860965,-22.980345,-6.904067,2.393948,0.001225,0.435445,-0.161321,0.756188,4
576745786503440,-9.336882,0.016735,7.283717,3.053141,-1.552635,0.000001,-9.342067,0.027605,7.247866,3.055856,-1.574738,-0.004876,-0.000000,0.083196,-0.070519,-0.000000,0.101569,0.000000,-5.879896,-9.600391,-23.222458,-6.975495,2.389601,0.001246,0.435502,-0.161315,0.756194,4
576745787550586,-9.336882,0.016814,7.283647,3.053142,-1.552536,0.000001,-9.342082,0.027696,7.247748,3.055864,-1.574763,-0.004890,-0.000000,0.078442,-0.070519,-0.000000,0.099671,0.000000,-5.859199,-8.372321,-22.879881,-6.875186,2.404269,0.001225,0.435556,-0.161310,0.756202,4
