jieun02-kim/RAON-RT-Revision/App/Indy7/rt_log_results/DataLog_20260423_115612.csv
timestamp_ns,q0,q1,q2,q3,q4,q5,q_ref0,q_ref1,q_ref2,q_ref3,q_ref4,q_ref5,qd0,qd1,qd2,qd3,qd4,qd5,tau0,tau1,tau2,tau3,tau4,tau5,tcp_x,tcp_y,tcp_z,ctrl_mode
576086188987398,-6.801299,-0.466702,6.769359,1.100776,-0.000021,0.000001,0.000000,0.000000,0.000000,0.000000,0.000000,0.000000,-0.000000,-0.000000,0.000000,-0.000000,-0.000000,0.000000,-0.000000,27.332365,4.951379,0.053665,-0.030103,0.000010,0.000000,0.000000,0.000000,0
576086189990175,-6.801299,-0.466702,6.769358,1.100776,-0.000022,0.000001,0.000000,0.000000,0.000000,0.000000,0.000000,0.000000,-0.000000,-0.000000,0.000000,-0.000000,-0.000000,0.000000,0.000000,27.332388,4.951401,0.053663,-0.030100,0.000010,0.000000,0.000000,0.000000,0
576086190987348,-6.801298,-0.466701,6.769357,1.100776,-0.000024,0.000001,0.000000,0.000000,0.000000,0.000000,0.000000,0.000000,-0.000000,-0.000000,0.000000,-0.000000,-0.000000,0.000000,-0.000000,27.332355,4.951404,0.053663,-0.030094,0.000010,0.000000,0.000000,0.000000,0
576086191985833,-6.801300,-0.466702,6.769358,1.100776,-0.000022,0.000002,0.000000,0.000000,0.000000,0.000000,0.000000,0.000000,-0.000000,-0.000000,0.000000,-0.000000,-0.000000,0.000000,0.000000,27.332385,4.951398,0.053663,-0.030100,0.000010,0.000000,0.000000,0.000000,0
576086192988375,-6.801300,-0.466703,6.769359,1.100776,-0.000019,0.000003,0.000000,0.000000,0.000000,0.000000,0.000000,0.000000,-0.000000,-0.000000,0.000000,-0.000000,0.002848,0.000000,-0.000000,27.332417,4.951395,0.053663,-0.030108,0.000010,0.000000,0.000000,0.000000,0
576086193988326,-6.801298,-0.466701,6.769357,1.100776,-0.000019,0.000002,0.000000,0.000000,0.000000,0.000000,0.000000,0.000000,-0.000000,-0.000000,0.000000,-0.000000,-0.000000,0.000000,-0.000000,27.332349,4.951397,0.053663,-0.030108,0.000010,0.000000,0.000000,0.000000,0
576086194985387,-6.801298,-0.466702,6.769359,1.100776,-0.000022,0.000002,0.000000,0.000000,0.000000,0.000000,0.000000,0.000000,-0.000000,-0.000000,0.000000,-0.000000,-0.002848,0.000000,0.000000,27.332366,4.951380,0.053665,-0.030101,0.000010,0.000000,0.000000,0.000000,0
576086195984987,-6.801298,-0.466700,6.769357,1.100776,-0.000021,0.000002,0.000000,0.000000,0.000000,0.000000,0.000000,0.000000,-0.000000,-0.000000,0.000000,-0.000000,-0.000000,0.000000,-0.000000,27.332295,4.951379,0.053665,-0.030103,0.000010,0.000000,0.000000,0.000000,0
576086196985537,-6.801300,-0.466700,6.769359,1.100776,-0.000021,0.000002,0.000000,0.000000,0.000000,0.000000,0.000000,0.000000,-0.000000,-0.000000,0.000000,-0.000000,-0.000000,0.000000,-0.000000,27.332257,4.951341,0.053670,-0.030105,0.000010,0.000000,0.000000,0.000000,0
576086197986556,-6.801299,-0.466703,6.769359,1.100777,-0.000023,0.000001,0.000000,0.000000,0.000000,0.000000,0.000000,0.000000,-0.000000,-0.002377,0.000000,-0.000000,-0.002848,0.000000,-0.000000,27.332427,4.951405,0.053663,-0.030097,0.000010,0.000000,0.000000,0.000000,0
576086198990902,-6.801299,-0.466700,6.769357,1.100776,-0.000021,0.000001,0.000000,0.000000,0.000000,0.000000,0.000000,0.000000,-0.000000,0.002377,-0.002377,-0.000000,-0.000000,0.000000,-0.000000,27.332313,4.951397,0.053663,-0.030102,0.000010,0.000000,0.000000,0.000000,0
576086199986459,-6.801297,-0.466703,6.769361,1.100777,-0.000020,0.000002,0.000000,0.000000,0.000000,0.000000,0.000000,0.000000,0.002377,-0.002377,0.003962,-0.000000,0.002848,0.000000,-0.000000,27.332386,4.951364,0.053667,-0.030107,0.000010,0.000000,0.000000,0.000000,0
576086200995590,-6.801299,-0.466704,6.769358,1.100776,-0.000021,0.000003,0.000000,0.000000,0.000000,0.000000,0.000000,0.000000,-0.002377,-0.000000,-0.002377,-0.000000,-0.000000,0.000000,0.000000,27.332545,4.951453,0.053657,-0.030099,0.000010,0.000000,0.000000,0.000000,0
576086201985841,-6.801298,-0.466702,6.769359,1.100776,-0.000024,-0.000002,0.000000,0.000000,0.000000,0.000000,0.000000,0.000000,-0.000000,0.002377,0.000000,-0.000000,-0.002848,-0.004746,-0.000000,27.332371,4.951385,0.053665,-0.030095,0.000010,0.000000,0.000000,0.000000,0
576086202987875,-6.801298,-0.466701,6.769360,1.100776,-0.000022,0.000004,0.000000,0.000000,0.000000,0.000000,0.000000,0.000000,-0.000000,-0.000000,0.000000,-0.000000,-0.000000,0.005695,-0.000000,27.332297,4.951345,0.053670,-0.030103,0.000010,0.000000,0.000000,0.000000,0
576086203985703,-6.801298,-0.466702,6.769357,1.100774,-0.000022,0.000001,0.000000,0.000000,0.000000,0.000000,0.000000,0.000000,-0.000000,-0.000000,-0.002377,-0.002848,-0.000000,-0.002848,-0.000000,27.332398,4.951412,0.053661,-0.030099,0.000010,0.000000,0.000000,0.000000,0
576086204986755,-6.801298,-0.466700,6.769357,1.100776,-0.000020,0.000003,0.000000,0.000000,0.000000,0.000000,0.000000,0.000000,-0.000000,-0.000000,0.000000,-0.000000,-0.000000,0.000000,-0.000000,27.332294,4.951377,0.053665,-0.030106,0.000010,0.000000,0.000000,0.000000,0
576086205961702,-6.801298,-0.466703,6.769357,1.100778,-0.000021,0.000002,0.000000,0.000000,0.000000,0.000000,0.000000,0.000000,-0.000000,-0.002377,0.000000,0.002848,-0.000000,0.000000,-0.000000,27.332464,4.951442,0.053659,-0.030100,0.000010,0.000000,0.000000,0.000000,0
576086206966255,-6.801298,-0.466701,6.769359,1.100776,-0.000021,-0.000002,0.000000,0.000000,0.000000,0.000000,0.000000,0.000000,-0.000000,-0.000000,0.000000,-0.000000,-0.000000,-0.003797,-0.000000,27.332314,4.951363,0.053667,-0.030104,0.000010,0.000000,0.000000,0.000000,0
576086207987371,-6.801300,-0.466702,6.769360,1.100777,-0.000020,0.000001,0.000000,0.000000,0.000000,0.000000,0.000000,0.000000,-0.002377,-0.000000,0.000000,-0.000000,-0.000000,0.002848,0.000000,27.332351,4.951364,0.053667,-0.030107,0.000010,0.000000,0.000000,0.000000,0
576086208993456,-6.801299,-0.466702,6.769358,1.100776,-0.000020,0.000003,0.000000,0.000000,0.000000,0.000000,0.000000,0.000000,-0.000000,-0.000000,0.000000,-0.002848,-0.000000,0.000000,-0.000000,27.332383,4.951396,0.053663,-0.030105,0.000010,0.000000,0.000000,0.000000,0
576086209962305,-6.801301,-0.466702,6.769359,1.100776,-0.000023,0.000002,0.000000,0.000000,0.000000,0.000000,0.000000,0.000000,-0.000000,-0.000000,0.000000,-0.000000,-0.000000,0.000000,-0.000000,27.332368,4.951381,0.053665,-0.030098,0.000010,0.000000,0.000000,0.000000,0
576086210962377,-6.801298,-0.466702,6.769358,1.100776,-0.000021,0.000001,0.000000,0.000000,0.000000,0.000000,0.000000,0.000000,-0.000000,-0.000000,0.000000,-0.000000,-0.000000,0.000000,0.000000,27.332386,4.951400,0.053663,-0.030102,0.000010,0.000000,0.000000,0.000000,0
576086211961370,-6.801298,-0.466703,6.769359,1.100776,-0.000021,0.000002,0.000000,0.000000,0.000000,0.000000,0.000000,0.000000,-0.000000,-0.000000,0.000000,-0.000000,-0.000000,-0.003797,-0.000000,27.332419,4.951397,0.053663,-0.030102,0.000010,0.000000,0.000000,0.000000,0
576086212987590,-6.801298,-0.466702,6.769359,1.100777,-0.000021,0.000000,0.000000,0.000000,0.000000,0.000000,0.000000,0.000000,-0.000000,-0.000000,0.000000,-0.000000,-0.000000,0.000000,-0.000000,27.332370,4.951384,0.053665,-0.030103,0.000010,0.000000,0.000000,0.000000,0
576086213986063,-6.801299,-0.466702,6.769358,1.100774,-0.000024,0.000000,0.000000,0.000000,0.000000,0.000000,0.000000,0.000000,-0.000000,-0.000000,0.000000,-0.003797,-0.002848,0.000000,-0.000000,27.332382,4.951396,0.053663,-0.030094,0.000010,0.000000,0.000000,0.000000,0
576086214998398,-6.801300,-0.466703,6.769360,1.100777,-0.000023,0.000001,0.000000,0.000000,0.000000,0.000000,0.000000,0.000000,-0.000000,-0.000000,0.000000,0.003797,-0.000000,0.000000,0.000000,27.332462,4.951405,0.053663,-0.030097,0.000010,0.000000,0.000000,0.000000,0
576086215989045,-6.801300,-0.466701,6.769358,1.100776,-0.000022,0.000001,0.000000,0.000000,0.000000,0.000000,0.000000,0.000000,-0.002377,-0.000000,-0.002377,-0.000000,-0.000000,0.002848,-0.000000,27.332331,4.951380,0.053665,-0.030101,0.000010,0.000000,0.000000,0.000000,0
576086216988404,-6.801299,-0.466701,6.769358,1.100775,-0.000017,0.000003,0.000000,0.000000,0.000000,0.000000,0.000000,0.000000,-0.000000,-0.000000,0.000000,-0.000000,-0.000000,0.000000,0.000000,27.332322,4.951371,0.053666,-0.030114,0.000010,0.000000,0.000000,0.000000,0
576086217987056,-6.801299,-0.466701,6.769359,1.100776,-0.000021,0.000002,0.000000,0.000000,0.000000,0.000000,0.000000,0.000000,-0.000000,-0.000000,0.000000,-0.000000,-0.000000,0.000000,-0.000000,27.332314,4.951363,0.053667,-0.030104,0.000010,0.000000,0.000000,0.000000,0
576086218988157,-6.801300,-0.466703,6.769358,1.100776,-0.000023,0.000001,0.000000,0.000000,0.000000,0.000000,0.000000,0.000000,-0.000000,-0.000000,0.000000,-0.000000,-0.000000,0.000000,0.000000,27.332440,4.951418,0.053661,-0.030096,0.000010,0.000000,0.000000,0.000000,0
576086219985471,-6.801299,-0.466701,6.769359,1.100776,-0.000020,0.000001,0.000000,0.000000,0.000000,0.000000,0.000000,0.000000,-0.000000,-0.000000,0.000000,-0.000000,0.002848,0.000000,-0.000000,27.332310,4.951359,0.053668,-0.030107,0.000010,0.000000,0.000000,0.000000,0
576086220987246,-6.801300,-0.466700,6.769357,1.100776,-0.000020,0.000002,0.000000,0.000000,0.000000,0.000000,0.000000,0.000000,-0.000000,-0.000000,0.000000,-0.000000,0.002848,0.000000,-0.000000,27.332294,4.951377,0.053665,-0.030106,0.000010,0.000000,0.000000,0.000000,0
576086221987262,-6.801299,-0.466701,6.769357,1.100776,-0.000021,0.000002,0.000000,0.000000,0.000000,0.000000,0.000000,0.000000,-0.000000,-0.000000,0.000000,-0.000000,-0.000000,0.000000,-0.000000,27.332351,4.951400,0.053663,-0.030102,0.000010,0.000000,0.000000,0.000000,0
576086222981817,-6.801300,-0.466702,6.769357,1.100776,-0.000021,0.000002,0.000000,0.000000,0.000000,0.000000,0.000000,0.000000,-0.000000,-0.000000,0.000000,-0.000000,-0.000000,0.000000,-0.000000,27.332424,4.951437,0.053659,-0.030100,0.000010,0.000000,0.000000,0.000000,0
576086223998734,-6.801298,-0.466701,6.769357,1.100777,-0.000023,0.000001,0.000000,0.000000,0.000000,0.000000,0.000000,0.000000,0.002377,-0.000000,0.000000,-0.000000,-0.000000,0.000000,-0.000000,27.332356,4.951405,0.053663,-0.030097,0.000010,0.000000,0.000000,0.000000,0
576086224987624,-6.801300,-0.466703,6.769358,1.100776,-0.000024,0.000000,0.000000,0.000000,0.000000,0.000000,0.000000,0.000000,-0.002377,-0.000000,0.000000,-0.000000,-0.000000,0.000000,0.000000,27.332441,4.951420,0.053661,-0.030093,0.000010,0.000000,0.000000,0.000000,0
576086225987042,-6.801299,-0.466703,6.769358,1.100776,-0.000022,0.000001,0.000000,0.000000,0.000000,0.000000,0.000000,0.000000,-0.000000,-0.000000,0.000000,-0.000000,-0.000000,0.000000,0.000000,27.332495,4.951438,0.053659,-0.030098,0.000010,0.000000,0.000000,0.000000,0
576086226985875,-6.801300,-0.466703,6.769359,1.100776,-0.000023,0.000001,0.000000,0.000000,0.000000,0.000000,0.000000,0.000000,-0.000000,-0.000000,0.000000,-0.000000,-0.000000,0.000000,-0.000000,27.332421,4.951400,0.053663,-0.030097,0.000010,0.000000,0.000000,0.000000,0
576086227986215,-6.801301,-0.466702,6.769358,1.100776,-0.000022,0.000004,0.000000,0.000000,0.000000,0.000000,0.000000,0.000000,-0.000000,-0.000000,0.000000,-0.000000,-0.000000,0.002848,-0.000000,27.332385,4.951398,0.053663,-0.030100,0.000010,0.000000,0.000000,0.000000,0
576086228987586,-6.801298,-0.466702,6.769360,1.100776,-0.000020,0.000002,0.000000,0.000000,0.000000,0.000000,0.000000,0.000000,0.003169,-0.000000,0.000000,-0.000000,-0.000000,0.000000,0.000000,27.332348,4.951361,0.053668,-0.030107,0.000010,0.000000,0.000000,0.000000,0
576086229985655,-6.801298,-0.466703,6.769358,1.100777,-0.000021,-0.000001,0.000000,0.000000,0.000000,0.000000,0.000000,0.000000,-0.000000,-0.000000,0.000000,-0.000000,-0.000000,-0.002848,0.000000,27.332443,4.951421,0.053661,-0.030101,0.000010,0.000000,0.000000,0.000000,0
576086230985879,-6.801298,-0.466702,6.769357,1.100775,-0.000023,0.000002,0.000000,0.000000,0.000000,0.000000,0.000000,0.000000,-0.000000,-0.000000,0.000000,-0.002848,-0.002848,0.002848,-0.000000,27.332402,4.951416,0.053661,-0.030096,0.000010,0.000000,0.000000,0.000000,0
576086231989353,-6.801299,-0.466702,6.769357,1.100777,-0.000021,0.000001,0.000000,0.000000,0.000000,0.000000,0.000000,0.000000,-0.000000,-0.000000,0.000000,0.002848,-0.000000,0.000000,-0.000000,27.332408,4.951421,0.053661,-0.030101,0.000010,0.000000,0.000000,0.000000,0
576086232991127,-6.801298,-0.466701,6.769357,1.100779,-0.000021,-0.000001,0.000000,0.000000,0.000000,0.000000,0.000000,0.000000,-0.000000,-0.000000,0.000000,-0.000000,-0.000000,0.000000,-0.000000,27.332359,4.951408,0.053663,-0.030102,0.000010,0.000000,0.000000,0.000000,0
576086233987517,-6.801299,-0.466701,6.769358,1.100776,-0.000025,0.000003,0.000000,0.000000,0.000000,0.000000,0.000000,0.000000,-0.000000,-0.000000,0.000000,-0.002848,-0.002848,0.003797,0.000000,27.332338,4.951386,0.053665,-0.030092,0.000010,0.000000,0.000000,0.000000,0
576086234987371,-6.801298,-0.466702,6.769358,1.100776,-0.000022,0.000001,0.000000,0.000000,0.000000,0.000000,0.000000,0.000000,-0.000000,-0.000000,0.000000,-0.000000,-0.000000,0.000000,0.000000,27.332388,4.951401,0.053663,-0.030100,0.000010,0.000000,0.000000,0.000000,0
576086235987700,-6.801298,-0.466699,6.769360,1.100776,-0.000022,0.000002,0.000000,0.000000,0.000000,0.000000,0.000000,0.000000,-0.000000,0.002377,0.000000,-0.000000,-0.000000,0.000000,-0.000000,27.332189,4.951308,0.053674,-0.030105,0.000010,0.000000,0.000000,0.000000,0
576086236962429,-6.801298,-0.466701,6.769359,1.100777,-0.000024,0.000000,0.000000,0.000000,0.000000,0.000000,0.000000,0.000000,-0.000000,-0.000000,0.000000,-0.000000,-0.000000,0.000000,-0.000000,27.332320,4.951369,0.053667,-0.030096,0.000010,0.000000,0.000000,0.000000,0
576086237987420,-6.801299,-0.466703,6.769357,1.100775,-0.000021,0.000001,0.000000,0.000000,0.000000,0.000000,0.000000,0.000000,-0.000000,-0.002377,-0.002377,-0.002848,0.002848,0.000000,0.000000,27.332526,4.951469,0.053655,-0.030098,0.000010,0.000000,0.000000,0.000000,0
576086238988198,-6.801299,-0.466702,6.769358,1.100776,-0.000020,0.000000,0.000000,0.000000,0.000000,0.000000,0.000000,0.000000,-0.000000,-0.000000,0.000000,-0.000000,-0.000000,0.000000,-0.000000,27.332385,4.951399,0.053663,-0.030105,0.000010,0.000000,0.000000,0.000000,0
576086240021158,-6.801298,-0.466703,6.769357,1.100775,-0.000020,0.000001,0.000000,0.000000,0.000000,0.000000,0.000000,0.000000,-0.000000,-0.002377,0.000000,-0.002848,0.002848,0.000000,0.000000,27.332506,4.951449,0.053657,-0.030102,0.000010,0.000000,0.000000,0.000000,0
576086240989100,-6.801298,-0.466702,6.769358,1.100776,-0.000021,-0.000002,0.000000,0.000000,0.000000,0.000000,0.000000,0.000000,-0.000000,-0.000000,0.000000,-0.000000,-0.000000,-0.002848,-0.000000,27.332386,4.951400,0.053663,-0.030102,0.000010,0.000000,0.000000,0.000000,0
576086241988175,-6.801299,-0.466703,6.769359,1.100775,-0.000022,0.000003,0.000000,0.000000,0.000000,0.000000,0.000000,0.000000,-0.000000,-0.000000,0.000000,-0.000000,-0.000000,0.004746,-0.000000,27.332418,4.951396,0.053663,-0.030100,0.000010,0.000000,0.000000,0.000000,0
576086242986366,-6.801298,-0.466702,6.769359,1.100776,-0.000020,0.000001,0.000000,0.000000,0.000000,0.000000,0.000000,0.000000,-0.000000,-0.000000,0.000000,-0.000000,-0.000000,0.000000,-0.000000,27.332364,4.951377,0.053665,-0.030106,0.000010,0.000000,0.000000,0.000000,0
576086243985581,-6.801298,-0.466701,6.769357,1.100775,-0.000022,0.000001,0.000000,0.000000,0.000000,0.000000,0.000000,0.000000,-0.000000,-0.000000,-0.002377,-0.000000,-0.000000,0.000000,-0.000000,27.332366,4.951414,0.053661,-0.030099,0.000010,0.000000,0.000000,0.000000,0
576086244985817,-6.801298,-0.466702,6.769359,1.100776,-0.000023,0.000004,0.000000,0.000000,0.000000,0.000000,0.000000,0.000000,-0.000000,-0.000000,0.002377,-0.000000,-0.000000,0.002848,-0.000000,27.332370,4.951384,0.053665,-0.030098,0.000010,0.000000,0.000000,0.000000,0
576086245985833,-6.801298,-0.466702,6.769358,1.100775,-0.000022,0.000000,0.000000,0.000000,0.000000,0.000000,0.000000,0.000000,-0.000000,-0.000000,0.000000,-0.000000,-0.000000,-0.003797,-0.000000,27.332382,4.951396,0.053663,-0.030100,0.000010,0.000000,0.000000,0.000000,0
576086246986333,-6.801298,-0.466703,6.769358,1.100778,-0.000023,0.000004,0.000000,0.000000,0.000000,0.000000,0.000000,0.000000,-0.000000,-0.000000,0.000000,0.003797,-0.000000,0.003797,-0.000000,27.332448,4.951426,0.053661,-0.030096,0.000010,0.000000,0.000000,0.000000,0
576086247987727,-6.801298,-0.466702,6.769359,1.100776,-0.000022,-0.000001,0.000000,0.000000,0.000000,0.000000,0.000000,0.000000,-0.000000,-0.000000,0.000000,-0.000000,-0.000000,-0.004746,-0.000000,27.332369,4.951382,0.053665,-0.030101,0.000010,0.000000,0.000000,0.000000,0
576086248964622,-6.801300,-0.466703,6.769358,1.100776,-0.000020,0.000002,0.000000,0.000000,0.000000,0.000000,0.000000,0.000000,-0.000000,-0.000000,0.000000,-0.000000,-0.000000,0.002848,-0.000000,27.332439,4.951417,0.053661,-0.030104,0.000010,0.000000,0.000000,0.000000,0
576086249988034,-6.801298,-0.466703,6.769359,1.100776,-0.000021,0.000000,0.000000,0.000000,0.000000,0.000000,0.000000,0.000000,-0.000000,-0.000000,0.000000,-0.000000,0.002848,0.000000,-0.000000,27.332473,4.951416,0.053661,-0.030101,0.000010,0.000000,0.000000,0.000000,0
576086250987828,-6.801298,-0.466703,6.769359,1.100777,-0.000023,0.000003,0.000000,0.000000,0.000000,0.000000,0.000000,0.000000,-0.000000,-0.000000,0.000000,-0.000000,-0.000000,0.002848,-0.000000,27.332427,4.951405,0.053663,-0.030097,0.000010,0.000000,0.000000,0.000000,0
576086251961648,-6.801299,-0.466702,6.769359,1.100777,-0.000022,0.000001,0.000000,0.000000,0.000000,0.000000,0.000000,0.000000,-0.000000,-0.000000,0.002377,-0.000000,-0.002848,0.000000,-0.000000,27.332372,4.951385,0.053665,-0.030101,0.000010,0.000000,0.000000,0.000000,0
576086252963140,-6.801300,-0.466702,6.769357,1.100777,-0.000019,0.000000,0.000000,0.000000,0.000000,0.000000,0.000000,0.000000,-0.000000,-0.000000,0.000000,0.002848,0.002848,0.000000,0.000000,27.332424,4.951437,0.053659,-0.030106,0.000010,0.000000,0.000000,0.000000,0
576086253966428,-6.801301,-0.466701,6.769359,1.100776,-0.000020,0.000000,0.000000,0.000000,0.000000,0.000000,0.000000,0.000000,-0.000000,-0.000000,0.002377,-0.000000,-0.000000,0.000000,-0.000000,27.332310,4.951359,0.053668,-0.030107,0.000010,0.000000,0.000000,0.000000,0
576086254985954,-6.801298,-0.466701,6.769359,1.100778,-0.000022,0.000000,0.000000,0.000000,0.000000,0.000000,0.000000,0.000000,-0.000000,-0.000000,0.000000,0.003797,-0.000000,0.000000,-0.000000,27.332320,4.951369,0.053667,-0.030102,0.000010,0.000000,0.000000,0.000000,0
576086255965201,-6.801299,-0.466703,6.769360,1.100775,-0.000023,0.000000,0.000000,0.000000,0.000000,0.000000,0.000000,0.000000,-0.000000,-0.000000,0.000000,-0.003797,-0.000000,0.000000,-0.000000,27.332400,4.951378,0.053665,-0.030098,0.000010,0.000000,0.000000,0.000000,0
576086256997055,-6.801299,-0.466702,6.769358,1.100776,-0.000021,0.000000,0.000000,0.000000,0.000000,0.000000,0.000000,0.000000,-0.000000,-0.000000,0.000000,-0.000000,-0.000000,0.000000,-0.000000,27.332384,4.951397,0.053663,-0.030102,0.000010,0.000000,0.000000,0.000000,0
576086257985967,-6.801298,-0.466701,6.769359,1.100776,-0.000023,0.000004,0.000000,0.000000,0.000000,0.000000,0.000000,0.000000,-0.000000,-0.000000,0.000000,-0.000000,-0.000000,0.003797,-0.000000,27.332316,4.951365,0.053667,-0.030099,0.000010,0.000000,0.000000,0.000000,0
576086258962369,-6.801298,-0.466702,6.769361,1.100776,-0.000022,0.000001,0.000000,0.000000,0.000000,0.000000,0.000000,0.000000,-0.000000,-0.000000,0.002377,-0.000000,-0.000000,0.000000,0.000000,27.332332,4.951345,0.053670,-0.030103,0.000010,0.000000,0.000000,0.000000,0
576086259992666,-6.801299,-0.466701,6.769358,1.100775,-0.000024,-0.000001,0.000000,0.000000,0.000000,0.000000,0.000000,0.000000,-0.000000,-0.000000,0.000000,-0.000000,-0.000000,0.000000,-0.000000,27.332331,4.951380,0.053665,-0.030095,0.000010,0.000000,0.000000,0.000000,0
576086260986921,-6.801299,-0.466702,6.769359,1.100776,-0.000022,0.000000,0.000000,0.000000,0.000000,0.000000,0.000000,0.000000,-0.000000,-0.000000,0.000000,-0.000000,-0.000000,0.000000,-0.000000,27.332369,4.951382,0.053665,-0.030101,0.000010,0.000000,0.000000,0.000000,0
576086261985485,-6.801299,-0.466703,6.769358,1.100776,-0.000020,-0.000001,0.000000,0.000000,0.000000,0.000000,0.000000,0.000000,-0.000000,-0.000000,0.000000,-0.000000,-0.000000,-0.002848,-0.000000,27.332436,4.951415,0.053661,-0.030104,0.000010,0.000000,0.000000,0.000000,0
576086262986216,-6.801299,-0.466701,6.769360,1.100777,-0.000023,0.000002,0.000000,0.000000,0.000000,0.000000,0.000000,0.000000,-0.000000,-0.000000,0.000000,0.003797,-0.000000,0.000000,0.000000,27.332300,4.951349,0.053669,-0.030100,0.000010,0.000000,0.000000,0.000000,0
576086263986102,-6.801299,-0.466701,6.769358,1.100776,-0.000023,-0.000001,0.000000,0.000000,0.000000,0.000000,0.000000,0.000000,-0.000000,-0.000000,0.000000,-0.000000,-0.000000,0.000000,-0.000000,27.332332,4.951381,0.053665,-0.030098,0.000010,0.000000,0.000000,0.000000,0
576086264988165,-6.801300,-0.466700,6.769358,1.100775,-0.000023,0.000001,0.000000,0.000000,0.000000,0.000000,0.000000,0.000000,-0.002377,-0.000000,0.000000,-0.002848,-0.000000,0.000000,-0.000000,27.332276,4.951360,0.053668,-0.030099,0.000010,0.000000,0.000000,0.000000,0
576086265986020,-6.801300,-0.466702,6.769359,1.100777,-0.000022,0.000001,0.000000,0.000000,0.000000,0.000000,0.000000,0.000000,-0.000000,-0.000000,0.000000,0.002848,-0.000000,0.000000,-0.000000,27.332372,4.951385,0.053665,-0.030101,0.000010,0.000000,0.000000,0.000000,0
576086266988927,-6.801299,-0.466702,6.769357,1.100776,-0.000022,0.000001,0.000000,0.000000,0.000000,0.000000,0.000000,0.000000,-0.000000,-0.000000,-0.002377,-0.000000,-0.000000,0.000000,0.000000,27.332425,4.951438,0.053659,-0.030098,0.000010,0.000000,0.000000,0.000000,0
576086267985763,-6.801299,-0.466703,6.769360,1.100776,-0.000018,0.000002,0.000000,0.000000,0.000000,0.000000,0.000000,0.000000,-0.000000,-0.000000,0.002377,-0.000000,0.003797,0.000000,-0.000000,27.332397,4.951375,0.053666,-0.030112,0.000010,0.000000,0.000000,0.000000,0
576086268988299,-6.801298,-0.466703,6.769358,1.100776,-0.000021,-0.000001,0.000000,0.000000,0.000000,0.000000,0.000000,0.000000,-0.000000,-0.000000,0.000000,-0.000000,-0.002848,-0.002848,0.000000,27.332438,4.951416,0.053661,-0.030101,0.000010,0.000000,0.000000,0.000000,0
576086269989065,-6.801298,-0.466703,6.769359,1.100775,-0.000023,-0.000001,0.000000,0.000000,0.000000,0.000000,0.000000,0.000000,-0.000000,-0.000000,0.000000,-0.000000,-0.000000,0.000000,-0.000000,27.332419,4.951397,0.053663,-0.030097,0.000010,0.000000,0.000000,0.000000,0
576086270985956,-6.801299,-0.466703,6.769359,1.100777,-0.000022,0.000001,0.000000,0.000000,0.000000,0.000000,0.000000,0.000000,-0.000000,-0.000000,0.000000,0.002848,-0.000000,0.000000,-0.000000,27.332425,4.951404,0.053663,-0.030100,0.000010,0.000000,0.000000,0.000000,0
576086271962431,-6.801299,-0.466701,6.769358,1.100779,-0.000021,0.000001,0.000000,0.000000,0.000000,0.000000,0.000000,0.000000,-0.000000,-0.000000,0.000000,-0.000000,-0.000000,0.000000,-0.000000,27.332340,4.951389,0.053665,-0.030103,0.000010,0.000000,0.000000,0.000000,0
576086272987199,-6.801299,-0.466702,6.769357,1.100776,-0.000024,0.000002,0.000000,0.000000,0.000000,0.000000,0.000000,0.000000,-0.000000,-0.000000,0.000000,-0.002848,-0.002848,0.000000,0.000000,27.332427,4.951441,0.053659,-0.030092,0.000010,0.000000,0.000000,0.000000,0
576086274011208,-6.801299,-0.466702,6.769358,1.100776,-0.000023,0.000002,0.000000,0.000000,0.000000,0.000000,0.000000,0.000000,-0.000000,-0.000000,0.000000,-0.000000,-0.000000,0.002848,-0.000000,27.332389,4.951402,0.053663,-0.030097,0.000010,0.000000,0.000000,0.000000,0
576086274962383,-6.801299,-0.466701,6.769359,1.100775,-0.000023,0.000002,0.000000,0.000000,0.000000,0.000000,0.000000,0.000000,-0.000000,-0.000000,0.000000,-0.000000,-0.000000,0.000000,-0.000000,27.332311,4.951360,0.053668,-0.030099,0.000010,0.000000,0.000000,0.000000,0
576086275987913,-6.801299,-0.466702,6.769359,1.100777,-0.000021,0.000000,0.000000,0.000000,0.000000,0.000000,0.000000,0.000000,-0.000000,-0.000000,0.000000,-0.000000,-0.000000,0.000000,-0.000000,27.332370,4.951384,0.053665,-0.030103,0.000010,0.000000,0.000000,0.000000,0
576086276986888,-6.801299,-0.466703,6.769357,1.100776,-0.000023,0.000000,0.000000,0.000000,0.000000,0.000000,0.000000,0.000000,-0.000000,-0.000000,-0.002377,-0.000000,-0.000000,0.000000,-0.000000,27.332459,4.951437,0.053659,-0.030095,0.000010,0.000000,0.000000,0.000000,0
576086277985967,-6.801300,-0.466702,6.769359,1.100777,-0.000023,0.000002,0.000000,0.000000,0.000000,0.000000,0.000000,0.000000,-0.000000,-0.000000,0.000000,-0.000000,-0.000000,0.000000,-0.000000,27.332373,4.951386,0.053665,-0.030098,0.000010,0.000000,0.000000,0.000000,0
576086278991829,-6.801300,-0.466703,6.769358,1.100776,-0.000022,0.000001,0.000000,0.000000,0.000000,0.000000,0.000000,0.000000,-0.000000,-0.000000,0.000000,-0.000000,-0.000000,0.000000,-0.000000,27.332442,4.951420,0.053661,-0.030099,0.000010,0.000000,0.000000,0.000000,0
576086279989094,-6.801300,-0.466703,6.769358,1.100775,-0.000021,0.000002,0.000000,0.000000,0.000000,0.000000,0.000000,0.000000,-0.000000,-0.000000,0.000000,-0.000000,-0.000000,0.000000,0.000000,27.332435,4.951413,0.053661,-0.030101,0.000010,0.000000,0.000000,0.000000,0
576086280986940,-6.801298,-0.466702,6.769359,1.100776,-0.000022,0.000000,0.000000,0.000000,0.000000,0.000000,0.000000,0.000000,-0.000000,-0.000000,0.000000,-0.000000,-0.000000,0.000000,0.000000,27.332366,4.951380,0.053665,-0.030101,0.000010,0.000000,0.000000,0.000000,0
576086281986163,-6.801299,-0.466701,6.769357,1.100776,-0.000022,0.000000,0.000000,0.000000,0.000000,0.000000,0.000000,0.000000,-0.000000,-0.000000,0.000000,-0.000000,-0.000000,0.000000,-0.000000,27.332350,4.951398,0.053663,-0.030100,0.000010,0.000000,0.000000,0.000000,0
576086282985934,-6.801298,-0.466703,6.769359,1.100774,-0.000021,0.000001,0.000000,0.000000,0.000000,0.000000,0.000000,0.000000,-0.000000,-0.000000,0.000000,-0.000000,-0.000000,0.000000,-0.000000,27.332414,4.951392,0.053663,-0.030102,0.000010,0.000000,0.000000,0.000000,0
576086283989008,-6.801298,-0.466703,6.769358,1.100776,-0.000019,0.000000,0.000000,0.000000,0.000000,0.000000,0.000000,0.000000,-0.000000,-0.000000,0.000000,-0.000000,-0.000000,0.000000,0.000000,27.332489,4.951432,0.053659,-0.030106,0.000010,0.000000,0.000000,0.000000,0
576086284988504,-6.801300,-0.466701,6.769358,1.100777,-0.000020,0.000002,0.000000,0.000000,0.000000,0.000000,0.000000,0.000000,-0.000000,-0.000000,0.000000,-0.000000,-0.000000,0.000000,-0.000000,27.332334,4.951383,0.053665,-0.030106,0.000010,0.000000,0.000000,0.000000,0
576086285987140,-6.801300,-0.466702,6.769357,1.100776,-0.000021,0.000000,0.000000,0.000000,0.000000,0.000000,0.000000,0.000000,-0.000000,-0.000000,0.000000,-0.000000,-0.000000,0.000000,0.000000,27.332424,4.951437,0.053659,-0.030100,0.000010,0.000000,0.000000,0.000000,0
576086286987507,-6.801299,-0.466703,6.769357,1.100776,-0.000022,0.000002,0.000000,0.000000,0.000000,0.000000,0.000000,0.000000,-0.000000,-0.000000,0.000000,-0.000000,-0.000000,0.000000,-0.000000,27.332460,4.951438,0.053659,-0.030098,0.000010,0.000000,0.000000,0.000000,0
576086287985808,-6.801298,-0.466703,6.769357,1.100777,-0.000021,0.000000,0.000000,0.000000,0.000000,0.000000,0.000000,0.000000,-0.000000,-0.000000,0.000000,-0.000000,-0.000000,0.000000,-0.000000,27.332462,4.951440,0.053659,-0.030100,0.000010,0.000000,0.000000,0.000000,0
576086288987751,-6.801298,-0.466702,6.769357,1.100777,-0.000021,0.000002,0.000000,0.000000,0.000000,0.000000,0.000000,0.000000,-0.000000,-0.000000,0.000000,-0.000000,-0.000000,0.000000,0.000000,27.332408,4.951421,0.053661,-0.030101,0.000010,0.000000,0.000000,0.000000,0
576086289967534,-6.801300,-0.466702,6.769358,1.100777,-0.000022,0.000002,0.000000,0.000000,0.000000,0.000000,0.000000,0.000000,-0.000000,-0.000000,0.000000,-0.000000,-0.000000,0.000000,-0.000000,27.332390,4.951404,0.053663,-0.030100,0.000010,0.000000,0.000000,0.000000,0
576086290962542,-6.801299,-0.466699,6.769358,1.100776,-0.000021,0.000001,0.000000,0.000000,0.000000,0.000000,0.000000,0.000000,-0.000000,0.002377,0.000000,-0.000000,-0.000000,0.000000,-0.000000,27.332222,4.951341,0.053670,-0.030105,0.000010,0.000000,0.000000,0.000000,0
576086291996626,-6.801298,-0.466702,6.769359,1.100776,-0.000023,0.000000,0.000000,0.000000,0.000000,0.000000,0.000000,0.000000,-0.000000,-0.000000,0.000000,-0.000000,-0.000000,0.000000,-0.000000,27.332368,4.951381,0.053665,-0.030098,0.000010,0.000000,0.000000,0.000000,0
576086292987411,-6.801299,-0.466701,6.769358,1.100775,-0.000020,0.000002,0.000000,0.000000,0.000000,0.000000,0.000000,0.000000,-0.000000,0.002377,0.000000,-0.000000,-0.000000,0.000000,0.000000,27.332326,4.951375,0.053666,-0.030106,0.000010,0.000000,0.000000,0.000000,0
576086293988026,-6.801298,-0.466703,6.769359,1.100777,-0.000021,-0.000001,0.000000,0.000000,0.000000,0.000000,0.000000,0.000000,-0.000000,-0.000000,0.002377,0.002848,-0.000000,0.000000,-0.000000,27.332424,4.951402,0.053663,-0.030102,0.000010,0.000000,0.000000,0.000000,0
576086294987048,-6.801300,-0.466702,6.769359,1.100775,-0.000023,0.000002,0.000000,0.000000,0.000000,0.000000,0.000000,0.000000,-0.000000,-0.000000,0.000000,-0.002848,-0.000000,0.002848,-0.000000,27.332365,4.951378,0.053665,-0.030098,0.000010,0.000000,0.000000,0.000000,0
576086295987368,-6.801299,-0.466703,6.769360,1.100776,-0.000020,0.000000,0.000000,0.000000,0.000000,0.000000,0.000000,0.000000,-0.000000,-0.000000,0.000000,-0.000000,0.002848,0.000000,-0.000000,27.332402,4.951380,0.053665,-0.030106,0.000010,0.000000,0.000000,0.000000,0
576086296986044,-6.801301,-0.466702,6.769359,1.100776,-0.000023,0.000000,0.000000,0.000000,0.000000,0.000000,0.000000,0.000000,-0.000000,-0.000000,0.000000,-0.000000,-0.002848,0.000000,0.000000,27.332370,4.951384,0.053665,-0.030098,0.000010,0.000000,0.000000,0.000000,0
576086297985670,-6.801299,-0.466702,6.769358,1.100777,-0.000021,0.000000,0.000000,0.000000,0.000000,0.000000,0.000000,0.000000,-0.000000,-0.000000,0.000000,-0.000000,-0.000000,0.000000,0.000000,27.332389,4.951402,0.053663,-0.030102,0.000010,0.000000,0.000000,0.000000,0
576086298985848,-6.801298,-0.466703,6.769359,1.100774,-0.000023,0.000002,0.000000,0.000000,0.000000,0.000000,0.000000,0.000000,-0.000000,-0.000000,0.000000,-0.003797,-0.000000,0.000000,-0.000000,27.332470,4.951413,0.053661,-0.030096,0.000010,0.000000,0.000000,0.000000,0
576086299987932,-6.801298,-0.466703,6.769357,1.100779,-0.000022,0.000003,0.000000,0.000000,0.000000,0.000000,0.000000,0.000000,-0.000000,-0.000000,0.000000,0.005695,-0.000000,0.000000,-0.000000,27.332487,4.951465,0.053656,-0.030096,0.000010,0.000000,0.000000,0.000000,0
576086300985318,-6.801299,-0.466703,6.769359,1.100775,-0.000024,0.000001,0.000000,0.000000,0.000000,0.000000,0.000000,0.000000,-0.000000,-0.000000,0.002377,-0.004746,-0.003797,0.000000,-0.000000,27.332474,4.951417,0.053661,-0.030093,0.000010,0.000000,0.000000,0.000000,0
576086301986569,-6.801299,-0.466702,6.769359,1.100776,-0.000021,0.000001,0.000000,0.000000,0.000000,0.000000,0.000000,0.000000,-0.000000,-0.000000,0.000000,-0.000000,0.002848,0.000000,-0.000000,27.332365,4.951379,0.053665,-0.030103,0.000010,0.000000,0.000000,0.000000,0
576086302985986,-6.801298,-0.466704,6.769357,1.100777,-0.000021,0.000001,0.000000,0.000000,0.000000,0.000000,0.000000,0.000000,-0.000000,-0.002377,0.000000,-0.000000,0.003797,-0.002848,0.000000,27.332569,4.951477,0.053654,-0.030098,0.000010,0.000000,0.000000,0.000000,0
576086303985601,-6.801298,-0.466702,6.769359,1.100777,-0.000020,0.000001,0.000000,0.000000,0.000000,0.000000,0.000000,0.000000,-0.000000,-0.000000,0.000000,-0.000000,0.003797,0.000000,-0.000000,27.332369,4.951383,0.053665,-0.030106,0.000010,0.000000,0.000000,0.000000,0
576086304985446,-6.801301,-0.466703,6.769359,1.100775,-0.000021,0.000005,0.000000,0.000000,0.000000,0.000000,0.000000,0.000000,-0.002377,-0.000000,0.000000,-0.002848,0.002848,0.003797,-0.000000,27.332416,4.951395,0.053663,-0.030102,0.000010,0.000000,0.000000,0.000000,0
576086305985816,-6.801299,-0.466703,6.769358,1.100776,-0.000022,0.000003,0.000000,0.000000,0.000000,0.000000,0.000000,0.000000,-0.000000,-0.000000,0.000000,-0.000000,-0.000000,0.000000,0.000000,27.332495,4.951438,0.053659,-0.030098,0.000010,0.000000,0.000000,0.000000,0
576086306964428,-6.801298,-0.466702,6.769357,1.100775,-0.000022,0.000000,0.000000,0.000000,0.000000,0.000000,0.000000,0.000000,-0.000000,-0.000000,0.000000,-0.000000,-0.000000,-0.002848,-0.000000,27.332401,4.951414,0.053661,-0.030099,0.000010,0.000000,0.000000,0.000000,0
576086307961799,-6.801299,-0.466703,6.769360,1.100777,-0.000021,0.000002,0.000000,0.000000,0.000000,0.000000,0.000000,0.000000,-0.000000,-0.000000,0.002377,0.002848,-0.000000,0.000000,-0.000000,27.332406,4.951384,0.053665,-0.030103,0.000010,0.000000,0.000000,0.000000,0
576086308990628,-6.801298,-0.466703,6.769357,1.100776,-0.000021,0.000002,0.000000,0.000000,0.000000,0.000000,0.000000,0.000000,-0.000000,-0.000000,-0.002377,-0.000000,-0.000000,0.000000,0.000000,27.332510,4.951453,0.053657,-0.030099,0.000010,0.000000,0.000000,0.000000,0
576086309987366,-6.801299,-0.466702,6.769360,1.100776,-0.000022,0.000003,0.000000,0.000000,0.000000,0.000000,0.000000,0.000000,-0.000000,-0.000000,0.003169,-0.000000,-0.000000,0.000000,0.000000,27.332348,4.951361,0.053668,-0.030102,0.000010,0.000000,0.000000,0.000000,0
576086310988930,-6.801299,-0.466701,6.769357,1.100776,-0.000022,-0.000001,0.000000,0.000000,0.000000,0.000000,0.000000,0.000000,-0.000000,-0.000000,-0.003169,-0.000000,-0.000000,-0.003797,-0.000000,27.332371,4.951420,0.053661,-0.030099,0.000010,0.000000,0.000000,0.000000,0
576086311987344,-6.801298,-0.466703,6.769358,1.100776,-0.000021,0.000003,0.000000,0.000000,0.000000,0.000000,0.000000,0.000000,-0.000000,-0.000000,0.000000,-0.000000,-0.000000,0.000000,-0.000000,27.332438,4.951416,0.053661,-0.030101,0.000010,0.000000,0.000000,0.000000,0
576086312990369,-6.801299,-0.466701,6.769358,1.100775,-0.000021,0.000000,0.000000,0.000000,0.000000,0.000000,0.000000,0.000000,-0.000000,-0.000000,0.000000,-0.000000,-0.000000,-0.002848,-0.000000,27.332327,4.951376,0.053665,-0.030103,0.000010,0.000000,0.000000,0.000000,0
576086313987599,-6.801298,-0.466702,6.769359,1.100776,-0.000024,0.000003,0.000000,0.000000,0.000000,0.000000,0.000000,0.000000,-0.000000,-0.000000,0.000000,-0.000000,-0.002848,0.002848,-0.000000,27.332369,4.951382,0.053665,-0.030095,0.000010,0.000000,0.000000,0.000000,0
576086314987054,-6.801300,-0.466702,6.769357,1.100776,-0.000018,0.000001,0.000000,0.000000,0.000000,0.000000,0.000000,0.000000,-0.002377,-0.000000,-0.002377,-0.000000,0.005695,0.000000,0.000000,27.332420,4.951433,0.053659,-0.030108,0.000010,0.000000,0.000000,0.000000,0
576086315988529,-6.801300,-0.466702,6.769359,1.100779,-0.000023,0.000003,0.000000,0.000000,0.000000,0.000000,0.000000,0.000000,-0.000000,-0.000000,0.002377,0.002848,-0.004746,0.000000,-0.000000,27.332378,4.951392,0.053665,-0.030098,0.000010,0.000000,0.000000,0.000000,0
576086316986413,-6.801299,-0.466703,6.769357,1.100776,-0.000022,0.000001,0.000000,0.000000,0.000000,0.000000,0.000000,0.000000,-0.000000,-0.000000,0.000000,-0.002848,-0.000000,0.000000,-0.000000,27.332460,4.951438,0.053659,-0.030098,0.000010,0.000000,0.000000,0.000000,0
576086317985451,-6.801300,-0.466702,6.769358,1.100776,-0.000022,0.000001,0.000000,0.000000,0.000000,0.000000,0.000000,0.000000,-0.000000,0.002377,0.000000,-0.000000,-0.000000,0.000000,0.000000,27.332388,4.951401,0.053663,-0.030100,0.000010,0.000000,0.000000,0.000000,0
576086318989400,-6.801300,-0.466703,6.769361,1.100776,-0.000024,0.000001,0.000000,0.000000,0.000000,0.000000,0.000000,0.000000,-0.000000,-0.000000,0.002377,-0.000000,-0.000000,0.000000,0.000000,27.332388,4.951366,0.053667,-0.030096,0.000010,0.000000,0.000000,0.000000,0
576086319987860,-6.801298,-0.466701,6.769357,1.100777,-0.000022,0.000003,0.000000,0.000000,0.000000,0.000000,0.000000,0.000000,-0.000000,-0.000000,-0.002377,-0.000000,-0.000000,0.000000,-0.000000,27.332374,4.951422,0.053661,-0.030099,0.000010,0.000000,0.000000,0.000000,0
576086320988319,-6.801298,-0.466703,6.769359,1.100776,-0.000018,0.000001,0.000000,0.000000,0.000000,0.000000,0.000000,0.000000,-0.000000,-0.000000,0.002377,-0.000000,0.003797,0.000000,-0.000000,27.332415,4.951393,0.053663,-0.030111,0.000010,0.000000,0.000000,0.000000,0
576086321987548,-6.801298,-0.466702,6.769358,1.100776,-0.000021,0.000001,0.000000,0.000000,0.000000,0.000000,0.000000,0.000000,-0.000000,-0.000000,0.000000,-0.000000,-0.000000,0.000000,0.000000,27.332384,4.951397,0.053663,-0.030102,0.000010,0.000000,0.000000,0.000000,0
576086322967719,-6.801300,-0.466702,6.769358,1.100776,-0.000023,0.000001,0.000000,0.000000,0.000000,0.000000,0.000000,0.000000,-0.002377,-0.000000,0.000000,-0.000000,-0.000000,0.000000,-0.000000,27.332389,4.951402,0.053663,-0.030097,0.000010,0.000000,0.000000,0.000000,0
576086323962301,-6.801299,-0.466701,6.769357,1.100776,-0.000022,0.000001,0.000000,0.000000,0.000000,0.000000,0.000000,0.000000,-0.000000,-0.000000,0.000000,-0.000000,-0.000000,0.000000,-0.000000,27.332371,4.951420,0.053661,-0.030099,0.000010,0.000000,0.000000,0.000000,0
576086324962233,-6.801299,-0.466702,6.769359,1.100777,-0.000024,0.000001,0.000000,0.000000,0.000000,0.000000,0.000000,0.000000,-0.000000,-0.000000,0.000000,-0.000000,-0.000000,0.000000,-0.000000,27.332374,4.951388,0.053665,-0.030095,0.000010,0.000000,0.000000,0.000000,0
576086325989592,-6.801299,-0.466703,6.769358,1.100780,-0.000020,0.000001,0.000000,0.000000,0.000000,0.000000,0.000000,0.000000,-0.000000,-0.002377,0.000000,0.003797,-0.000000,0.000000,-0.000000,27.332449,4.951428,0.053661,-0.030104,0.000010,0.000000,0.000000,0.000000,0
576086326975224,-6.801298,-0.466702,6.769357,1.100776,-0.000022,-0.000001,0.000000,0.000000,0.000000,0.000000,0.000000,0.000000,-0.000000,-0.000000,0.000000,-0.003797,-0.000000,0.000000,-0.000000,27.332406,4.951420,0.053661,-0.030099,0.000010,0.000000,0.000000,0.000000,0
576086327985615,-6.801299,-0.466704,6.769358,1.100776,-0.000022,0.000001,0.000000,0.000000,0.000000,0.000000,0.000000,0.000000,-0.000000,-0.002377,0.000000,-0.000000,-0.000000,0.000000,-0.000000,27.332549,4.951457,0.053656,-0.030097,0.000010,0.000000,0.000000,0.000000,0
576086329053344,-6.801299,-0.466702,6.769358,1.100776,-0.000023,0.000000,-6.801498,-0.466723,6.769377,1.100976,-0.000018,-0.000200,-0.000000,-0.000000,0.000000,-0.000000,-0.003797,-0.003797,-16.922693,28.016309,5.019135,-2.952966,1.142335,-0.009074,0.265064,-0.250528,1.282443,4
576086330014197,-6.801299,-0.466701,6.769359,1.100776,-0.000021,0.000002,-6.801698,-0.466745,6.769396,1.101176,-0.000014,-0.000400,-0.002377,-0.000000,0.000000,-0.000000,0.004746,0.000000,-16.861926,27.912178,4.979060,-2.934066,1.128621,-0.009059,0.265062,-0.250528,1.282443,4
576086331016160,-6.801298,-0.466703,6.769359,1.100776,-0.000020,0.000001,-6.801897,-0.466766,6.769415,1.101376,-0.000009,-0.000600,-0.000000,-0.000000,0.000000,-0.000000,-0.000000,-0.002848,-17.253569,28.024855,5.016848,-3.010494,1.161844,-0.009258,0.265064,-0.250529,1.282443,4
576086332020643,-6.801300,-0.466703,6.769359,1.100777,-0.000020,-0.000001,-6.802096,-0.466787,6.769433,1.101576,-0.000005,-0.000800,-0.000000,-0.000000,0.000000,-0.000000,-0.000000,-0.003797,-17.419623,28.030984,5.017307,-3.039975,1.173312,-0.009342,0.265063,-0.250529,1.282443,4
576086333015952,-6.801299,-0.466703,6.769358,1.100775,-0.000020,0.000002,-6.802296,-0.466809,6.769452,1.101776,-0.000000,-0.001000,-0.000000,-0.000000,0.000000,-0.000000,-0.000000,0.000000,-17.587766,28.038683,5.018394,-3.069854,1.184944,-0.009455,0.265064,-0.250529,1.282443,4
576086334022724,-6.801300,-0.466700,6.769359,1.100777,-0.000023,0.000003,-6.802495,-0.466830,6.769471,1.101976,0.000004,-0.001200,-0.000000,0.002377,0.000000,0.002848,-0.002848,0.000000,-17.702948,27.201164,4.712056,-3.076110,1.182841,-0.009574,0.265062,-0.250527,1.282444,4
576086335019324,-6.801303,-0.466700,6.769359,1.100774,-0.000025,0.000003,-6.802694,-0.466851,6.769490,1.102176,0.000009,-0.001400,-0.003169,0.002377,0.000000,-0.003797,-0.000000,0.000000,-17.543853,27.051397,4.655317,-3.029211,1.163845,-0.009414,0.265061,-0.250528,1.282443,4
576086336018784,-6.801306,-0.466703,6.769360,1.100774,-0.000021,0.000001,-6.802894,-0.466873,6.769508,1.102376,0.000013,-0.001600,-0.003169,-0.000000,0.000000,-0.000000,0.003797,0.000000,-17.788914,27.926624,4.975016,-3.097176,1.192865,-0.009554,0.265061,-0.250531,1.282443,4
576086337051004,-6.801312,-0.466701,6.769358,1.100772,-0.000020,0.000000,-6.803093,-0.466894,6.769527,1.102576,0.000018,-0.001800,-0.005546,-0.000000,0.000000,-0.000000,-0.000000,0.000000,-17.738568,27.843197,4.948289,-3.084088,1.190710,-0.009519,0.265059,-0.250532,1.282443,4
576086337967876,-6.801319,-0.466702,6.769360,1.100770,-0.000018,0.000000,-6.803292,-0.466916,6.769546,1.102776,0.000022,-0.002000,-0.007131,-0.000000,0.000000,-0.000000,-0.000000,0.000000,-17.754275,27.788163,4.928637,-3.083228,1.190437,-0.009522,0.265056,-0.250534,1.282443,4
576086339043382,-6.801325,-0.466701,6.769359,1.100767,-0.000018,0.000001,-6.803491,-0.466937,6.769565,1.102976,0.000027,-0.002200,-0.006339,-0.000000,0.000000,-0.002848,-0.000000,0.000000,-17.973792,27.807070,4.931113,-3.119112,1.204872,-0.009614,0.265054,-0.250536,1.282443,4
576086340015219,-6.801335,-0.466701,6.769359,1.100765,-0.000012,-0.000001,-6.803691,-0.466958,6.769584,1.103176,0.000031,-0.002400,-0.007131,-0.000000,0.002377,-0.000000,0.003797,-0.002848,-18.052323,27.576101,4.815431,-3.126544,1.201213,-0.009671,0.265050,-0.250540,1.282443,4
576086341050628,-6.801342,-0.466702,6.769358,1.100763,-0.000011,0.000002,-6.803890,-0.466980,6.769602,1.103376,0.000036,-0.002600,-0.008716,-0.000000,0.000000,-0.000000,0.002848,0.000000,-18.084240,27.733727,4.905094,-3.136784,1.209187,-0.009695,0.265049,-0.250542,1.282443,4
576086342050305,-6.801353,-0.466703,6.769358,1.100762,-0.000011,0.000000,-6.804089,-0.467001,6.769621,1.103576,0.000040,-0.002800,-0.010300,-0.002377,0.000000,-0.000000,-0.000000,0.000000,-18.167622,28.536175,5.201543,-3.168415,1.229838,-0.009704,0.265047,-0.250546,1.282442,4
576086343040096,-6.801363,-0.466701,6.769359,1.100758,-0.000007,0.000000,-6.804288,-0.467022,6.769640,1.103776,0.000045,-0.003000,-0.010300,-0.000000,0.000000,-0.000000,0.004746,0.000000,-18.250042,27.670032,4.879985,-3.161438,1.217361,-0.009779,0.265041,-0.250548,1.282443,4
576086344014949,-6.801372,-0.466703,6.769359,1.100758,-0.000005,0.000003,-6.804487,-0.467044,6.769659,1.103976,0.000049,-0.003200,-0.010300,-0.003169,0.000000,-0.000000,-0.000000,0.003797,-18.504866,28.823903,5.303665,-3.234237,1.257402,-0.009897,0.265040,-0.250552,1.282443,4
576086344966570,-6.801384,-0.466702,6.769360,1.100758,-0.000001,0.000002,-6.804687,-0.467065,6.769678,1.104176,0.000054,-0.003400,-0.011885,-0.000000,0.000000,-0.000000,0.003797,0.000000,-18.419836,27.618067,4.860447,-3.187957,1.228427,-0.009864,0.265035,-0.250555,1.282443,4
576086346015413,-6.801394,-0.466701,6.769358,1.100756,0.000002,0.000001,-6.804886,-0.467087,6.769696,1.104376,0.000058,-0.003600,-0.010300,-0.000000,0.000000,-0.002848,0.002848,0.000000,-18.708667,27.667714,4.873575,-3.238106,1.249070,-0.009996,0.265031,-0.250558,1.282443,4
576086346969885,-6.801406,-0.466703,6.769359,1.100755,0.000003,0.000000,-6.805085,-0.467108,6.769715,1.104576,0.000063,-0.003800,-0.012678,-0.000000,0.000000,-0.003797,-0.000000,0.000000,-18.647453,27.589317,4.847492,-3.221370,1.245040,-0.009945,0.265030,-0.250563,1.282442,4
576086348018099,-6.801420,-0.466703,6.769360,1.100755,0.000005,0.000002,-6.805284,-0.467129,6.769734,1.104776,0.000067,-0.004000,-0.014262,-0.000000,0.002377,-0.000000,-0.000000,0.000000,-18.658828,27.334458,4.726396,-3.217809,1.239813,-0.009989,0.265025,-0.250566,1.282443,4
576086349021784,-6.801434,-0.466701,6.769359,1.100751,0.000009,0.000001,-6.805483,-0.467151,6.769753,1.104976,0.000072,-0.004200,-0.015847,-0.000000,0.000000,-0.000000,0.002848,0.002848,-18.677083,27.471793,4.807123,-3.223920,1.243241,-0.010005,0.265019,-0.250570,1.282443,4
576086350035325,-6.801447,-0.466702,6.769358,1.100749,0.000008,0.000002,-6.805682,-0.467172,6.769772,1.105176,0.000076,-0.004400,-0.016639,-0.000000,0.000000,-0.003797,-0.000000,0.000000,-18.744897,27.435463,4.792642,-3.228821,1.248075,-0.009984,0.265017,-0.250574,1.282443,4
576086351046182,-6.801462,-0.466701,6.769361,1.100750,0.000011,0.000001,-6.805881,-0.467193,6.769790,1.105376,0.000081,-0.004600,-0.013470,-0.000000,0.003169,-0.000000,0.003797,0.000000,-19.178359,27.281823,4.689191,-3.306595,1.270306,-0.010272,0.265011,-0.250577,1.282443,4
576086351964743,-6.801479,-0.466699,6.769360,1.100748,0.000015,-0.000001,-6.806080,-0.467215,6.769809,1.105576,0.000085,-0.004800,-0.017432,-0.000000,0.000000,-0.000000,0.003797,0.000000,-18.985640,27.402795,4.779114,-3.273572,1.261823,-0.010149,0.265004,-0.250582,1.282444,4
576086353033447,-6.801496,-0.466701,6.769359,1.100744,0.000015,0.000001,-6.806279,-0.467236,6.769828,1.105776,0.000090,-0.005000,-0.017432,-0.000000,0.000000,-0.003797,-0.000000,0.000000,-19.122872,27.399646,4.776030,-3.292785,1.272913,-0.010183,0.265001,-0.250588,1.282443,4
576086354028333,-6.801516,-0.466701,6.769357,1.100743,0.000020,0.000005,-6.806478,-0.467258,6.769847,1.105976,0.000094,-0.005200,-0.019016,-0.000000,0.000000,-0.000000,0.004746,0.003797,-19.137284,27.347004,4.758090,-3.295990,1.269964,-0.010247,0.264996,-0.250594,1.282443,4
576086355026204,-6.801531,-0.466702,6.769357,1.100743,0.000018,0.000002,-6.806677,-0.467279,6.769866,1.106176,0.000098,-0.005400,-0.019016,-0.000000,0.000000,-0.000000,0.003797,0.000000,-19.290543,27.352407,4.758909,-3.323210,1.281326,-0.010306,0.264993,-0.250598,1.282443,4
576086356027832,-6.801551,-0.466702,6.769357,1.100743,0.000022,0.000003,-6.806876,-0.467300,6.769884,1.106376,0.000103,-0.005600,-0.019016,-0.000000,0.000000,-0.000000,0.002848,0.000000,-19.437676,27.351802,4.757654,-3.349128,1.292091,-0.010384,0.264987,-0.250604,1.282443,4
576086356980700,-6.801573,-0.466701,6.769356,1.100740,0.000023,0.000003,-6.807075,-0.467322,6.769903,1.106576,0.000107,-0.005800,-0.021393,-0.000000,0.000000,-0.002848,-0.000000,0.000000,-19.356534,27.250461,4.722621,-3.325342,1.285614,-0.010304,0.264982,-0.250610,1.282443,4
576086357963957,-6.801595,-0.466702,6.769358,1.100738,0.000025,0.000002,-6.807274,-0.467343,6.769922,1.106776,0.000112,-0.006000,-0.022186,-0.000000,0.002377,-0.000000,-0.000000,0.000000,-19.426763,27.022397,4.609470,-3.332251,1.284624,-0.010372,0.264975,-0.250616,1.282443,4
576086358963583,-6.801615,-0.466703,6.769355,1.100738,0.000027,0.000001,-6.807473,-0.467365,6.769941,1.106976,0.000116,-0.006200,-0.019809,-0.000000,-0.003169,-0.000000,-0.000000,0.000000,-19.824889,27.602918,4.888955,-3.425987,1.328461,-0.010579,0.264972,-0.250623,1.282442,4
576086360014832,-6.801636,-0.466703,6.769357,1.100736,0.000027,0.000001,-6.807672,-0.467386,6.769960,1.107176,0.000121,-0.006400,-0.022978,-0.000000,0.000000,-0.002848,-0.000000,0.000000,-19.648125,27.188425,4.697873,-3.372117,1.303925,-0.010453,0.264965,-0.250629,1.282442,4
576086361031058,-6.801658,-0.466704,6.769357,1.100735,0.000029,0.000001,-6.807871,-0.467407,6.769979,1.107376,0.000125,-0.006600,-0.022186,-0.000000,0.000000,-0.000000,0.002848,0.000000,-19.874243,27.228802,4.710400,-3.417173,1.318792,-0.010605,0.264960,-0.250636,1.282442,4
576086362014020,-6.801682,-0.466702,6.769355,1.100730,0.000028,0.000001,-6.808069,-0.467429,6.769997,1.107576,0.000130,-0.006800,-0.023770,0.002377,0.000000,-0.004746,-0.000000,0.000000,-19.785318,26.289898,4.365821,-3.370913,1.297760,-0.010533,0.264953,-0.250642,1.282442,4
576086363013111,-6.801708,-0.466703,6.769357,1.100727,0.000029,0.000002,-6.808268,-0.467450,6.770016,1.107776,0.000134,-0.007000,-0.025355,-0.000000,0.000000,-0.004746,-0.000000,0.000000,-19.848658,27.078548,4.656009,-3.397558,1.314306,-0.010532,0.264945,-0.250649,1.282442,4
576086364015054,-6.801733,-0.466700,6.769357,1.100725,0.000029,0.000002,-6.808467,-0.467471,6.770035,1.107976,0.000138,-0.007200,-0.023770,0.002377,0.000000,-0.004746,-0.000000,0.000000,-20.065500,26.272173,4.356191,-3.419072,1.316425,-0.010682,0.264936,-0.250654,1.282443,4
576086365014598,-6.801758,-0.466699,6.769357,1.100727,0.000033,0.000001,-6.808665,-0.467493,6.770054,1.108176,0.000143,-0.007400,-0.025355,0.002377,0.000000,-0.000000,0.003797,0.000000,-20.078452,26.218141,4.338564,-3.423600,1.314498,-0.010732,0.264929,-0.250661,1.282443,4
576086366017277,-6.801786,-0.466703,6.769357,1.100724,0.000032,0.000000,-6.808864,-0.467514,6.770073,1.108376,0.000147,-0.007600,-0.027732,-0.003169,0.000000,-0.002848,-0.000000,0.000000,-20.151691,28.118988,5.038405,-3.473315,1.351708,-0.010665,0.264925,-0.250670,1.282442,4
576086367016868,-6.801813,-0.466702,6.769357,1.100724,0.000031,0.000000,-6.809063,-0.467536,6.770092,1.108576,0.000152,-0.007800,-0.027732,-0.000000,0.000000,-0.000000,-0.000000,0.000000,-20.212071,26.986468,4.623085,-3.461764,1.338543,-0.010764,0.264917,-0.250677,1.282443,4
576086368034501,-6.801844,-0.466702,6.769357,1.100725,0.000032,0.000002,-6.809261,-0.467557,6.770110,1.108776,0.000156,-0.008000,-0.030109,-0.000000,0.000000,-0.000000,-0.000000,0.000000,-20.131473,26.891049,4.590661,-3.441587,1.330826,-0.010713,0.264910,-0.250685,1.282442,4
576086369033293,-6.801874,-0.466703,6.769357,1.100724,0.000034,0.000001,-6.809460,-0.467578,6.770129,1.108976,0.000161,-0.008200,-0.030901,-0.000000,0.000000,-0.000000,-0.000000,0.000000,-20.194632,26.859889,4.579081,-3.450397,1.334326,-0.010743,0.264903,-0.250694,1.282442,4
576086370040034,-6.801904,-0.466704,6.769356,1.100722,0.000033,0.000001,-6.809658,-0.467600,6.770148,1.109176,0.000165,-0.008400,-0.029317,-0.000000,0.000000,-0.000000,-0.000000,0.000000,-20.475787,26.918651,4.597081,-3.503132,1.354844,-0.010897,0.264897,-0.250703,1.282441,4
576086371035487,-6.801937,-0.466702,6.769357,1.100722,0.000034,0.000002,-6.809857,-0.467621,6.770167,1.109376,0.000169,-0.008600,-0.030901,-0.000000,0.000000,-0.000000,-0.000000,0.000000,-20.462724,26.840494,4.569556,-3.496293,1.352184,-0.010885,0.264886,-0.250710,1.282442,4
576086372035701,-6.801970,-0.466704,6.769355,1.100720,0.000040,0.000002,-6.810055,-0.467642,6.770186,1.109576,0.000174,-0.008800,-0.033279,-0.002377,0.000000,-0.000000,0.002848,0.000000,-20.443583,27.600102,4.849766,-3.505715,1.359997,-0.010837,0.264879,-0.250722,1.282441,4
576086373018494,-6.802004,-0.466704,6.769357,1.100719,0.000037,-0.000001,-6.810253,-0.467664,6.770204,1.109776,0.000178,-0.009000,-0.033279,-0.000000,0.000000,-0.000000,-0.000000,-0.002848,-20.511456,26.744554,4.535631,-3.498259,1.353154,-0.010885,0.264870,-0.250730,1.282442,4
576086374003740,-6.802037,-0.466702,6.769357,1.100722,0.000038,0.000000,-6.810452,-0.467685,6.770223,1.109976,0.000183,-0.009200,-0.033279,0.002377,0.000000,0.002848,-0.000000,0.000000,-20.588040,25.887085,4.221350,-3.495871,1.345511,-0.011000,0.264859,-0.250737,1.282442,4
576086375013858,-6.802071,-0.466702,6.769356,1.100720,0.000039,0.000003,-6.810650,-0.467707,6.770242,1.110176,0.000187,-0.009400,-0.034071,-0.000000,0.000000,-0.000000,-0.000000,0.002848,-20.702102,26.689833,4.514509,-3.528561,1.364926,-0.011016,0.264851,-0.250747,1.282442,4
576086376024257,-6.802105,-0.466705,6.769355,1.100719,0.000037,0.000000,-6.810848,-0.467728,6.770261,1.110376,0.000192,-0.009600,-0.034071,-0.000000,0.000000,-0.000000,-0.000000,0.000000,-20.834749,26.695549,4.515497,-3.551553,1.374027,-0.011069,0.264846,-0.250757,1.282441,4
576086377030483,-6.802141,-0.466703,6.769357,1.100719,0.000042,0.000000,-6.811046,-0.467749,6.770280,1.110576,0.000196,-0.009800,-0.036448,0.002377,0.000000,-0.000000,0.002848,0.000000,-20.674099,25.727667,4.161567,-3.496162,1.344218,-0.011005,0.264833,-0.250766,1.282442,4
576086378037561,-6.802176,-0.466702,6.769356,1.100716,0.000039,0.000002,-6.811244,-0.467771,6.770299,1.110776,0.000200,-0.010000,-0.034863,-0.000000,0.000000,-0.003797,-0.000000,0.000000,-21.002605,26.617327,4.483426,-3.571359,1.382377,-0.011118,0.264824,-0.250775,1.282442,4
576086379021821,-6.802216,-0.466702,6.769355,1.100717,0.000041,0.000002,-6.811442,-0.467792,6.770317,1.110976,0.000205,-0.010200,-0.039617,-0.000000,-0.002377,-0.000000,-0.000000,0.000000,-20.727455,26.652913,4.535622,-3.525138,1.367137,-0.010987,0.264814,-0.250786,1.282442,4
576086380024925,-6.802257,-0.466702,6.769355,1.100718,0.000041,-0.000001,-6.811640,-0.467813,6.770336,1.111176,0.000209,-0.010400,-0.038825,-0.000000,0.000000,-0.000000,-0.000000,-0.002848,-20.908691,26.463394,4.433250,-3.550200,1.373690,-0.011074,0.264804,-0.250797,1.282442,4
576086381007857,-6.802298,-0.466703,6.769357,1.100717,0.000042,0.000000,-6.811838,-0.467835,6.770355,1.111376,0.000214,-0.010600,-0.040410,-0.000000,0.000000,-0.000000,-0.000000,0.000000,-20.889280,26.397372,4.410172,-3.542372,1.370753,-0.011074,0.264794,-0.250808,1.282442,4
576086382021867,-6.802336,-0.466703,6.769355,1.100717,0.000043,0.000004,-6.812036,-0.467856,6.770374,1.111576,0.000218,-0.010800,-0.041994,-0.000000,0.000000,-0.000000,-0.000000,0.000000,-20.871240,26.328852,4.386651,-3.534812,1.367927,-0.011058,0.264785,-0.250819,1.282442,4
576086383021479,-6.802378,-0.466703,6.769356,1.100716,0.000046,0.000002,-6.812234,-0.467878,6.770393,1.111776,0.000223,-0.011000,-0.041994,-0.000000,0.000000,-0.000000,0.002848,0.000000,-20.990051,26.310787,4.377634,-3.553841,1.373175,-0.011121,0.264773,-0.250830,1.282442,4
576086384023350,-6.802423,-0.466703,6.769357,1.100716,0.000045,0.000004,-6.812432,-0.467899,6.770411,1.111976,0.000227,-0.011200,-0.044371,-0.000000,0.000000,-0.000000,-0.000000,0.000000,-20.897554,26.213124,4.345595,-3.532068,1.366980,-0.011062,0.264762,-0.250842,1.282442,4
576086385022144,-6.802468,-0.466705,6.769356,1.100714,0.000046,0.000001,-6.812629,-0.467920,6.770430,1.112176,0.000231,-0.011400,-0.045164,-0.000000,0.000000,-0.000000,-0.000000,0.000000,-20.945376,26.177371,4.332827,-3.537839,1.369344,-0.011083,0.264752,-0.250855,1.282441,4
576086386025149,-6.802512,-0.466703,6.769354,1.100712,0.000048,0.000001,-6.812827,-0.467942,6.770449,1.112376,0.000236,-0.011600,-0.044371,-0.000000,0.000000,-0.000000,0.002848,0.000000,-21.133261,26.184102,4.332075,-3.570723,1.379938,-0.011186,0.264740,-0.250867,1.282441,4
576086387022391,-6.802557,-0.466705,6.769355,1.100712,0.000047,0.000002,-6.813025,-0.467963,6.770468,1.112576,0.000240,-0.011800,-0.045164,-0.000000,0.000000,-0.000000,-0.000000,0.000000,-21.184775,26.152341,4.321740,-3.578078,1.385046,-0.011209,0.264729,-0.250879,1.282441,4
576086388028057,-6.802603,-0.466705,6.769355,1.100712,0.000047,0.000001,-6.813222,-0.467984,6.770487,1.112776,0.000245,-0.012000,-0.045164,-0.000000,0.000000,-0.000000,-0.000000,0.000000,-21.304058,26.139417,4.315989,-3.598123,1.392880,-0.011272,0.264718,-0.250891,1.282441,4
576086389017257,-6.802653,-0.466703,6.769353,1.100710,0.000048,0.000001,-6.813420,-0.468006,6.770505,1.112976,0.000249,-0.012200,-0.049918,-0.000000,0.000000,-0.000000,-0.000000,0.000000,-20.984663,25.939882,4.249571,-3.529719,1.366490,-0.011084,0.264704,-0.250904,1.282441,4
576086390021855,-6.802699,-0.466703,6.769355,1.100709,0.000048,0.000000,-6.813617,-0.468027,6.770524,1.113176,0.000253,-0.012400,-0.046748,-0.000000,0.000000,-0.000000,-0.000000,-0.002848,-21.390227,26.040897,4.280433,-3.607259,1.396486,-0.011294,0.264691,-0.250916,1.282442,4
576086391022430,-6.802754,-0.466705,6.769354,1.100709,0.000049,0.000000,-6.813814,-0.468048,6.770543,1.113376,0.000258,-0.012600,-0.049918,-0.002377,0.000000,-0.000000,-0.000000,-0.002848,-21.279976,26.766435,4.550853,-3.599224,1.399737,-0.011193,0.264680,-0.250932,1.282441,4
576086392002347,-6.802803,-0.466706,6.769354,1.100707,0.000048,0.000001,-6.814012,-0.468070,6.770562,1.113576,0.000262,-0.012800,-0.051502,-0.000000,0.000000,-0.002848,-0.000000,0.000000,-21.169559,25.830769,4.207551,-3.550869,1.375464,-0.011145,0.264668,-0.250946,1.282441,4
576086393012671,-6.802855,-0.466705,6.769353,1.100706,0.000047,0.000000,-6.814209,-0.468091,6.770581,1.113776,0.000267,-0.013000,-0.052295,-0.000000,0.000000,-0.000000,-0.000000,0.000000,-21.221748,25.794832,4.196438,-3.561615,1.379197,-0.011197,0.264655,-0.250959,1.282441,4
576086394023211,-6.802908,-0.466706,6.769354,1.100704,0.000046,0.000001,-6.814406,-0.468113,6.770600,1.113976,0.000271,-0.013200,-0.052295,-0.000000,0.000000,-0.000000,-0.000000,0.000000,-21.333342,25.781142,4.190396,-3.580120,1.386461,-0.011255,0.264642,-0.250973,1.282441,4
576086395023513,-6.802957,-0.466707,6.769353,1.100703,0.000047,0.000001,-6.814603,-0.468134,6.770618,1.114176,0.000276,-0.013400,-0.051502,-0.000000,0.000000,-0.000000,-0.000000,0.000000,-21.520556,25.800062,4.195292,-3.613910,1.399616,-0.011356,0.264630,-0.250987,1.282440,4
576086396005025,-6.803008,-0.466705,6.769356,1.100701,0.000047,0.000000,-6.814800,-0.468155,6.770637,1.114376,0.000280,-0.013600,-0.051502,-0.000000,0.002377,-0.000000,-0.000000,0.000000,-21.616818,25.566909,4.077970,-3.621610,1.399369,-0.011412,0.264614,-0.250999,1.282441,4
576086397006225,-6.803062,-0.466707,6.769353,1.100702,0.000049,0.000001,-6.814997,-0.468177,6.770656,1.114576,0.000284,-0.013800,-0.053879,-0.000000,0.000000,-0.000000,-0.000000,0.000000,-21.526275,25.681498,4.153919,-3.607174,1.397191,-0.011348,0.264604,-0.251016,1.282440,4
576086398017501,-6.803116,-0.466707,6.769353,1.100699,0.000048,0.000000,-6.815194,-0.468198,6.770675,1.114776,0.000289,-0.014000,-0.053879,-0.000000,0.000000,-0.003797,-0.000000,0.000000,-21.617783,25.644657,4.137416,-3.615822,1.401270,-0.011358,0.264590,-0.251030,1.282440,4
576086399015170,-6.803173,-0.466705,6.769354,1.100700,0.000048,0.000003,-6.815390,-0.468219,6.770694,1.114976,0.000293,-0.014200,-0.057049,-0.000000,0.000000,-0.002848,-0.000000,0.000000,-21.438993,25.502975,4.089916,-3.577094,1.386143,-0.011261,0.264573,-0.251044,1.282441,4
576086400004791,-6.803229,-0.466707,6.769353,1.100701,0.000049,0.000002,-6.815587,-0.468241,6.770712,1.115176,0.000298,-0.014400,-0.056257,-0.000000,0.000000,-0.000000,-0.000000,0.000000,-21.632118,25.534577,4.101189,-3.616432,1.400974,-0.011393,0.264561,-0.251060,1.282440,4
576086400963365,-6.803286,-0.466707,6.769352,1.100701,0.000049,0.000002,-6.815784,-0.468262,6.770731,1.115376,0.000302,-0.014600,-0.056257,-0.000000,0.000000,-0.000000,-0.000000,0.000000,-21.739607,25.521442,4.095818,-3.634221,1.407978,-0.011448,0.264548,-0.251075,1.282440,4
576086402003749,-6.803344,-0.466707,6.769353,1.100699,0.000049,0.000002,-6.815980,-0.468283,6.770750,1.115576,0.000306,-0.014800,-0.058634,-0.000000,0.000000,-0.000000,-0.000000,0.000000,-21.626931,25.408671,4.057286,-3.607433,1.397673,-0.011379,0.264532,-0.251091,1.282440,4
576086403016647,-6.803404,-0.466707,6.769350,1.100699,0.000047,-0.000001,-6.816177,-0.468305,6.770769,1.115776,0.000311,-0.015000,-0.059426,-0.000000,-0.002377,-0.000000,-0.003797,-0.002848,-21.678545,25.577626,4.152257,-3.622546,1.409742,-0.011379,0.264519,-0.251107,1.282440,4
576086404011113,-6.803462,-0.466706,6.769352,1.100694,0.000049,0.000001,-6.816373,-0.468326,6.770788,1.115976,0.000315,-0.015200,-0.061803,-0.000000,0.000000,-0.002848,-0.000000,0.000000,-21.533139,25.236018,3.995917,-3.576224,1.386270,-0.011286,0.264502,-0.251122,1.282440,4
576086405011115,-6.803526,-0.466707,6.769353,1.100694,0.000050,0.000003,-6.816569,-0.468347,6.770806,1.116176,0.000320,-0.015400,-0.062595,-0.000000,0.003169,-0.003797,-0.000000,0.002848,-21.535737,24.907538,3.834529,-3.561475,1.376531,-0.011298,0.264486,-0.251139,1.282440,4
576086406004590,-6.803591,-0.466706,6.769351,1.100695,0.000053,0.000002,-6.816765,-0.468369,6.770825,1.116376,0.000324,-0.015600,-0.065765,-0.000000,-0.002377,-0.000000,0.004746,0.000000,-21.389334,25.255475,4.038241,-3.549639,1.375284,-0.011217,0.264469,-0.251157,1.282440,4
576086407014511,-6.803656,-0.466706,6.769353,1.100694,0.000052,0.000002,-6.816961,-0.468390,6.770844,1.116576,0.000328,-0.015800,-0.064972,-0.000000,0.000000,-0.000000,-0.000000,0.000000,-21.550183,25.062572,3.936819,-3.571948,1.384317,-0.011308,0.264452,-0.251174,1.282440,4
576086408016607,-6.803721,-0.466708,6.769352,1.100694,0.000049,-0.000001,-6.817158,-0.468411,6.770863,1.116776,0.000333,-0.016000,-0.064972,-0.002377,0.000000,-0.000000,-0.002848,-0.002848,-21.720755,25.908657,4.247875,-3.621331,1.411948,-0.011349,0.264438,-0.251192,1.282439,4
576086409015561,-6.803787,-0.466707,6.769350,1.100695,0.000054,0.000002,-6.817353,-0.468433,6.770882,1.116976,0.000337,-0.016200,-0.065765,-0.000000,0.000000,-0.000000,0.004746,0.002848,-21.666351,24.985187,3.906793,-3.586128,1.386424,-0.011381,0.264421,-0.251209,1.282440,4
576086410002852,-6.803855,-0.466708,6.769352,1.100693,0.000052,0.000001,-6.817549,-0.468454,6.770900,1.117176,0.000342,-0.016400,-0.067349,-0.000000,0.000000,-0.000000,-0.000000,0.000000,-21.623439,24.916447,3.885202,-3.574977,1.385817,-0.011333,0.264404,-0.251227,1.282439,4
576086410963042,-6.803921,-0.466709,6.769349,1.100692,0.000051,0.000001,-6.817745,-0.468475,6.770919,1.117376,0.000346,-0.016600,-0.066557,-0.000000,0.000000,-0.000000,-0.002848,0.000000,-21.795481,24.934769,3.891638,-3.606643,1.400348,-0.011424,0.264389,-0.251246,1.282439,4
576086412007610,-6.803991,-0.466707,6.769351,1.100691,0.000053,0.000003,-6.817941,-0.468497,6.770938,1.117576,0.000350,-0.016800,-0.069726,-0.000000,0.000000,-0.000000,-0.000000,0.000000,-21.594222,24.777741,3.837008,-3.561078,1.380589,-0.011305,0.264369,-0.251264,1.282439,4
576086413005484,-6.804061,-0.466711,6.769349,1.100692,0.000054,0.000002,-6.818136,-0.468518,6.770957,1.117776,0.000355,-0.017000,-0.069726,-0.003962,0.000000,-0.000000,-0.000000,0.000000,-21.802052,26.191183,4.355232,-3.629233,1.417487,-0.011364,0.264356,-0.251284,1.282438,4
576086414014909,-6.804127,-0.466710,6.769349,1.100693,0.000052,0.000001,-6.818332,-0.468539,6.770976,1.117976,0.000359,-0.017200,-0.070519,-0.000000,0.000000,-0.000000,-0.000000,0.000000,-21.710927,24.713468,3.813896,-3.576940,1.386999,-0.011361,0.264339,-0.251301,1.282438,4
576086415011788,-6.804199,-0.466709,6.769349,1.100692,0.000051,0.000003,-6.818527,-0.468561,6.770994,1.118176,0.000364,-0.017400,-0.070519,-0.000000,0.000000,-0.000000,-0.000000,0.000000,-21.799890,24.684374,3.802590,-3.590776,1.392400,-0.011406,0.264320,-0.251320,1.282439,4
576086416015324,-6.804270,-0.466710,6.769349,1.100693,0.000054,0.000002,-6.818722,-0.468582,6.771013,1.118376,0.000368,-0.017600,-0.070519,-0.000000,0.000000,-0.000000,0.002848,0.000000,-21.887609,24.658411,3.791478,-3.603701,1.395340,-0.011451,0.264302,-0.251339,1.282438,4
576086417014464,-6.804340,-0.466710,6.769348,1.100692,0.000055,0.000001,-6.818918,-0.468603,6.771032,1.118576,0.000372,-0.017800,-0.070519,-0.000000,0.000000,-0.000000,-0.000000,0.000000,-21.982336,24.640042,3.785538,-3.619670,1.403736,-0.011499,0.264285,-0.251358,1.282438,4
576086418013087,-6.804414,-0.466710,6.769348,1.100692,0.000055,-0.000001,-6.819113,-0.468625,6.771051,1.118776,0.000377,-0.018000,-0.073688,-0.000000,0.000000,-0.000000,-0.000000,0.000000,-21.781235,24.494880,3.736779,-3.575206,1.386638,-0.011379,0.264266,-0.251378,1.282438,4
576086419013200,-6.804487,-0.466711,6.769349,1.100689,0.000052,0.000001,-6.819308,-0.468646,6.771069,1.118976,0.000381,-0.018200,-0.072896,-0.000000,0.000000,-0.002848,-0.002848,0.000000,-21.932637,24.497041,3.735185,-3.598352,1.398359,-0.011431,0.264249,-0.251397,1.282438,4
576086420015570,-6.804558,-0.466710,6.769348,1.100689,0.000052,0.000001,-6.819502,-0.468667,6.771088,1.119176,0.000385,-0.018400,-0.071311,-0.000000,0.000000,-0.000000,-0.000000,0.000000,-22.175976,24.537233,3.747571,-3.646769,1.414509,-0.011593,0.264231,-0.251416,1.282438,4
576086421033651,-6.804630,-0.466711,6.769348,1.100688,0.000055,0.000001,-6.819697,-0.468688,6.771107,1.119376,0.000390,-0.018600,-0.072103,-0.000000,0.000000,-0.000000,0.002848,0.000000,-22.189153,24.479709,3.726022,-3.644626,1.411617,-0.011596,0.264213,-0.251436,1.282438,4
576086422019360,-6.804704,-0.466712,6.769347,1.100689,0.000053,0.000002,-6.819892,-0.468710,6.771126,1.119576,0.000394,-0.018800,-0.073688,-0.000000,0.000000,-0.000000,-0.000000,0.000000,-22.136361,24.403704,3.701476,-3.631000,1.408631,-0.011559,0.264196,-0.251456,1.282437,4
576086423013371,-6.804778,-0.466712,6.769347,1.100687,0.000054,0.000003,-6.820087,-0.468731,6.771145,1.119776,0.000399,-0.019000,-0.074480,-0.000000,0.000000,-0.000000,-0.000000,0.000000,-22.150290,24.347387,3.681602,-3.629797,1.408240,-0.011562,0.264177,-0.251476,1.282437,4
576086424036851,-6.804859,-0.466712,6.769345,1.100685,0.000053,0.000001,-6.820281,-0.468752,6.771163,1.119976,0.000403,-0.019200,-0.076065,-0.000000,0.000000,-0.000000,-0.000000,0.000000,-22.085621,24.260308,3.652032,-3.612837,1.401808,-0.011519,0.264157,-0.251498,1.282437,4
576086425034250,-6.804933,-0.466713,6.769345,1.100688,0.000049,0.000000,-6.820475,-0.468774,6.771182,1.120176,0.000407,-0.019400,-0.076858,-0.000000,0.000000,-0.000000,-0.002848,0.000000,-22.104936,24.214281,3.637247,-3.613769,1.404464,-0.011524,0.264141,-0.251517,1.282437,4
576086426026936,-6.805007,-0.466714,6.769345,1.100684,0.000054,0.000001,-6.820670,-0.468795,6.771201,1.120376,0.000412,-0.019600,-0.074480,-0.000000,0.000000,-0.003797,0.004746,0.000000,-22.379794,24.249100,3.640546,-3.657148,1.416242,-0.011640,0.264121,-0.251538,1.282436,4
576086427028527,-6.805088,-0.466715,6.769344,1.100683,0.000054,0.000001,-6.820864,-0.468816,6.771220,1.120576,0.000416,-0.019800,-0.077650,-0.002377,0.000000,-0.000000,-0.000000,0.000000,-22.263273,24.985266,3.919461,-3.654908,1.424637,-0.011571,0.264102,-0.251560,1.282436,4
576086428034313,-6.805171,-0.466715,6.769344,1.100682,0.000051,0.000000,-6.821058,-0.468837,6.771239,1.120776,0.000421,-0.020000,-0.082404,-0.000000,0.000000,-0.000000,-0.002848,0.000000,-21.843254,23.930291,3.540762,-3.549289,1.379871,-0.011357,0.264082,-0.251582,1.282436,4
576086429035371,-6.805251,-0.466715,6.769345,1.100682,0.000054,0.000002,-6.821252,-0.468859,6.771257,1.120976,0.000425,-0.020200,-0.080027,-0.000000,0.000000,-0.000000,0.002848,0.000000,-22.131934,23.978996,3.552057,-3.601665,1.395866,-0.011518,0.264061,-0.251603,1.282436,4
576086430044748,-6.805333,-0.466716,6.769344,1.100681,0.000056,0.000000,-6.821446,-0.468880,6.771276,1.121176,0.000429,-0.020400,-0.082404,-0.000000,0.000000,-0.000000,-0.000000,0.000000,-21.996958,23.868918,3.516421,-3.571447,1.386433,-0.011435,0.264041,-0.251626,1.282435,4
576086431032565,-6.805411,-0.466718,6.769344,1.100679,0.000053,-0.000001,-6.821639,-0.468901,6.771295,1.121376,0.000434,-0.020600,-0.077650,-0.000000,0.000000,-0.000000,-0.002848,0.000000,-22.516551,24.031794,3.569521,-3.673055,1.427996,-0.011724,0.264023,-0.251647,1.282435,4
576086432033310,-6.805495,-0.466719,6.769342,1.100680,0.000056,0.000003,-6.821833,-0.468923,6.771314,1.121576,0.000438,-0.020800,-0.083989,-0.000000,0.000000,-0.000000,0.002848,0.003797,-22.008085,23.759841,3.477275,-3.565203,1.382161,-0.011453,0.264003,-0.251671,1.282434,4
576086433016049,-6.805576,-0.466718,6.769343,1.100682,0.000056,0.000000,-6.822027,-0.468944,6.771332,1.121776,0.000442,-0.021000,-0.081612,-0.000000,0.000000,0.002848,-0.000000,-0.002848,-22.319262,23.833461,3.502930,-3.628923,1.408477,-0.011613,0.263982,-0.251691,1.282434,4
576086434014617,-6.805662,-0.466718,6.769344,1.100682,0.000055,-0.000001,-6.822220,-0.468965,6.771351,1.121976,0.000447,-0.021200,-0.085573,-0.000000,0.000000,-0.000000,-0.000000,0.000000,-22.018666,23.636741,3.435019,-3.560103,1.382434,-0.011425,0.263960,-0.251713,1.282435,4
576086435020810,-6.805745,-0.466718,6.769342,1.100681,0.000056,0.000001,-6.822413,-0.468986,6.771370,1.122176,0.000451,-0.021400,-0.083196,-0.000000,0.000000,-0.000000,-0.000000,0.000000,-22.311598,23.700386,3.454609,-3.615195,1.403846,-0.011587,0.263940,-0.251736,1.282434,4
576086436031631,-6.805825,-0.466719,6.769342,1.100679,0.000058,0.000001,-6.822606,-0.469008,6.771389,1.122376,0.000456,-0.021600,-0.083989,-0.000000,0.000000,-0.000000,-0.000000,0.000000,-22.318819,23.644475,3.435005,-3.612704,1.402973,-0.011585,0.263920,-0.251758,1.282434,4
576086436964215,-6.805909,-0.466719,6.769342,1.100679,0.000058,0.000000,-6.822799,-0.469029,6.771407,1.122576,0.000460,-0.021800,-0.083989,-0.000000,0.000000,-0.000000,-0.000000,0.000000,-22.393899,23.613662,3.423441,-3.623851,1.407362,-0.011622,0.263898,-0.251780,1.282434,4
576086438018396,-6.805998,-0.466719,6.769344,1.100681,0.000059,0.000003,-6.822992,-0.469050,6.771426,1.122776,0.000464,-0.022000,-0.088743,-0.000000,0.000000,-0.000000,-0.000000,0.002848,-22.030907,23.400455,3.352262,-3.546786,1.377623,-0.011427,0.263875,-0.251803,1.282434,4
576086439012693,-6.806088,-0.466719,6.769342,1.100682,0.000058,0.000000,-6.823185,-0.469071,6.771445,1.122976,0.000469,-0.022200,-0.087158,-0.000000,-0.002377,-0.000000,-0.000000,0.000000,-22.258895,23.637330,3.467432,-3.596287,1.400113,-0.011529,0.263854,-0.251828,1.282434,4
576086440015397,-6.806169,-0.466722,6.769341,1.100680,0.000059,0.000001,-6.823378,-0.469093,6.771464,1.123176,0.000473,-0.022400,-0.089535,-0.000000,0.000000,-0.000000,-0.000000,0.000000,-22.106335,23.320385,3.324155,-3.554312,1.380829,-0.011442,0.263836,-0.251851,1.282433,4
576086441023757,-6.806260,-0.466721,6.769341,1.100682,0.000058,0.000002,-6.823571,-0.469114,6.771482,1.123376,0.000477,-0.022600,-0.087950,-0.000000,0.000000,-0.000000,-0.000000,0.003797,-22.317845,23.342903,3.329818,-3.592917,1.395803,-0.011579,0.263813,-0.251874,1.282433,4
576086442016473,-6.806350,-0.466721,6.769342,1.100679,0.000058,0.000002,-6.823763,-0.469135,6.771501,1.123576,0.000482,-0.022800,-0.089535,-0.000000,0.000000,-0.002848,-0.000000,0.000000,-22.228705,23.235857,3.291032,-3.566623,1.386210,-0.011473,0.263789,-0.251897,1.282433,4
576086443044340,-6.806441,-0.466722,6.769342,1.100678,0.000057,0.000002,-6.823955,-0.469156,6.771520,1.123776,0.000486,-0.023000,-0.091120,-0.000000,0.000000,-0.000000,-0.000000,0.000000,-22.164835,23.158672,3.266760,-3.554137,1.381019,-0.011459,0.263767,-0.251922,1.282433,4
576086444017455,-6.806532,-0.466722,6.769339,1.100679,0.000059,0.000001,-6.824148,-0.469178,6.771539,1.123976,0.000490,-0.023200,-0.091120,-0.000000,0.000000,-0.000000,-0.000000,0.000000,-22.232126,23.126917,3.255373,-3.563811,1.384858,-0.011492,0.263745,-0.251947,1.282433,4
576086445017414,-6.806622,-0.466721,6.769339,1.100678,0.000058,0.000001,-6.824340,-0.469199,6.771557,1.124176,0.000495,-0.023400,-0.090327,-0.000000,0.000000,-0.000000,-0.000000,0.000000,-22.371521,23.119688,3.251339,-3.587833,1.394209,-0.011566,0.263722,-0.251970,1.282433,4
576086446018679,-6.806719,-0.466722,6.769339,1.100677,0.000061,0.000002,-6.824532,-0.469220,6.771576,1.124376,0.000499,-0.023600,-0.091120,-0.000000,0.000000,-0.002848,0.002848,0.000000,-22.343955,23.041838,3.221232,-3.573298,1.387054,-0.011518,0.263698,-0.251997,1.282432,4
576086447013775,-6.806810,-0.466722,6.769339,1.100678,0.000059,0.000003,-6.824724,-0.469241,6.771595,1.124576,0.000504,-0.023800,-0.094289,0.002377,0.000000,-0.000000,-0.000000,0.000000,-22.069999,22.051393,2.865503,-3.501313,1.354742,-0.011415,0.263675,-0.252020,1.282433,4
576086448016014,-6.806907,-0.466722,6.769338,1.100679,0.000060,0.000001,-6.824915,-0.469263,6.771614,1.124776,0.000508,-0.024000,-0.097458,-0.000000,0.000000,-0.000000,-0.000000,0.000000,-21.910239,22.751276,3.127335,-3.483235,1.354085,-0.011286,0.263651,-0.252047,1.282432,4
576086449014900,-6.807001,-0.466725,6.769338,1.100677,0.000058,0.000003,-6.825107,-0.469284,6.771632,1.124976,0.000512,-0.024200,-0.093497,-0.002377,0.000000,-0.000000,-0.000000,0.000000,-22.404429,23.727134,3.479156,-3.596897,1.404412,-0.011530,0.263630,-0.252073,1.282431,4
576086450022601,-6.807096,-0.466723,6.769336,1.100677,0.000057,0.000003,-6.825298,-0.469305,6.771651,1.125176,0.000517,-0.024400,-0.095081,-0.000000,0.000000,-0.000000,-0.000000,0.000000,-22.253240,22.775001,3.132549,-3.544486,1.378014,-0.011471,0.263606,-0.252097,1.282432,4
576086451043648,-6.807194,-0.466725,6.769334,1.100676,0.000058,0.000002,-6.825490,-0.469326,6.771670,1.125376,0.000521,-0.024600,-0.098251,-0.000000,0.000000,-0.000000,-0.000000,0.000000,-22.024024,22.626538,3.083299,-3.494542,1.358867,-0.011334,0.263583,-0.252125,1.282431,4
576086452033326,-6.807290,-0.466725,6.769334,1.100677,0.000060,0.000001,-6.825681,-0.469347,6.771689,1.125576,0.000525,-0.024800,-0.095874,-0.000000,0.000000,-0.000000,-0.000000,0.000000,-22.301696,22.679282,3.098923,-3.546482,1.378997,-0.011487,0.263559,-0.252150,1.282431,4
576086453015695,-6.807387,-0.466726,6.769335,1.100675,0.000058,0.000000,-6.825872,-0.469369,6.771707,1.125776,0.000530,-0.025000,-0.096666,-0.000000,0.000000,-0.000000,-0.000000,0.000000,-22.290060,22.618406,3.077674,-3.540249,1.376731,-0.011474,0.263535,-0.252176,1.282430,4
576086454036330,-6.807489,-0.466727,6.769331,1.100675,0.000057,0.000001,-6.826063,-0.469390,6.771726,1.125976,0.000534,-0.025200,-0.096666,-0.000000,0.000000,-0.000000,-0.000000,0.000000,-22.345147,22.586564,3.066692,-3.547587,1.379750,-0.011500,0.263512,-0.252204,1.282429,4
576086455035615,-6.807587,-0.466727,6.769330,1.100675,0.000061,0.000002,-6.826254,-0.469411,6.771745,1.126176,0.000538,-0.025400,-0.098251,-0.000000,-0.002377,-0.000000,0.003797,0.000000,-22.269005,22.691216,3.136665,-3.534643,1.375183,-0.011447,0.263487,-0.252231,1.282429,4
576086456033398,-6.807686,-0.466729,6.769330,1.100675,0.000060,0.000002,-6.826444,-0.469432,6.771764,1.126376,0.000543,-0.025600,-0.102213,-0.000000,0.000000,-0.000000,-0.000000,0.000000,-21.956994,22.310233,2.974177,-3.461665,1.346752,-0.011268,0.263464,-0.252258,1.282429,4
576086457006182,-6.807792,-0.466728,6.769330,1.100676,0.000059,0.000001,-6.826635,-0.469454,6.771782,1.126576,0.000547,-0.025800,-0.103005,-0.000000,0.000000,-0.000000,-0.000000,0.000000,-21.933666,22.236878,2.948812,-3.452991,1.343482,-0.011249,0.263437,-0.252285,1.282429,4
576086458016232,-6.807894,-0.466730,6.769329,1.100676,0.000059,0.000001,-6.826825,-0.469475,6.771801,1.126776,0.000551,-0.026000,-0.101420,-0.002377,0.000000,-0.000000,-0.000000,0.000000,-22.202277,23.119658,3.270385,-3.521267,1.376253,-0.011364,0.263414,-0.252314,1.282428,4
576086459027724,-6.807995,-0.466730,6.769329,1.100673,0.000060,0.000002,-6.827015,-0.469496,6.771820,1.126976,0.000556,-0.026200,-0.101420,-0.000000,0.000000,-0.002848,-0.000000,0.000000,-22.174425,22.212976,2.936273,-3.489377,1.358263,-0.011347,0.263387,-0.252340,1.282428,4
576086460015430,-6.808097,-0.466728,6.769326,1.100675,0.000059,0.000001,-6.827205,-0.469517,6.771839,1.127176,0.000560,-0.026400,-0.105382,0.004754,0.000000,0.003797,-0.000000,0.000000,-21.761014,20.346454,2.261887,-3.376229,1.301018,-0.011235,0.263362,-0.252367,1.282428,4
576086461015805,-6.808197,-0.466732,6.769326,1.100676,0.000060,0.000003,-6.827395,-0.469538,6.771857,1.127376,0.000564,-0.026600,-0.100628,-0.003962,0.000000,-0.000000,-0.000000,0.000000,-22.484998,23.609926,3.449751,-3.578495,1.402856,-0.011487,0.263340,-0.252395,1.282427,4
576086462021060,-6.808304,-0.466730,6.769326,1.100676,0.000059,0.000000,-6.827585,-0.469559,6.771876,1.127576,0.000569,-0.026800,-0.101420,-0.000000,0.000000,-0.000000,-0.000000,0.000000,-22.347040,22.112875,2.901973,-3.516725,1.368666,-0.011457,0.263312,-0.252422,1.282427,4
576086463032465,-6.808407,-0.466731,6.769323,1.100674,0.000061,0.000000,-6.827775,-0.469581,6.771895,1.127776,0.000573,-0.027000,-0.106174,-0.000000,0.000000,-0.000000,-0.000000,-0.002848,-21.965841,21.899655,2.831687,-3.436125,1.337662,-0.011217,0.263287,-0.252451,1.282427,4
576086464033106,-6.808514,-0.466732,6.769320,1.100675,0.000062,0.000000,-6.827964,-0.469602,6.771914,1.127976,0.000577,-0.027200,-0.106174,-0.000000,-0.003169,-0.000000,-0.000000,0.000000,-22.035568,22.142583,2.962190,-3.456382,1.349945,-0.011260,0.263262,-0.252480,1.282426,4
576086465036404,-6.808622,-0.466733,6.769322,1.100675,0.000057,0.000001,-6.828154,-0.469623,6.771932,1.128176,0.000582,-0.027400,-0.108551,-0.000000,0.000000,-0.000000,-0.004746,0.000000,-21.852174,21.747382,2.782159,-3.407046,1.330296,-0.011156,0.263237,-0.252509,1.282426,4
576086466038571,-6.808732,-0.466735,6.769322,1.100674,0.000058,0.000002,-6.828343,-0.469644,6.771951,1.128376,0.000586,-0.027600,-0.108551,-0.000000,0.000000,-0.000000,-0.000000,0.002848,-21.890932,21.701752,2.763688,-3.409576,1.327825,-0.011191,0.263210,-0.252539,1.282425,4
576086467038890,-6.808840,-0.466734,6.769319,1.100673,0.000060,0.000001,-6.828532,-0.469665,6.771970,1.128576,0.000590,-0.027800,-0.107759,-0.000000,-0.003169,-0.000000,-0.000000,0.000000,-22.029896,21.966991,2.901167,-3.443582,1.345377,-0.011240,0.263183,-0.252568,1.282425,4
576086468022640,-6.808950,-0.466735,6.769319,1.100674,0.000059,0.000002,-6.828721,-0.469687,6.771988,1.128776,0.000595,-0.028000,-0.110136,-0.000000,0.000000,-0.000000,-0.000000,0.000000,-21.837916,21.559448,2.714809,-3.391052,1.320873,-0.011133,0.263156,-0.252597,1.282425,4
576086468964038,-6.809058,-0.466737,6.769319,1.100673,0.000060,0.000001,-6.828910,-0.469708,6.772007,1.128976,0.000599,-0.028200,-0.107759,-0.002377,0.000000,-0.000000,-0.000000,0.000000,-22.170560,22.467818,3.044542,-3.472171,1.358588,-0.011284,0.263130,-0.252627,1.282424,4
576086469963310,-6.809167,-0.466739,6.769318,1.100673,0.000058,0.000003,-6.829099,-0.469729,6.772026,1.129176,0.000603,-0.028400,-0.109344,-0.000000,0.000000,-0.000000,-0.000000,0.000000,-22.003226,21.521848,2.700474,-3.416770,1.331139,-0.011216,0.263105,-0.252656,1.282423,4
576086471015058,-6.809278,-0.466737,6.769318,1.100672,0.000058,0.000003,-6.829287,-0.469750,6.772045,1.129376,0.000608,-0.028600,-0.110928,-0.000000,0.000000,-0.000000,-0.000000,0.000000,-21.901118,21.412319,2.663047,-3.392115,1.321651,-0.011152,0.263076,-0.252685,1.282424,4
576086472017910,-6.809380,-0.466738,6.769315,1.100674,0.000060,0.000002,-6.829475,-0.469771,6.772063,1.129576,0.000612,-0.028800,-0.110136,-0.000000,0.000000,-0.000000,-0.000000,0.000000,-22.026807,21.408014,2.660734,-3.413628,1.330089,-0.011218,0.263052,-0.252713,1.282423,4
576086473025686,-6.809489,-0.466742,6.769314,1.100672,0.000060,0.000002,-6.829664,-0.469792,6.772082,1.129776,0.000616,-0.029000,-0.109344,-0.003962,0.000000,-0.000000,-0.000000,0.000000,-22.259472,22.832094,3.182400,-3.486764,1.368958,-0.011291,0.263028,-0.252744,1.282421,4
576086474018051,-6.809608,-0.466741,6.769313,1.100674,0.000060,0.000002,-6.829852,-0.469813,6.772101,1.129976,0.000621,-0.029200,-0.113305,-0.000000,-0.002377,-0.000000,-0.000000,0.002848,-21.833553,21.422723,2.702653,-3.374651,1.318568,-0.011107,0.262998,-0.252775,1.282422,4
576086475018049,-6.809719,-0.466744,6.769315,1.100672,0.000059,0.000000,-6.830040,-0.469835,6.772119,1.130176,0.000625,-0.029400,-0.110928,-0.002377,0.000000,-0.000000,-0.000000,0.000000,-22.146811,22.119605,2.924083,-3.444302,1.348620,-0.011237,0.262971,-0.252805,1.282421,4
576086476024819,-6.809831,-0.466745,6.769312,1.100671,0.000059,0.000003,-6.830227,-0.469856,6.772138,1.130376,0.000629,-0.029600,-0.112513,-0.000000,-0.002377,-0.000000,-0.000000,0.000000,-21.990007,21.377774,2.685626,-3.398450,1.328066,-0.011168,0.262944,-0.252836,1.282420,4
576086477050059,-6.809942,-0.466746,6.769310,1.100672,0.000061,-0.000001,-6.830415,-0.469877,6.772157,1.130576,0.000634,-0.029800,-0.110928,-0.003169,-0.003962,-0.000000,-0.000000,0.000000,-22.279170,22.676794,3.180723,-3.481845,1.370896,-0.011280,0.262919,-0.252867,1.282419,4
576086478028049,-6.810058,-0.466747,6.769311,1.100672,0.000062,0.000001,-6.830602,-0.469898,6.772176,1.130776,0.000638,-0.030000,-0.115682,-0.000000,0.000000,-0.000000,-0.000000,0.000000,-21.766794,20.971976,2.512119,-3.338370,1.301856,-0.011035,0.262889,-0.252897,1.282419,4
576086479031987,-6.810179,-0.466749,6.769310,1.100671,0.000058,0.000001,-6.830790,-0.469919,6.772194,1.130976,0.000642,-0.030200,-0.114890,-0.002377,0.000000,-0.002848,-0.003797,0.000000,-21.931930,21.810712,2.819153,-3.382711,1.328783,-0.011062,0.262862,-0.252930,1.282418,4
576086480036571,-6.810293,-0.466749,6.769310,1.100672,0.000062,0.000000,-6.830977,-0.469940,6.772213,1.131176,0.000647,-0.030400,-0.114098,-0.000000,0.000000,-0.000000,0.003797,0.000000,-21.976543,20.937842,2.496490,-3.371685,1.312108,-0.011145,0.262832,-0.252960,1.282419,4
576086481028672,-6.810410,-0.466752,6.769308,1.100672,0.000060,0.000003,-6.831164,-0.469961,6.772232,1.131376,0.000651,-0.030600,-0.116475,-0.003169,0.000000,-0.000000,-0.000000,0.002848,-21.894099,21.959903,2.877360,-3.376549,1.325369,-0.011064,0.262806,-0.252993,1.282417,4
576086482014578,-6.810526,-0.466753,6.769306,1.100671,0.000059,0.000002,-6.831351,-0.469982,6.772250,1.131576,0.000655,-0.030800,-0.116475,-0.000000,-0.002377,-0.000000,-0.000000,0.000000,-21.854083,20.994901,2.554632,-3.348276,1.309571,-0.011056,0.262779,-0.253025,1.282416,4
576086483044795,-6.810643,-0.466752,6.769306,1.100673,0.000059,-0.000001,-6.831537,-0.470003,6.772269,1.131776,0.000660,-0.031000,-0.116475,-0.000000,0.000000,-0.000000,-0.000000,-0.002848,-21.874110,20.733735,2.428716,-3.340755,1.303469,-0.011052,0.262749,-0.253054,1.282417,4
576086484018427,-6.810759,-0.466754,6.769306,1.100671,0.000060,0.000001,-6.831724,-0.470024,6.772288,1.131976,0.000664,-0.031200,-0.116475,-0.002377,0.000000,-0.000000,-0.000000,0.000000,-21.979054,21.548535,2.728019,-3.376043,1.323477,-0.011090,0.262721,-0.253086,1.282416,4
576086485010908,-6.810876,-0.466755,6.769307,1.100675,0.000059,-0.000002,-6.831910,-0.470046,6.772306,1.132176,0.000668,-0.031400,-0.121229,-0.000000,0.002377,0.003797,-0.000000,0.000000,-21.514711,20.282394,2.242846,-3.258961,1.268210,-0.010895,0.262692,-0.253117,1.282416,4
576086486018992,-6.811001,-0.466755,6.769304,1.100671,0.000056,0.000002,-6.832096,-0.470067,6.772325,1.132376,0.000673,-0.031600,-0.121229,-0.000000,0.000000,-0.000000,-0.002848,0.000000,-21.542126,20.431763,2.328156,-3.263232,1.276067,-0.010861,0.262661,-0.253150,1.282415,4
576086487014243,-6.811116,-0.466756,6.769304,1.100671,0.000059,0.000002,-6.832282,-0.470088,6.772344,1.132576,0.000677,-0.031800,-0.119644,-0.000000,0.000000,-0.000000,0.002848,0.002848,-21.716962,20.441022,2.327088,-3.292877,1.283339,-0.010973,0.262633,-0.253181,1.282415,4
576086488016266,-6.811239,-0.466758,6.769304,1.100669,0.000061,0.000002,-6.832468,-0.470109,6.772362,1.132776,0.000681,-0.032000,-0.123606,-0.000000,0.000000,-0.000000,-0.000000,0.000000,-21.387692,20.254413,2.266540,-3.223581,1.258831,-0.010762,0.262603,-0.253215,1.282414,4
576086489019342,-6.811361,-0.466759,6.769301,1.100672,0.000057,0.000003,-6.832654,-0.470130,6.772381,1.132976,0.000686,-0.032200,-0.122021,-0.000000,-0.002377,0.002848,-0.003797,0.000000,-21.595259,20.499242,2.388562,-3.274539,1.284313,-0.010896,0.262575,-0.253248,1.282414,4
576086490016354,-6.811483,-0.466759,6.769301,1.100671,0.000059,0.000001,-6.832839,-0.470151,6.772400,1.133176,0.000690,-0.032400,-0.122021,-0.000000,0.000000,-0.000000,-0.000000,0.000000,-21.590667,20.222147,2.253754,-3.256744,1.271912,-0.010867,0.262544,-0.253280,1.282414,4
576086490963231,-6.811607,-0.466760,6.769300,1.100669,0.000059,0.000002,-6.833025,-0.470172,6.772418,1.133376,0.000694,-0.032600,-0.123606,-0.000000,0.000000,-0.000000,-0.000000,0.000000,-21.473486,20.116826,2.218249,-3.229267,1.261423,-0.010794,0.262513,-0.253313,1.282413,4
576086492026914,-6.811734,-0.466762,6.769298,1.100672,0.000058,0.000002,-6.833210,-0.470193,6.772437,1.133576,0.000698,-0.032800,-0.126775,-0.002377,-0.002377,0.002848,-0.000000,0.000000,-21.306838,21.031631,2.591871,-3.221807,1.267719,-0.010683,0.262485,-0.253348,1.282412,4
576086493019429,-6.811856,-0.466761,6.769297,1.100670,0.000062,0.000003,-6.833395,-0.470214,6.772456,1.133776,0.000703,-0.033000,-0.122021,-0.000000,0.000000,-0.000000,0.003797,0.000000,-21.665697,20.077956,2.201576,-3.259147,1.270358,-0.010894,0.262453,-0.253381,1.282412,4
576086493965034,-6.811977,-0.466764,6.769297,1.100672,0.000057,0.000002,-6.833580,-0.470235,6.772475,1.133976,0.000707,-0.033200,-0.124398,-0.000000,0.000000,-0.000000,-0.002848,0.000000,-21.488550,19.965653,2.167350,-3.221847,1.261174,-0.010785,0.262426,-0.253413,1.282411,4
576086495036234,-6.812113,-0.466765,6.769296,1.100672,0.000060,0.000001,-6.833764,-0.470256,6.772493,1.134176,0.000711,-0.033400,-0.125191,-0.000000,-0.003169,-0.000000,0.002848,0.000000,-21.442544,20.152276,2.276422,-3.217016,1.259454,-0.010747,0.262392,-0.253450,1.282411,4
576086495964025,-6.812233,-0.466765,6.769295,1.100669,0.000056,0.000003,-6.833949,-0.470277,6.772512,1.134376,0.000716,-0.033600,-0.126775,-0.000000,0.000000,-0.000000,-0.003797,0.000000,-21.317057,19.780051,2.104984,-3.179821,1.245903,-0.010675,0.262363,-0.253482,1.282410,4
576086497028308,-6.812352,-0.466766,6.769293,1.100672,0.000059,0.000001,-6.834133,-0.470298,6.772531,1.134576,0.000720,-0.033800,-0.123606,-0.000000,0.000000,0.003797,-0.000000,0.000000,-21.649108,19.864266,2.132211,-3.247386,1.268594,-0.010897,0.262334,-0.253514,1.282410,4
576086498028467,-6.812493,-0.466768,6.769292,1.100672,0.000058,0.000001,-6.834317,-0.470319,6.772549,1.134776,0.000724,-0.034000,-0.129152,-0.002377,0.000000,0.002848,-0.000000,0.000000,-21.218067,20.458416,2.359403,-3.173473,1.246631,-0.010604,0.262301,-0.253552,1.282409,4
576086499044840,-6.812612,-0.466769,6.769288,1.100672,0.000057,-0.000001,-6.834501,-0.470340,6.772568,1.134976,0.000728,-0.034200,-0.129945,-0.000000,-0.002377,-0.000000,-0.000000,-0.002848,-21.109532,19.730887,2.123690,-3.133127,1.228731,-0.010518,0.262273,-0.253585,1.282408,4
576086500032999,-6.812752,-0.466770,6.769288,1.100672,0.000058,0.000001,-6.834685,-0.470361,6.772587,1.135176,0.000733,-0.034400,-0.129152,-0.000000,0.000000,-0.000000,-0.000000,0.000000,-21.176159,19.499090,2.007868,-3.135193,1.226398,-0.010573,0.262239,-0.253622,1.282408,4
576086501016829,-6.812883,-0.466771,6.769286,1.100668,0.000059,0.000002,-6.834868,-0.470382,6.772605,1.135376,0.000737,-0.034600,-0.130737,-0.000000,0.000000,-0.003797,-0.000000,0.000000,-21.032722,19.377800,1.964684,-3.096817,1.212395,-0.010449,0.262207,-0.253658,1.282407,4
576086502007007,-6.813012,-0.466771,6.769284,1.100673,0.000060,0.000002,-6.835052,-0.470403,6.772624,1.135576,0.000741,-0.034800,-0.129945,-0.000000,0.000000,0.004746,-0.000000,0.000000,-21.163494,19.392901,1.974652,-3.132088,1.224624,-0.010601,0.262175,-0.253692,1.282407,4
576086503016692,-6.813142,-0.466772,6.769283,1.100672,0.000059,0.000000,-6.835235,-0.470424,6.772643,1.135776,0.000746,-0.035000,-0.129945,-0.000000,0.000000,-0.000000,-0.000000,0.000000,-21.160555,19.324104,1.947727,-3.120561,1.221152,-0.010547,0.262144,-0.253727,1.282406,4
576086504015264,-6.813265,-0.466773,6.769282,1.100672,0.000056,0.000000,-6.835418,-0.470445,6.772661,1.135976,0.000750,-0.035200,-0.128360,-0.000000,0.000000,0.003797,-0.002848,0.000000,-21.352357,19.359115,1.962045,-3.161852,1.238738,-0.010687,0.262114,-0.253760,1.282406,4
576086505014781,-6.813399,-0.466774,6.769281,1.100673,0.000058,0.000000,-6.835601,-0.470466,6.772680,1.136176,0.000754,-0.035400,-0.133906,-0.000000,0.000000,-0.000000,-0.000000,0.000000,-20.840352,19.079648,1.865931,-3.048454,1.193565,-0.010354,0.262082,-0.253796,1.282405,4
576086506025262,-6.813529,-0.466775,6.769281,1.100669,0.000056,0.000002,-6.835784,-0.470487,6.772698,1.136376,0.000758,-0.035600,-0.129945,-0.000000,0.000000,-0.003797,-0.000000,0.000000,-21.201768,19.161314,1.888283,-3.111574,1.218758,-0.010517,0.262049,-0.253830,1.282405,4
576086506990923,-6.813664,-0.466774,6.769277,1.100671,0.000058,0.000001,-6.835966,-0.470508,6.772717,1.136576,0.000763,-0.035800,-0.134699,-0.000000,0.000000,-0.000000,-0.000000,0.000000,-20.799258,18.945160,1.819916,-3.032400,1.187608,-0.010319,0.262016,-0.253867,1.282405,4
576086508016155,-6.813798,-0.466778,6.769277,1.100669,0.000056,-0.000001,-6.836149,-0.470529,6.772736,1.136776,0.000767,-0.036000,-0.133906,-0.003962,0.000000,-0.000000,-0.000000,0.000000,-21.001273,20.355559,2.336826,-3.099333,1.224095,-0.010374,0.261986,-0.253904,1.282403,4
576086508963964,-6.813934,-0.466777,6.769273,1.100669,0.000055,-0.000001,-6.836331,-0.470550,6.772754,1.136976,0.000771,-0.036200,-0.131529,-0.000000,-0.002377,-0.002848,-0.000000,-0.002848,-21.115958,19.164682,1.926511,-3.091813,1.214672,-0.010438,0.261952,-0.253940,1.282403,4
576086510039251,-6.814063,-0.466778,6.769271,1.100671,0.000057,0.000001,-6.836513,-0.470571,6.772773,1.137176,0.000776,-0.036400,-0.134699,-0.000000,0.000000,-0.000000,-0.000000,0.000000,-20.844082,18.802407,1.770680,-3.030100,1.187211,-0.010327,0.261921,-0.253975,1.282402,4
576086511042444,-6.814197,-0.466778,6.769269,1.100670,0.000055,0.000001,-6.836694,-0.470592,6.772792,1.137376,0.000780,-0.036600,-0.133906,-0.000000,0.000000,-0.000000,-0.000000,0.000000,-20.929398,18.778444,1.761663,-3.043373,1.192476,-0.010370,0.261888,-0.254010,1.282402,4
576086512029139,-6.814323,-0.466780,6.769268,1.100671,0.000056,0.000001,-6.836876,-0.470613,6.772810,1.137576,0.000784,-0.036800,-0.133114,-0.003169,-0.003169,-0.000000,-0.000000,0.000000,-21.135889,20.180907,2.316520,-3.115181,1.233034,-0.010431,0.261859,-0.254045,1.282401,4
576086513028039,-6.814468,-0.466781,6.769265,1.100669,0.000057,0.000003,-6.837057,-0.470634,6.772829,1.137776,0.000788,-0.037000,-0.132322,-0.000000,0.000000,-0.003797,-0.002848,0.002848,-21.084035,18.731297,1.743229,-3.062169,1.202864,-0.010426,0.261823,-0.254084,1.282400,4
576086514048768,-6.814603,-0.466782,6.769262,1.100671,0.000056,0.000002,-6.837239,-0.470655,6.772848,1.137976,0.000793,-0.037200,-0.134699,-0.000000,-0.003169,-0.000000,-0.000000,0.000000,-20.913828,18.882021,1.845138,-3.038982,1.195601,-0.010336,0.261792,-0.254120,1.282400,4
576086515019984,-6.814734,-0.466783,6.769260,1.100671,0.000057,0.000001,-6.837420,-0.470676,6.772866,1.138176,0.000797,-0.037400,-0.131529,-0.000000,-0.002377,-0.000000,-0.000000,0.000000,-21.212958,18.882207,1.831207,-3.092881,1.215490,-0.010503,0.261760,-0.254156,1.282399,4
576086516026850,-6.814869,-0.466783,6.769258,1.100671,0.000059,0.000000,-6.837601,-0.470697,6.772885,1.138376,0.000801,-0.037600,-0.134699,-0.000000,-0.002377,-0.000000,-0.000000,0.000000,-20.935772,18.710015,1.774173,-3.033232,1.192552,-0.010339,0.261727,-0.254192,1.282399,4
576086517012392,-6.815004,-0.466783,6.769256,1.100670,0.000057,0.000001,-6.837781,-0.470718,6.772904,1.138576,0.000805,-0.037800,-0.134699,-0.000000,0.000000,-0.000000,-0.000000,0.000000,-20.932266,18.450642,1.649536,-3.021200,1.184822,-0.010338,0.261694,-0.254228,1.282398,4
576086518019526,-6.815133,-0.466784,6.769253,1.100672,0.000058,0.000001,-6.837962,-0.470739,6.772922,1.138776,0.000810,-0.038000,-0.133114,-0.000000,-0.003169,-0.000000,-0.000000,0.000000,-21.114427,18.740504,1.795325,-3.064113,1.205881,-0.010428,0.261664,-0.254263,1.282397,4
576086519013168,-6.815271,-0.466787,6.769251,1.100670,0.000054,-0.000002,-6.838142,-0.470760,6.772941,1.138976,0.000814,-0.038200,-0.138660,-0.002377,0.000000,-0.000000,-0.003797,-0.002848,-20.670653,19.067952,1.886072,-2.980194,1.178461,-0.010126,0.261632,-0.254301,1.282396,4
576086520019464,-6.815408,-0.466786,6.769249,1.100671,0.000057,0.000002,-6.838322,-0.470781,6.772960,1.139176,0.000818,-0.038400,-0.137076,-0.000000,-0.002377,-0.000000,0.002848,0.000000,-20.760544,18.413200,1.672430,-2.981913,1.171205,-0.010218,0.261597,-0.254337,1.282396,4
576086521013217,-6.815544,-0.466788,6.769245,1.100671,0.000054,-0.000002,-6.838502,-0.470802,6.772978,1.139376,0.000823,-0.038600,-0.135491,-0.002377,-0.003962,-0.000000,-0.002848,-0.003797,-21.002667,19.431225,2.067565,-3.051697,1.211115,-0.010289,0.261567,-0.254375,1.282395,4
576086522011647,-6.815683,-0.466789,6.769240,1.100672,0.000054,0.000001,-6.838682,-0.470822,6.772997,1.139576,0.000827,-0.038800,-0.139453,-0.000000,-0.004754,-0.000000,-0.000000,0.002848,-20.580419,18.445260,1.722691,-2.946749,1.163449,-0.010113,0.261535,-0.254413,1.282394,4
576086523013164,-6.815824,-0.466791,6.769238,1.100670,0.000054,0.000001,-6.838861,-0.470843,6.773015,1.139776,0.000831,-0.039000,-0.141037,-0.000000,-0.002377,-0.000000,-0.000000,0.000000,-20.425175,18.127496,1.579359,-2.904237,1.143967,-0.010008,0.261501,-0.254452,1.282393,4
576086524013609,-6.815961,-0.466788,6.769235,1.100672,0.000055,0.000000,-6.839041,-0.470864,6.773034,1.139976,0.000835,-0.039200,-0.136283,0.002377,-0.003169,-0.000000,-0.000000,0.000000,-20.802350,17.459406,1.338404,-2.960684,1.160681,-0.010248,0.261466,-0.254487,1.282393,4
576086525014150,-6.816099,-0.466791,6.769232,1.100671,0.000053,0.000002,-6.839220,-0.470885,6.773053,1.140176,0.000840,-0.039400,-0.138660,-0.002377,-0.002377,-0.000000,-0.000000,0.000000,-20.725403,18.958878,1.883270,-2.974952,1.177809,-0.010135,0.261434,-0.254525,1.282392,4
576086526032629,-6.816238,-0.466791,6.769229,1.100672,0.000052,-0.000001,-6.839399,-0.470906,6.773071,1.140376,0.000844,-0.039600,-0.138660,-0.000000,-0.003169,-0.000000,-0.000000,-0.002848,-20.667801,18.124924,1.588907,-2.944141,1.160932,-0.010110,0.261402,-0.254562,1.282391,4
576086527032123,-6.816377,-0.466794,6.769225,1.100670,0.000059,0.000002,-6.839578,-0.470927,6.773090,1.140576,0.000848,-0.039800,-0.138660,-0.002377,-0.003962,-0.000000,0.006645,0.002848,-20.739402,18.988771,1.914775,-2.973371,1.174700,-0.010146,0.261369,-0.254602,1.282390,4
576086528033693,-6.816519,-0.466793,6.769223,1.100670,0.000056,0.000003,-6.839756,-0.470948,6.773109,1.140776,0.000852,-0.040000,-0.141830,-0.000000,-0.002377,-0.000000,-0.002848,0.000000,-20.386076,17.837048,1.482118,-2.878250,1.136826,-0.009956,0.261334,-0.254639,1.282390,4
576086529021547,-6.816666,-0.466796,6.769217,1.100669,0.000054,0.000002,-6.839935,-0.470969,6.773127,1.140976,0.000857,-0.040200,-0.142622,-0.002377,-0.004754,-0.002848,-0.000000,0.000000,-20.378873,18.806752,1.868787,-2.893659,1.150923,-0.009881,0.261302,-0.254680,1.282388,4
576086530029190,-6.816805,-0.466795,6.769214,1.100670,0.000056,0.000001,-6.840113,-0.470990,6.773146,1.141176,0.000861,-0.040400,-0.139453,-0.000000,-0.003169,-0.000000,-0.000000,0.000000,-20.605773,17.887946,1.509429,-2.916728,1.151036,-0.010068,0.261267,-0.254718,1.282387,4
576086531013388,-6.816949,-0.466797,6.769212,1.100670,0.000056,0.000001,-6.840291,-0.471010,6.773165,1.141376,0.000865,-0.040600,-0.143415,-0.000000,-0.002377,-0.000000,-0.000000,0.000000,-20.240306,17.618873,1.408098,-2.836962,1.119313,-0.009856,0.261233,-0.254757,1.282387,4
576086532022602,-6.817084,-0.466798,6.769208,1.100671,0.000057,0.000002,-6.840469,-0.471031,6.773183,1.141576,0.000869,-0.040800,-0.142622,-0.000000,-0.003169,-0.000000,-0.000000,0.000000,-20.326445,17.671271,1.437752,-2.853138,1.126840,-0.009898,0.261202,-0.254794,1.282385,4
576086532963531,-6.817233,-0.466801,6.769202,1.100670,0.000054,0.000000,-6.840646,-0.471052,6.773202,1.141776,0.000873,-0.041000,-0.141830,-0.003962,-0.005546,-0.000000,-0.002848,0.000000,-20.527647,19.286882,2.062860,-2.928374,1.171981,-0.009945,0.261169,-0.254835,1.282384,4
576086534035426,-6.817367,-0.466802,6.769200,1.100673,0.000055,-0.000001,-6.840824,-0.471073,6.773220,1.141976,0.000878,-0.041200,-0.141037,-0.003169,-0.003962,0.002848,-0.000000,0.000000,-20.585823,18.848978,1.882123,-2.928716,1.165359,-0.010016,0.261137,-0.254871,1.282383,4
576086535017401,-6.817511,-0.466802,6.769196,1.100673,0.000055,0.000003,-6.841001,-0.471094,6.773239,1.142176,0.000882,-0.041400,-0.143415,-0.000000,-0.004754,-0.000000,-0.000000,0.003797,-20.268714,17.625748,1.447458,-2.835453,1.122751,-0.009865,0.261102,-0.254910,1.282382,4
576086536016938,-6.817644,-0.466802,6.769193,1.100670,0.000054,0.000000,-6.841178,-0.471115,6.773258,1.142376,0.000886,-0.041600,-0.139453,-0.000000,-0.002377,-0.000000,-0.000000,0.000000,-20.624113,17.512332,1.370453,-2.895585,1.142909,-0.010046,0.261070,-0.254946,1.282382,4
576086537017388,-6.817801,-0.466804,6.769189,1.100670,0.000057,0.000001,-6.841355,-0.471135,6.773276,1.142576,0.000890,-0.041800,-0.144999,-0.000000,-0.003962,-0.000000,-0.000000,0.000000,-20.113954,17.390633,1.356713,-2.794315,1.106143,-0.009745,0.261033,-0.254990,1.282380,4
576086538051424,-6.817935,-0.466806,6.769185,1.100669,0.000054,0.000003,-6.841532,-0.471156,6.773295,1.142776,0.000895,-0.042000,-0.141830,-0.000000,-0.003169,-0.000000,-0.002848,0.000000,-20.410740,17.397984,1.346799,-2.848694,1.128440,-0.009909,0.261002,-0.255026,1.282379,4
576086539025045,-6.818077,-0.466806,6.769181,1.100669,0.000054,0.000001,-6.841708,-0.471177,6.773314,1.142976,0.000899,-0.042200,-0.141830,-0.000000,-0.003962,-0.000000,-0.000000,0.000000,-20.412621,17.409223,1.361534,-2.846987,1.126904,-0.009903,0.260969,-0.255065,1.282379,4
576086540011679,-6.818224,-0.466807,6.769177,1.100672,0.000054,0.000000,-6.841884,-0.471198,6.773332,1.143176,0.000903,-0.042400,-0.146584,-0.000000,-0.004754,0.002848,-0.000000,0.000000,-19.993454,17.259236,1.327508,-2.765749,1.096289,-0.009685,0.260935,-0.255104,1.282378,4
576086541017456,-6.818369,-0.466809,6.769174,1.100669,0.000054,0.000001,-6.842060,-0.471219,6.773351,1.143376,0.000907,-0.042600,-0.141830,-0.000000,-0.005546,-0.000000,-0.000000,0.000000,-20.414715,17.441634,1.397170,-2.845015,1.128697,-0.009889,0.260900,-0.255144,1.282377,4
576086542013554,-6.818514,-0.466808,6.769170,1.100668,0.000055,0.000000,-6.842236,-0.471239,6.773370,1.143576,0.000911,-0.042800,-0.144207,-0.000000,-0.003169,-0.000000,-0.000000,0.000000,-20.179705,17.083005,1.240336,-2.786326,1.102887,-0.009755,0.260864,-0.255183,1.282376,4
576086543013691,-6.818652,-0.466810,6.769165,1.100670,0.000055,0.000001,-6.842412,-0.471260,6.773388,1.143776,0.000916,-0.043000,-0.143415,-0.000000,-0.004754,-0.000000,-0.000000,0.000000,-20.266233,17.207861,1.307083,-2.805227,1.112610,-0.009795,0.260834,-0.255222,1.282375,4
576086544014841,-6.818793,-0.466812,6.769162,1.100670,0.000056,0.000003,-6.842587,-0.471281,6.773407,1.143976,0.000920,-0.043200,-0.140245,-0.000000,-0.002377,-0.000000,-0.000000,0.000000,-20.541419,17.066980,1.221293,-2.849374,1.126597,-0.009952,0.260800,-0.255260,1.282374,4
576086545015645,-6.818935,-0.466814,6.769159,1.100671,0.000052,0.000001,-6.842763,-0.471302,6.773426,1.144176,0.000924,-0.043400,-0.142622,-0.002377,-0.003962,-0.000000,-0.003797,0.000000,-20.408456,17.929143,1.564843,-2.843162,1.135722,-0.009832,0.260769,-0.255299,1.282372,4
576086546032035,-6.819081,-0.466816,6.769152,1.100672,0.000055,0.000000,-6.842938,-0.471323,6.773444,1.144376,0.000928,-0.043600,-0.145792,-0.000000,-0.006339,-0.000000,0.002848,0.000000,-20.052833,17.105371,1.297457,-2.755570,1.094106,-0.009652,0.260735,-0.255340,1.282371,4
576086547032722,-6.819224,-0.466819,6.769149,1.100672,0.000054,0.000001,-6.843113,-0.471343,6.773463,1.144576,0.000932,-0.043800,-0.143415,-0.003169,-0.003169,-0.000000,-0.000000,0.000000,-20.343478,18.012417,1.588515,-2.825304,1.127436,-0.009776,0.260703,-0.255380,1.282369,4
576086548047606,-6.819373,-0.466820,6.769143,1.100672,0.000053,0.000001,-6.843287,-0.471364,6.773481,1.144776,0.000937,-0.044000,-0.148169,-0.000000,-0.006339,-0.000000,-0.000000,0.000000,-19.831143,16.923204,1.239173,-2.704632,1.077054,-0.009513,0.260669,-0.255420,1.282368,4
576086549023134,-6.819530,-0.466825,6.769139,1.100671,0.000056,0.000000,-6.843462,-0.471385,6.773500,1.144976,0.000941,-0.044200,-0.150546,-0.004754,-0.003962,-0.000000,0.002848,0.000000,-19.717810,18.283448,1.712116,-2.706037,1.084993,-0.009384,0.260635,-0.255466,1.282365,4
576086550033171,-6.819674,-0.466825,6.769133,1.100670,0.000053,0.000002,-6.843636,-0.471406,6.773519,1.145176,0.000945,-0.044400,-0.144207,-0.000000,-0.005546,-0.000000,-0.002848,0.000000,-20.171064,16.910014,1.223005,-2.764281,1.101682,-0.009695,0.260601,-0.255505,1.282364,4
576086551028946,-6.819822,-0.466826,6.769127,1.100670,0.000054,0.000001,-6.843810,-0.471426,6.773537,1.145376,0.000949,-0.044600,-0.147376,-0.000000,-0.006339,-0.000000,-0.000000,0.000000,-19.876376,16.802227,1.199531,-2.702993,1.077156,-0.009520,0.260567,-0.255546,1.282363,4
576086552033227,-6.819968,-0.466829,6.769122,1.100672,0.000052,0.000000,-6.843984,-0.471447,6.773556,1.145576,0.000953,-0.044800,-0.146584,-0.003169,-0.004754,-0.000000,-0.000000,0.000000,-20.025084,17.783851,1.539919,-2.748408,1.101148,-0.009560,0.260536,-0.255586,1.282361,4
