jieun02-kim/RAON-RT-Revision/App/Indy7/rt_log_results/plotted_csv/DataLog_20260423_112346.csv
timestamp_ns,q0,q1,q2,q3,q4,q5,q_ref0,q_ref1,q_ref2,q_ref3,q_ref4,q_ref5,qd0,qd1,qd2,qd3,qd4,qd5,tau0,tau1,tau2,tau3,tau4,tau5,tcp_x,tcp_y,tcp_z,ctrl_mode
574140265727390,-4.110966,-0.102829,6.352690,0.215762,-0.000028,-0.000001,-4.111268,-0.103130,6.352989,0.216062,-0.000250,0.000298,-0.000000,-0.000000,0.000000,-0.000000,-0.000000,0.000000,0.280875,-15.563025,-5.092409,1.178261,-0.841550,-0.002621,0.091084,0.189380,1.323496,4
574140266730636,-4.110966,-0.102830,6.352691,0.215760,-0.000029,0.000000,-4.111368,-0.103230,6.353089,0.216162,-0.000323,0.000398,-0.000000,-0.000000,0.000000,-0.000000,-0.000000,0.000000,0.283362,-15.781803,-5.161377,1.191492,-0.850501,-0.002646,0.091084,0.189380,1.323496,4
574140267696786,-4.110968,-0.102828,6.352690,0.215762,-0.000029,-0.000001,-4.111468,-0.103330,6.353189,0.216262,-0.000397,0.000498,-0.000000,-0.000000,0.000000,-0.000000,-0.000000,0.000000,0.287273,-16.008414,-5.232893,1.205377,-0.859803,-0.002670,0.091084,0.189379,1.323497,4
574140268744442,-4.110965,-0.102831,6.352687,0.215761,-0.000028,0.000001,-4.111568,-0.103430,6.353289,0.216362,-0.000470,0.000598,0.003169,-0.002377,-0.002377,-0.000000,-0.000000,0.000000,0.035836,-14.976080,-4.827210,1.089684,-0.799941,-0.002885,0.091082,0.189382,1.323496,4
574140269732879,-4.110966,-0.102834,6.352687,0.215763,-0.000027,0.000001,-4.111668,-0.103530,6.353389,0.216462,-0.000544,0.000698,-0.000000,-0.003169,0.000000,-0.000000,-0.000000,0.000000,0.141058,-15.304046,-4.961662,1.133648,-0.821050,-0.002752,0.091080,0.189385,1.323496,4
574140270726491,-4.110966,-0.102839,6.352683,0.215763,-0.000028,0.000001,-4.111768,-0.103630,6.353489,0.216562,-0.000617,0.000798,-0.000000,-0.003962,-0.002377,-0.000000,-0.000000,0.000000,0.077086,-15.018986,-4.822924,1.098356,-0.799275,-0.002794,0.091075,0.189392,1.323495,4
574140271726499,-4.110966,-0.102849,6.352679,0.215764,-0.000028,0.000001,-4.111868,-0.103730,6.353589,0.216662,-0.000691,0.000898,-0.000000,-0.009508,-0.003962,-0.000000,-0.000000,0.000000,-0.202443,-13.102383,-4.109310,0.924804,-0.698548,-0.002880,0.091068,0.189402,1.323494,4
574140272725171,-4.110967,-0.102861,6.352672,0.215764,-0.000032,-0.000001,-4.111968,-0.103830,6.353689,0.216762,-0.000764,0.000998,-0.000000,-0.011885,-0.006339,-0.000000,-0.003797,0.000000,-0.345637,-12.215762,-3.751718,0.837198,-0.644048,-0.002938,0.091059,0.189416,1.323492,4
574140273725958,-4.110967,-0.102873,6.352664,0.215765,-0.000033,-0.000001,-4.112068,-0.103930,6.353789,0.216862,-0.000838,0.001098,-0.000000,-0.012678,-0.008716,-0.000000,-0.000000,0.000000,-0.411030,-11.918177,-3.611389,0.801447,-0.624437,-0.002979,0.091048,0.189431,1.323490,4
574140274722147,-4.110966,-0.102889,6.352656,0.215766,-0.000032,0.000000,-4.112168,-0.104030,6.353889,0.216962,-0.000911,0.001198,-0.000000,-0.015847,-0.007923,-0.000000,-0.000000,0.000000,-0.556432,-11.018478,-3.287924,0.720145,-0.579646,-0.003035,0.091037,0.189448,1.323488,4
574140275729059,-4.110967,-0.102906,6.352650,0.215766,-0.000037,0.000001,-4.112268,-0.104130,6.353989,0.217062,-0.000985,0.001298,-0.000000,-0.016639,-0.005546,-0.000000,-0.004746,0.000000,-0.575671,-11.074128,-3.320198,0.723435,-0.582377,-0.003063,0.091024,0.189465,1.323486,4
574140276720993,-4.110967,-0.102923,6.352643,0.215767,-0.000038,0.000002,-4.112368,-0.104230,6.354089,0.217162,-0.001059,0.001398,-0.000000,-0.017432,-0.007131,-0.000000,-0.000000,0.000000,-0.633725,-10.831903,-3.209635,0.694366,-0.568143,-0.003101,0.091012,0.189484,1.323484,4
574140277721335,-4.110968,-0.102942,6.352637,0.215769,-0.000042,0.000000,-4.112468,-0.104330,6.354189,0.217262,-0.001133,0.001498,-0.000000,-0.019016,-0.006339,-0.000000,-0.003797,0.000000,-0.708315,-10.467613,-3.074568,0.658347,-0.547022,-0.003142,0.090998,0.189503,1.323481,4
574140278725345,-4.110968,-0.102962,6.352629,0.215767,-0.000045,0.000000,-4.112568,-0.104430,6.354289,0.217362,-0.001206,0.001598,-0.000000,-0.019809,-0.007923,-0.000000,-0.002848,0.000000,-0.769989,-10.199694,-2.951382,0.626357,-0.528623,-0.003182,0.090984,0.189524,1.323479,4
574140279725513,-4.110968,-0.102984,6.352623,0.215765,-0.000049,0.000000,-4.112668,-0.104530,6.354389,0.217462,-0.001280,0.001698,-0.000000,-0.021393,-0.006339,-0.000000,-0.004746,0.000000,-0.835860,-9.902018,-2.850787,0.598147,-0.514110,-0.003219,0.090969,0.189546,1.323476,4
574140280728196,-4.110967,-0.103004,6.352615,0.215764,-0.000050,0.000001,-4.112768,-0.104630,6.354489,0.217562,-0.001354,0.001798,-0.000000,-0.020601,-0.007131,-0.000000,-0.000000,0.000000,-0.812756,-10.276523,-2.969876,0.623675,-0.532322,-0.003240,0.090954,0.189567,1.323474,4
574140281727093,-4.110967,-0.103026,6.352609,0.215762,-0.000057,0.000001,-4.112868,-0.104730,6.354589,0.217662,-0.001428,0.001898,-0.000000,-0.021393,-0.006339,-0.002848,-0.006645,0.000000,-0.846010,-10.200635,-2.938626,0.616288,-0.524068,-0.003240,0.090939,0.189588,1.323471,4
574140282696015,-4.110967,-0.103045,6.352605,0.215764,-0.000063,0.000001,-4.112968,-0.104830,6.354689,0.217762,-0.001502,0.001998,-0.000000,-0.019809,-0.003962,-0.000000,-0.005695,0.000000,-0.759579,-11.083842,-3.269213,0.687208,-0.571401,-0.003278,0.090925,0.189608,1.323469,4
574140283728930,-4.110968,-0.103069,6.352600,0.215764,-0.000070,0.000000,-4.113068,-0.104930,6.354789,0.217862,-0.001576,0.002098,-0.000000,-0.023770,-0.005546,-0.000000,-0.007594,0.000000,-0.972722,-9.668333,-2.733047,0.556292,-0.493990,-0.003350,0.090908,0.189632,1.323466,4
574140284742728,-4.110966,-0.103088,6.352594,0.215764,-0.000073,0.000002,-4.113168,-0.105030,6.354889,0.217962,-0.001650,0.002198,-0.000000,-0.019016,-0.005546,-0.000000,-0.002848,0.000000,-0.754965,-11.519888,-3.389795,0.710205,-0.587292,-0.003329,0.090895,0.189651,1.323463,4
574140285731621,-4.110966,-0.103110,6.352587,0.215765,-0.000081,0.000001,-4.113268,-0.105130,6.354989,0.218062,-0.001724,0.002298,-0.000000,-0.021393,-0.006339,-0.000000,-0.007594,0.000000,-0.886803,-10.723983,-3.081512,0.633484,-0.540264,-0.003385,0.090878,0.189675,1.323461,4
574140286731802,-4.110968,-0.103135,6.352582,0.215766,-0.000088,0.000001,-4.113368,-0.105230,6.355089,0.218162,-0.001798,0.002398,-0.000000,-0.022186,-0.005546,-0.000000,-0.007594,0.000000,-0.924107,-10.638892,-3.049927,0.622231,-0.535860,-0.003417,0.090861,0.189699,1.323458,4
574140287727671,-4.110968,-0.103158,6.352575,0.215766,-0.000095,-0.000001,-4.113468,-0.105330,6.355189,0.218262,-0.001873,0.002498,-0.000000,-0.022978,-0.007131,-0.000000,-0.006645,0.000000,-0.987317,-10.359866,-2.922815,0.589266,-0.516892,-0.003457,0.090844,0.189723,1.323455,4
574140288730505,-4.110969,-0.103182,6.352568,0.215764,-0.000103,0.000002,-4.113568,-0.105430,6.355289,0.218362,-0.001947,0.002598,-0.000000,-0.023770,-0.007131,-0.000000,-0.007594,0.002848,-1.034182,-10.204261,-2.856001,0.569995,-0.506351,-0.003509,0.090827,0.189747,1.323452,4
574140289726956,-4.110969,-0.103201,6.352561,0.215770,-0.000111,0.000000,-4.113668,-0.105530,6.355389,0.218462,-0.002021,0.002698,-0.000000,-0.019809,-0.006339,0.005695,-0.008543,0.000000,-0.863342,-11.755971,-3.402907,0.689931,-0.580811,-0.003549,0.090812,0.189769,1.323449,4
574140290696687,-4.110968,-0.103227,6.352552,0.215768,-0.000118,0.000000,-4.113768,-0.105630,6.355489,0.218562,-0.002096,0.002798,-0.000000,-0.025355,-0.009508,-0.000000,-0.006645,0.000000,-1.152604,-9.709544,-2.632223,0.510896,-0.472637,-0.003571,0.090793,0.189796,1.323446,4
574140291700078,-4.110967,-0.103252,6.352543,0.215770,-0.000123,0.000000,-4.113868,-0.105730,6.355589,0.218662,-0.002170,0.002898,-0.000000,-0.025355,-0.008716,-0.000000,-0.005695,0.000000,-1.153969,-9.901598,-2.700179,0.523362,-0.482598,-0.003596,0.090774,0.189822,1.323443,4
574140292700718,-4.110968,-0.103277,6.352533,0.215770,-0.000134,-0.000001,-4.113968,-0.105830,6.355689,0.218762,-0.002245,0.002998,-0.000000,-0.025355,-0.010300,-0.000000,-0.010442,0.000000,-1.185077,-9.867348,-2.655199,0.510237,-0.471356,-0.003631,0.090754,0.189850,1.323439,4
574140293723963,-4.110969,-0.103301,6.352523,0.215772,-0.000141,0.000001,-4.114068,-0.105930,6.355789,0.218862,-0.002319,0.003098,-0.000000,-0.026147,-0.009508,-0.000000,-0.007594,0.000000,-1.221135,-9.792264,-2.629009,0.500194,-0.469456,-0.003662,0.090736,0.189877,1.323436,4
574140294723807,-4.110968,-0.103329,6.352509,0.215772,-0.000149,0.000002,-4.114168,-0.106030,6.355889,0.218962,-0.002394,0.003198,-0.000000,-0.026147,-0.013470,-0.000000,-0.007594,0.000000,-1.277696,-9.565752,-2.492387,0.466202,-0.446599,-0.003705,0.090714,0.189908,1.323432,4
574140295726058,-4.110968,-0.103354,6.352497,0.215774,-0.000159,-0.000001,-4.114268,-0.106130,6.355989,0.219062,-0.002469,0.003298,-0.000000,-0.025355,-0.011885,-0.000000,-0.010442,-0.002848,-1.235761,-10.086427,-2.683038,0.507798,-0.471735,-0.003704,0.090694,0.189937,1.323429,4
574140296682980,-4.110969,-0.103381,6.352484,0.215775,-0.000172,0.000000,-4.114368,-0.106230,6.356089,0.219162,-0.002543,0.003398,-0.000000,-0.026940,-0.014262,-0.000000,-0.012340,0.000000,-1.349138,-9.427608,-2.407744,0.439820,-0.429716,-0.003773,0.090671,0.189968,1.323425,4
574140297730653,-4.110969,-0.103408,6.352468,0.215776,-0.000181,0.000003,-4.114468,-0.106330,6.356189,0.219262,-0.002618,0.003498,-0.000000,-0.026147,-0.016639,-0.000000,-0.009492,0.002848,-1.348847,-9.629407,-2.444381,0.446485,-0.433903,-0.003818,0.090649,0.190000,1.323421,4
574140298736545,-4.110969,-0.103434,6.352457,0.215774,-0.000191,0.000000,-4.114568,-0.106430,6.356289,0.219362,-0.002693,0.003598,-0.000000,-0.026147,-0.011093,-0.000000,-0.009492,-0.002848,-1.298186,-10.215025,-2.705438,0.502862,-0.473808,-0.003793,0.090629,0.190028,1.323418,4
574140299729303,-4.110969,-0.103463,6.352441,0.215777,-0.000204,0.000001,-4.114668,-0.106530,6.356389,0.219462,-0.002768,0.003698,-0.000000,-0.026940,-0.012678,-0.000000,-0.012340,0.000000,-1.367700,-9.891257,-2.557778,0.465016,-0.449478,-0.003853,0.090605,0.190062,1.323414,4
574140300729889,-4.110970,-0.103492,6.352428,0.215777,-0.000215,0.000000,-4.114768,-0.106630,6.356489,0.219562,-0.002843,0.003798,-0.000000,-0.026940,-0.012678,-0.000000,-0.011391,0.000000,-1.379496,-9.999457,-2.586235,0.468591,-0.453270,-0.003880,0.090582,0.190095,1.323410,4
574140301684780,-4.110969,-0.103522,6.352413,0.215778,-0.000225,0.000001,-4.114868,-0.106730,6.356589,0.219662,-0.002918,0.003898,-0.000000,-0.029317,-0.014262,-0.000000,-0.010442,0.000000,-1.521050,-9.129239,-2.246636,0.384660,-0.404792,-0.003937,0.090558,0.190128,1.323406,4
574140302731032,-4.110969,-0.103550,6.352400,0.215776,-0.000237,0.000000,-4.114968,-0.106830,6.356689,0.219762,-0.002994,0.003998,-0.000000,-0.028524,-0.013470,-0.000000,-0.012340,0.000000,-1.489272,-9.574158,-2.401978,0.418182,-0.424973,-0.003956,0.090535,0.190160,1.323402,4
574140303728076,-4.110969,-0.103578,6.352386,0.215772,-0.000250,-0.000001,-4.115068,-0.106930,6.356789,0.219862,-0.003069,0.004098,-0.000000,-0.027732,-0.013470,-0.003797,-0.012340,0.000000,-1.454143,-10.002937,-2.548453,0.454980,-0.444907,-0.003928,0.090513,0.190192,1.323398,4
574140304683597,-4.110967,-0.103606,6.352375,0.215777,-0.000262,0.000000,-4.115168,-0.107030,6.356889,0.219962,-0.003144,0.004198,-0.000000,-0.028524,-0.014262,-0.000000,-0.014239,0.000000,-1.524537,-9.714328,-2.419595,0.416138,-0.424038,-0.004016,0.090490,0.190224,1.323394,4
574140305728472,-4.110967,-0.103636,6.352365,0.215773,-0.000274,0.000001,-4.115268,-0.107130,6.356989,0.220062,-0.003220,0.004298,-0.000000,-0.029317,-0.010300,-0.000000,-0.013289,0.000000,-1.529800,-9.875905,-2.512067,0.432906,-0.439900,-0.004038,0.090468,0.190255,1.323391,4
574140306727995,-4.110967,-0.103664,6.352353,0.215770,-0.000290,0.000000,-4.115368,-0.107230,6.357089,0.220162,-0.003295,0.004398,-0.000000,-0.027732,-0.011885,-0.002848,-0.015188,0.000000,-1.479150,-10.434170,-2.684547,0.475522,-0.460834,-0.004021,0.090446,0.190286,1.323387,4
574140307730989,-4.110969,-0.103693,6.352344,0.215773,-0.000303,0.000001,-4.115468,-0.107330,6.357189,0.220262,-0.003371,0.004498,-0.000000,-0.030901,-0.011093,-0.000000,-0.015188,0.000000,-1.637777,-9.456900,-2.329946,0.383187,-0.411308,-0.004112,0.090424,0.190318,1.323383,4
574140308683258,-4.110969,-0.103722,6.352336,0.215774,-0.000320,-0.000002,-4.115568,-0.107430,6.357289,0.220362,-0.003446,0.004598,-0.000000,-0.027732,-0.006339,-0.000000,-0.018985,-0.002848,-1.451487,-11.074853,-2.948491,0.525617,-0.497636,-0.004078,0.090401,0.190349,1.323379,4
574140309727100,-4.110969,-0.103747,6.352325,0.215774,-0.000330,0.000002,-4.115668,-0.107530,6.357389,0.220462,-0.003522,0.004698,-0.000000,-0.025355,-0.010300,-0.000000,-0.010442,0.003797,-1.389735,-11.739742,-3.138815,0.569810,-0.525457,-0.004132,0.090382,0.190377,1.323376,4
574140310730075,-4.110969,-0.103775,6.352316,0.215772,-0.000347,0.000001,-4.115768,-0.107630,6.357489,0.220562,-0.003598,0.004798,-0.000000,-0.027732,-0.009508,-0.000000,-0.017086,0.000000,-1.507859,-11.047975,-2.883608,0.505106,-0.485773,-0.004160,0.090360,0.190407,1.323372,4
574140311713205,-4.110970,-0.103802,6.352310,0.215776,-0.000362,0.000001,-4.115868,-0.107730,6.357589,0.220662,-0.003674,0.004898,-0.000000,-0.028524,-0.007131,-0.000000,-0.016137,0.000000,-1.528668,-11.090729,-2.916221,0.508293,-0.492074,-0.004187,0.090340,0.190435,1.323369,4
574140312727691,-4.110969,-0.103830,6.352302,0.215772,-0.000375,0.000000,-4.115968,-0.107830,6.357689,0.220762,-0.003750,0.004998,-0.000000,-0.026940,-0.007923,-0.000000,-0.012340,0.000000,-1.473083,-11.714752,-3.123632,0.554981,-0.521815,-0.004201,0.090319,0.190464,1.323366,4
574140313727136,-4.110970,-0.103858,6.352296,0.215774,-0.000396,-0.000001,-4.116068,-0.107930,6.357789,0.220862,-0.003826,0.005098,-0.000000,-0.028524,-0.006339,-0.000000,-0.020883,0.000000,-1.546474,-11.362150,-2.997324,0.520741,-0.499411,-0.004242,0.090297,0.190494,1.323362,4
574140314740697,-4.110968,-0.103884,6.352287,0.215773,-0.000407,0.000000,-4.116168,-0.108030,6.357889,0.220962,-0.003902,0.005198,0.002377,-0.027732,-0.008716,-0.000000,-0.011391,0.000000,-1.627308,-11.452638,-3.001036,0.507056,-0.502391,-0.004386,0.090277,0.190522,1.323359,4
574140315726899,-4.110969,-0.103915,6.352282,0.215773,-0.000426,0.000000,-4.116268,-0.108130,6.357989,0.221062,-0.003978,0.005298,-0.000000,-0.028524,-0.005546,-0.000000,-0.018985,0.000000,-1.560570,-11.661820,-3.094449,0.536807,-0.513192,-0.004296,0.090255,0.190553,1.323355,4
574140316727973,-4.110969,-0.103945,6.352273,0.215772,-0.000441,0.000000,-4.116368,-0.108230,6.358089,0.221162,-0.004054,0.005398,-0.000000,-0.030109,-0.008716,-0.000000,-0.015188,0.000000,-1.680391,-10.953325,-2.798148,0.464073,-0.471234,-0.004349,0.090232,0.190585,1.323351,4
574140317687338,-4.110969,-0.103972,6.352270,0.215775,-0.000460,0.000001,-4.116468,-0.108330,6.358189,0.221262,-0.004130,0.005498,-0.000000,-0.026940,-0.003169,0.002848,-0.018985,0.000000,-1.491008,-12.619942,-3.440475,0.608113,-0.561206,-0.004363,0.090212,0.190613,1.323348,4
574140318690901,-4.110969,-0.104002,6.352260,0.215772,-0.000477,0.000000,-4.116568,-0.108430,6.358289,0.221362,-0.004206,0.005598,-0.000000,-0.030901,-0.010300,-0.002848,-0.016137,0.000000,-1.752276,-10.783822,-2.701281,0.438743,-0.454712,-0.004383,0.090188,0.190646,1.323344,4
574140319687456,-4.110969,-0.104031,6.352254,0.215773,-0.000494,0.000000,-4.116668,-0.108530,6.358389,0.221462,-0.004283,0.005698,-0.000000,-0.028524,-0.005546,-0.000000,-0.017086,0.000000,-1.608464,-12.106776,-3.214005,0.552036,-0.527891,-0.004407,0.090167,0.190675,1.323340,4
574140320685215,-4.110969,-0.104060,6.352248,0.215774,-0.000510,0.000000,-4.116768,-0.108630,6.358489,0.221562,-0.004359,0.005798,-0.000000,-0.030109,-0.005546,-0.000000,-0.017086,0.000000,-1.694511,-11.657057,-3.042784,0.507638,-0.503422,-0.004451,0.090146,0.190705,1.323337,4
574140321686529,-4.110969,-0.104093,6.352240,0.215776,-0.000530,0.000002,-4.116868,-0.108730,6.358589,0.221662,-0.004436,0.005898,-0.000000,-0.033279,-0.007923,-0.000000,-0.019934,0.000000,-1.885187,-10.414150,-2.558262,0.389491,-0.431802,-0.004520,0.090120,0.190740,1.323333,4
574140322698904,-4.110969,-0.104123,6.352230,0.215774,-0.000548,0.000001,-4.116968,-0.108830,6.358689,0.221762,-0.004512,0.005998,-0.000000,-0.030109,-0.009508,-0.000000,-0.018036,0.000000,-1.766460,-11.514996,-2.925485,0.474990,-0.481791,-0.004522,0.090097,0.190773,1.323329,4
574140323709062,-4.110970,-0.104155,6.352224,0.215773,-0.000567,0.000000,-4.117068,-0.108930,6.358789,0.221862,-0.004589,0.006098,-0.000000,-0.031694,-0.006339,-0.000000,-0.018985,0.000000,-1.819066,-11.318170,-2.879519,0.459008,-0.476612,-0.004554,0.090074,0.190805,1.323325,4
574140324694512,-4.110970,-0.104187,6.352217,0.215773,-0.000585,0.000000,-4.117168,-0.109030,6.358889,0.221962,-0.004666,0.006198,-0.000000,-0.032486,-0.007131,-0.000000,-0.018036,0.000000,-1.878281,-11.071429,-2.772802,0.430477,-0.461017,-0.004593,0.090050,0.190839,1.323321,4
574140325691929,-4.110969,-0.104219,6.352210,0.215775,-0.000607,0.000001,-4.117268,-0.109130,6.358989,0.222062,-0.004742,0.006298,-0.000000,-0.032486,-0.007131,-0.000000,-0.019934,0.000000,-1.893471,-11.161897,-2.793068,0.431950,-0.461812,-0.004623,0.090025,0.190873,1.323317,4
574140326685484,-4.110973,-0.104252,6.352203,0.215776,-0.000624,0.000001,-4.117368,-0.109230,6.359089,0.222162,-0.004819,0.006398,-0.003169,-0.033279,-0.006339,-0.000000,-0.017086,0.000000,-1.818583,-11.254719,-2.827287,0.452762,-0.469411,-0.004496,0.090001,0.190906,1.323313,4
574140327685049,-4.110969,-0.104284,6.352195,0.215775,-0.000647,0.000002,-4.117468,-0.109330,6.359189,0.222262,-0.004896,0.006498,-0.000000,-0.034863,-0.005546,-0.000000,-0.023731,0.000000,-2.017420,-10.630406,-2.596517,0.377359,-0.431881,-0.004699,0.089976,0.190941,1.323309,4
574140328683429,-4.110971,-0.104318,6.352189,0.215774,-0.000665,0.000003,-4.117568,-0.109430,6.359289,0.222362,-0.004973,0.006598,-0.000000,-0.034071,-0.006339,-0.000000,-0.021833,0.000000,-2.002033,-10.945367,-2.691784,0.397303,-0.444874,-0.004721,0.089951,0.190975,1.323305,4
574140329714022,-4.110971,-0.104349,6.352184,0.215772,-0.000686,0.000001,-4.117668,-0.109530,6.359389,0.222462,-0.005050,0.006698,-0.000000,-0.030901,-0.004754,-0.000000,-0.020883,0.000000,-1.848546,-12.311088,-3.189110,0.512293,-0.514852,-0.004712,0.089929,0.191006,1.323301,4
574140330739380,-4.110971,-0.104381,6.352181,0.215774,-0.000707,-0.000001,-4.117768,-0.109630,6.359489,0.222562,-0.005127,0.006798,-0.000000,-0.032486,-0.003169,-0.000000,-0.020883,0.000000,-1.918611,-11.983477,-3.079736,0.481840,-0.500211,-0.004750,0.089905,0.191039,1.323297,4
574140331732207,-4.110970,-0.104413,6.352176,0.215773,-0.000728,0.000001,-4.117868,-0.109730,6.359589,0.222662,-0.005204,0.006898,-0.000000,-0.031694,-0.005546,-0.000000,-0.020883,0.000000,-1.921756,-12.163810,-3.107416,0.486338,-0.501334,-0.004780,0.089881,0.191071,1.323293,4
574140332734228,-4.110969,-0.104446,6.352171,0.215773,-0.000750,0.000001,-4.117968,-0.109830,6.359689,0.222762,-0.005282,0.006998,-0.000000,-0.033279,-0.004754,-0.000000,-0.021833,0.000000,-2.002073,-11.760509,-2.961043,0.447441,-0.480309,-0.004822,0.089857,0.191105,1.323289,4
574140333683236,-4.110969,-0.104477,6.352168,0.215773,-0.000770,0.000001,-4.118068,-0.109930,6.359789,0.222862,-0.005359,0.007098,-0.000000,-0.029317,-0.002377,-0.000000,-0.019934,0.000000,-1.802291,-13.478829,-3.594476,0.594536,-0.570391,-0.004803,0.089834,0.191136,1.323286,4
574140334742070,-4.110969,-0.104510,6.352165,0.215771,-0.000790,-0.000001,-4.118168,-0.110030,6.359889,0.222962,-0.005436,0.007198,-0.000000,-0.033279,-0.002377,-0.000000,-0.019934,0.000000,-2.001029,-12.173841,-3.117699,0.476952,-0.503607,-0.004869,0.089811,0.191168,1.323282,4
574140335732911,-4.110969,-0.104541,6.352163,0.215771,-0.000811,0.000000,-4.118268,-0.110130,6.359989,0.223062,-0.005514,0.007298,-0.000000,-0.030901,-0.002377,-0.000000,-0.020883,0.000000,-1.903271,-13.118401,-3.445105,0.552053,-0.547586,-0.004874,0.089789,0.191198,1.323278,4
574140336732415,-4.110972,-0.104569,6.352161,0.215774,-0.000831,0.000000,-4.118368,-0.110230,6.360089,0.223162,-0.005591,0.007398,-0.000000,-0.030109,-0.002377,-0.000000,-0.018036,0.000000,-1.874820,-13.530809,-3.585380,0.582328,-0.568060,-0.004892,0.089769,0.191226,1.323275,4
574140337729823,-4.110970,-0.104601,6.352160,0.215771,-0.000852,-0.000001,-4.118468,-0.110330,6.360189,0.223262,-0.005669,0.007498,-0.000000,-0.030901,0.000000,-0.000000,-0.021833,-0.003797,-1.901681,-13.535803,-3.600934,0.581450,-0.568970,-0.004900,0.089747,0.191257,1.323271,4
574140338732536,-4.110969,-0.104632,6.352158,0.215773,-0.000873,0.000001,-4.118568,-0.110430,6.360289,0.223362,-0.005746,0.007598,-0.000000,-0.030109,0.000000,-0.000000,-0.020883,0.000000,-1.876679,-13.930069,-3.733150,0.609646,-0.587114,-0.004943,0.089725,0.191287,1.323268,4
574140339736221,-4.110970,-0.104661,6.352156,0.215772,-0.000892,0.000001,-4.118668,-0.110530,6.360389,0.223462,-0.005824,0.007698,-0.000000,-0.029317,-0.002377,-0.000000,-0.018985,0.000000,-1.876541,-14.131133,-3.770341,0.616454,-0.590799,-0.004970,0.089704,0.191316,1.323264,4
574140340729937,-4.110971,-0.104691,6.352153,0.215776,-0.000911,0.000001,-4.118768,-0.110630,6.360489,0.223562,-0.005902,0.007798,-0.000000,-0.030109,-0.003169,0.003797,-0.018985,0.000000,-1.944640,-13.853845,-3.648182,0.579299,-0.572070,-0.005055,0.089682,0.191346,1.323261,4
574140341731264,-4.110970,-0.104720,6.352150,0.215771,-0.000932,0.000000,-4.118868,-0.110730,6.360589,0.223662,-0.005980,0.007898,-0.000000,-0.029317,-0.002377,-0.004746,-0.020883,0.000000,-1.889788,-14.392028,-3.847495,0.634366,-0.599279,-0.004968,0.089661,0.191374,1.323257,4
574140342731205,-4.110970,-0.104750,6.352148,0.215775,-0.000952,0.000001,-4.118968,-0.110830,6.360689,0.223762,-0.006057,0.007998,-0.000000,-0.030109,-0.002377,0.003797,-0.019934,0.000000,-1.961109,-14.137966,-3.738351,0.593708,-0.583071,-0.005109,0.089639,0.191405,1.323254,4
574140343728726,-4.110970,-0.104782,6.352144,0.215773,-0.000971,0.000001,-4.119068,-0.110930,6.360789,0.223862,-0.006135,0.008098,-0.000000,-0.031694,-0.003962,-0.000000,-0.018985,0.000000,-2.055543,-13.587777,-3.518662,0.543434,-0.551618,-0.005111,0.089617,0.191436,1.323250,4
574140344682882,-4.110969,-0.104811,6.352140,0.215774,-0.000994,0.000001,-4.119168,-0.111030,6.360889,0.223962,-0.006213,0.008198,-0.000000,-0.029317,-0.003962,-0.000000,-0.022782,0.000000,-1.959434,-14.523541,-3.840165,0.617122,-0.592948,-0.005118,0.089595,0.191466,1.323246,4
574140345729380,-4.110970,-0.104844,6.352135,0.215775,-0.001010,0.000000,-4.119268,-0.111130,6.360989,0.224062,-0.006291,0.008298,-0.000000,-0.032486,-0.004754,-0.000000,-0.016137,0.000000,-2.125642,-13.462175,-3.447267,0.519907,-0.541351,-0.005177,0.089571,0.191499,1.323242,4
574140346730915,-4.110970,-0.104879,6.352131,0.215772,-0.001031,0.000001,-4.119368,-0.111230,6.361089,0.224162,-0.006369,0.008398,-0.000000,-0.034863,-0.003962,-0.002848,-0.020883,0.000000,-2.238376,-12.786167,-3.203173,0.461407,-0.504722,-0.005193,0.089547,0.191533,1.323238,4
574140347729307,-4.110970,-0.104907,6.352127,0.215774,-0.001052,-0.000002,-4.119468,-0.111330,6.361189,0.224262,-0.006447,0.008498,-0.000000,-0.030901,-0.003962,-0.000000,-0.020883,-0.003797,-2.072534,-14.274574,-3.722751,0.578860,-0.575594,-0.005195,0.089525,0.191562,1.323235,4
574140348717406,-4.110969,-0.104943,6.352122,0.215774,-0.001072,0.000000,-4.119568,-0.111430,6.361289,0.224362,-0.006526,0.008598,-0.000000,-0.034071,-0.005546,-0.000000,-0.022782,0.000000,-2.255340,-13.095573,-3.271184,0.468066,-0.509790,-0.005284,0.089499,0.191598,1.323231,4
574140349730313,-4.110970,-0.104975,6.352115,0.215774,-0.001091,0.000001,-4.119668,-0.111530,6.361389,0.224462,-0.006604,0.008698,-0.000000,-0.031694,-0.007131,-0.000000,-0.018985,0.000000,-2.172861,-13.920679,-3.541689,0.530329,-0.547595,-0.005292,0.089476,0.191631,1.323227,4
574140350694563,-4.110972,-0.105009,6.352110,0.215774,-0.001109,-0.000001,-4.119768,-0.111630,6.361489,0.224562,-0.006682,0.008798,-0.000000,-0.034071,-0.004754,-0.000000,-0.018036,0.000000,-2.270949,-13.377778,-3.364876,0.483372,-0.524874,-0.005334,0.089452,0.191665,1.323222,4
574140351734980,-4.110971,-0.105043,6.352106,0.215772,-0.001127,-0.000002,-4.119868,-0.111730,6.361589,0.224662,-0.006761,0.008898,-0.000000,-0.034071,-0.003962,-0.000000,-0.018036,0.000000,-2.276900,-13.538368,-3.421330,0.493071,-0.532581,-0.005360,0.089428,0.191698,1.323218,4
574140352731509,-4.110972,-0.105077,6.352100,0.215773,-0.001147,-0.000002,-4.119968,-0.111830,6.361689,0.224762,-0.006839,0.008998,-0.000000,-0.034071,-0.005546,-0.000000,-0.019934,0.000000,-2.310246,-13.488929,-3.373995,0.479243,-0.522768,-0.005395,0.089403,0.191733,1.323214,4
574140353729925,-4.110969,-0.105112,6.352095,0.215772,-0.001167,0.000001,-4.120068,-0.111930,6.361789,0.224862,-0.006918,0.009098,-0.000000,-0.036448,-0.005546,-0.000000,-0.019934,0.000000,-2.437319,-12.734945,-3.094018,0.408647,-0.483203,-0.005448,0.089377,0.191768,1.323210,4
574140354730329,-4.110971,-0.105148,6.352089,0.215773,-0.001184,0.000000,-4.120168,-0.112030,6.361889,0.224962,-0.006996,0.009198,-0.000000,-0.034863,-0.006339,-0.000000,-0.017086,0.000000,-2.385550,-13.326835,-3.289340,0.452498,-0.510667,-0.005462,0.089352,0.191804,1.323206,4
574140355683371,-4.110971,-0.105185,6.352085,0.215773,-0.001206,0.000000,-4.120268,-0.112130,6.361989,0.225062,-0.007075,0.009298,-0.000000,-0.037240,-0.003962,-0.000000,-0.018985,0.000000,-2.487567,-12.759502,-3.101329,0.402815,-0.484555,-0.005507,0.089325,0.191841,1.323201,4
574140356727631,-4.110972,-0.105220,6.352081,0.215774,-0.001224,0.000000,-4.120368,-0.112230,6.362089,0.225162,-0.007154,0.009398,-0.000000,-0.034863,-0.003962,-0.000000,-0.018985,0.000000,-2.391144,-13.693202,-3.425544,0.477142,-0.528719,-0.005512,0.089301,0.191875,1.323197,4
574140357729768,-4.110970,-0.105259,6.352077,0.215772,-0.001242,0.000001,-4.120468,-0.112330,6.362189,0.225262,-0.007233,0.009498,-0.000000,-0.038825,-0.003962,-0.000000,-0.018036,0.000000,-2.593105,-12.369677,-2.942830,0.357978,-0.461707,-0.005580,0.089274,0.191912,1.323192,4
574140358731022,-4.110970,-0.105296,6.352074,0.215775,-0.001261,-0.000001,-4.120568,-0.112430,6.362289,0.225362,-0.007311,0.009598,-0.000000,-0.038033,-0.002377,-0.000000,-0.018985,-0.002848,-2.555143,-12.863032,-3.126465,0.397736,-0.487065,-0.005579,0.089248,0.191949,1.323188,4
574140359729464,-4.110971,-0.105336,6.352069,0.215773,-0.001281,0.000003,-4.120668,-0.112530,6.362389,0.225462,-0.007390,0.009698,-0.000000,-0.037240,0.000000,-0.000000,-0.018985,0.002848,-2.508739,-13.418502,-3.341925,0.444734,-0.518051,-0.005625,0.089220,0.191987,1.323183,4
574140360733721,-4.110971,-0.105376,6.352069,0.215774,-0.001298,0.000003,-4.120768,-0.112630,6.362489,0.225562,-0.007469,0.009798,-0.000000,-0.040410,0.000000,-0.000000,-0.016137,0.000000,-2.672325,-12.381834,-2.963936,0.350675,-0.466787,-0.005667,0.089194,0.192024,1.323179,4
574140361683614,-4.110971,-0.105413,6.352064,0.215772,-0.001319,0.000000,-4.120868,-0.112730,6.362589,0.225662,-0.007549,0.009898,-0.000000,-0.036448,-0.004754,-0.000000,-0.020883,-0.002848,-2.558931,-13.447576,-3.277755,0.425125,-0.502635,-0.005659,0.089168,0.192060,1.323174,4
574140362683674,-4.110970,-0.105452,6.352062,0.215772,-0.001334,0.000000,-4.120968,-0.112830,6.362689,0.225762,-0.007628,0.009998,-0.000000,-0.038825,-0.002377,-0.000000,-0.015188,0.000000,-2.656899,-12.909077,-3.107074,0.379381,-0.483796,-0.005717,0.089142,0.192097,1.323170,4
574140363731078,-4.110969,-0.105492,6.352062,0.215773,-0.001355,-0.000001,-4.121068,-0.112930,6.362789,0.225862,-0.007707,0.010098,-0.000000,-0.040410,0.000000,-0.000000,-0.020883,0.000000,-2.725686,-12.597989,-3.008026,0.351001,-0.467653,-0.005756,0.089115,0.192134,1.323165,4
574140364729951,-4.110970,-0.105529,6.352059,0.215774,-0.001369,0.000000,-4.121168,-0.113030,6.362889,0.225962,-0.007786,0.010198,-0.000000,-0.038825,-0.002377,-0.000000,-0.015188,-0.002848,-2.690132,-13.067278,-3.144542,0.381502,-0.487530,-0.005759,0.089090,0.192169,1.323161,4
574140365728355,-4.110970,-0.105571,6.352058,0.215771,-0.001388,0.000000,-4.121268,-0.113130,6.362989,0.226062,-0.007866,0.010298,-0.000000,-0.041202,0.000000,-0.002848,-0.018985,0.000000,-2.787442,-12.509390,-2.961802,0.336790,-0.461318,-0.005786,0.089063,0.192207,1.323156,4
574140366682925,-4.110969,-0.105615,6.352057,0.215772,-0.001405,0.000000,-4.121368,-0.113230,6.363089,0.226162,-0.007945,0.010398,-0.000000,-0.043579,0.000000,-0.000000,-0.017086,0.000000,-2.924449,-11.704959,-2.662923,0.257956,-0.420084,-0.005873,0.089034,0.192248,1.323151,4
574140367685415,-4.110971,-0.105654,6.352054,0.215772,-0.001423,0.000004,-4.121468,-0.113330,6.363189,0.226262,-0.008025,0.010498,-0.000000,-0.038825,-0.002377,-0.000000,-0.018036,0.003797,-2.745527,-13.263424,-3.183434,0.380606,-0.488923,-0.005886,0.089008,0.192284,1.323147,4
574140368748891,-4.110970,-0.105696,6.352054,0.215770,-0.001440,0.000003,-4.121568,-0.113430,6.363289,0.226362,-0.008104,0.010598,-0.000000,-0.041994,0.000000,-0.000000,-0.017086,0.000000,-2.884834,-12.414124,-2.897644,0.307406,-0.451147,-0.005915,0.088981,0.192322,1.323142,4
574140369734690,-4.110970,-0.105736,6.352054,0.215771,-0.001455,0.000001,-4.121668,-0.113530,6.363389,0.226462,-0.008184,0.010698,0.002377,-0.041202,0.000000,-0.000000,-0.017086,0.000000,-2.951214,-12.621269,-2.962505,0.307241,-0.458536,-0.006054,0.088955,0.192359,1.323138,4
574140370730913,-4.110970,-0.105777,6.352053,0.215774,-0.001471,0.000001,-4.121768,-0.113630,6.363489,0.226562,-0.008264,0.010798,-0.000000,-0.041202,0.000000,0.002848,-0.016137,0.000000,-2.889853,-12.814779,-3.019783,0.326052,-0.466935,-0.006000,0.088927,0.192397,1.323133,4
574140371733275,-4.110969,-0.105824,6.352052,0.215773,-0.001491,0.000000,-4.121868,-0.113730,6.363589,0.226662,-0.008344,0.010898,0.002377,-0.041994,0.000000,-0.000000,-0.014239,0.000000,-3.025066,-12.473580,-2.893063,0.283595,-0.449252,-0.006120,0.088897,0.192440,1.323128,4
574140372729996,-4.110973,-0.105864,6.352051,0.215772,-0.001506,0.000000,-4.121968,-0.113830,6.363689,0.226762,-0.008423,0.010998,-0.000000,-0.042787,0.000000,-0.000000,-0.018036,0.000000,-2.994605,-12.400336,-2.853906,0.283279,-0.441636,-0.006039,0.088871,0.192477,1.323123,4
574140373731099,-4.110971,-0.105905,6.352051,0.215773,-0.001523,0.000000,-4.122068,-0.113930,6.363789,0.226862,-0.008503,0.011098,-0.000000,-0.040410,0.000000,-0.000000,-0.016137,0.000000,-2.900166,-13.324388,-3.176891,0.357108,-0.486858,-0.006045,0.088845,0.192514,1.323119,4
574140374730044,-4.110971,-0.105949,6.352050,0.215774,-0.001537,0.000001,-4.122168,-0.114030,6.363889,0.226962,-0.008583,0.011198,-0.000000,-0.044371,0.000000,-0.000000,-0.014239,0.000000,-3.103517,-11.987970,-2.690729,0.237112,-0.420021,-0.006112,0.088816,0.192554,1.323114,4
574140375725715,-4.110972,-0.105994,6.352049,0.215770,-0.001551,0.000000,-4.122268,-0.114130,6.363989,0.227062,-0.008663,0.011298,-0.000000,-0.044371,0.000000,-0.003797,-0.014239,0.000000,-3.112465,-12.087039,-2.720888,0.245892,-0.423925,-0.006094,0.088788,0.192594,1.323109,4
574140376683659,-4.110970,-0.106037,6.352046,0.215772,-0.001567,0.000002,-4.122368,-0.114230,6.364089,0.227162,-0.008744,0.011398,-0.000000,-0.043579,-0.002377,-0.000000,-0.016137,0.000000,-3.132845,-12.180005,-2.712004,0.236596,-0.418431,-0.006172,0.088759,0.192634,1.323104,4
574140377728407,-4.110972,-0.106081,6.352046,0.215774,-0.001581,0.000002,-4.122468,-0.114330,6.364189,0.227262,-0.008824,0.011498,-0.000000,-0.043579,0.000000,-0.000000,-0.014239,0.000000,-3.123581,-12.452640,-2.828461,0.259817,-0.436990,-0.006192,0.088731,0.192674,1.323099,4
574140378728415,-4.110971,-0.106125,6.352044,0.215773,-0.001598,-0.000001,-4.122568,-0.114430,6.364289,0.227362,-0.008904,0.011598,-0.000000,-0.044371,0.000000,-0.000000,-0.016137,-0.002848,-3.181531,-12.222151,-2.734742,0.233933,-0.422092,-0.006214,0.088702,0.192715,1.323094,4
574140379732588,-4.110970,-0.106166,6.352042,0.215772,-0.001608,0.000001,-4.122668,-0.114530,6.364389,0.227462,-0.008985,0.011698,-0.000000,-0.042787,-0.003169,-0.000000,-0.014239,0.000000,-3.159738,-12.593618,-2.824184,0.253525,-0.432444,-0.006254,0.088676,0.192752,1.323089,4
574140380733508,-4.110973,-0.106213,6.352042,0.215773,-0.001623,-0.000001,-4.122768,-0.114630,6.364489,0.227562,-0.009065,0.011798,-0.000000,-0.043579,-0.003169,-0.000000,-0.016137,0.000000,-3.217589,-12.357733,-2.728723,0.227332,-0.417334,-0.006291,0.088647,0.192794,1.323084,4
574140381731390,-4.110971,-0.106257,6.352039,0.215773,-0.001637,0.000002,-4.122868,-0.114730,6.364589,0.227662,-0.009146,0.011898,-0.000000,-0.043579,-0.003169,-0.000000,-0.014239,0.002848,-3.236201,-12.425626,-2.744957,0.227645,-0.420063,-0.006338,0.088618,0.192834,1.323079,4
574140382733006,-4.110972,-0.106303,6.352040,0.215772,-0.001651,0.000001,-4.122968,-0.114830,6.364689,0.227762,-0.009226,0.011998,-0.000000,-0.046748,0.000000,-0.000000,-0.013289,0.000000,-3.368352,-11.628619,-2.487027,0.160737,-0.386834,-0.006369,0.088589,0.192875,1.323074,4
574140383734378,-4.110970,-0.106346,6.352039,0.215771,-0.001665,-0.000003,-4.123068,-0.114930,6.364789,0.227862,-0.009307,0.012098,-0.000000,-0.042787,0.000000,-0.000000,-0.014239,-0.003797,-3.202945,-13.092723,-3.000732,0.280357,-0.456686,-0.006339,0.088562,0.192914,1.323069,4
574140384751923,-4.110971,-0.106394,6.352036,0.215772,-0.001677,0.000000,-4.123168,-0.115030,6.364889,0.227962,-0.009388,0.012198,-0.000000,-0.047541,-0.003169,-0.000000,-0.012340,0.002848,-3.480133,-11.195460,-2.278113,0.105368,-0.354544,-0.006464,0.088531,0.192957,1.323063,4
574140385738875,-4.110971,-0.106441,6.352035,0.215775,-0.001690,0.000001,-4.123268,-0.115130,6.364989,0.228062,-0.009468,0.012298,-0.000000,-0.047541,0.000000,0.002848,-0.012340,0.000000,-3.473425,-11.481963,-2.403603,0.126594,-0.373488,-0.006501,0.088501,0.193001,1.323058,4
574140386739955,-4.110972,-0.106490,6.352031,0.215774,-0.001703,-0.000001,-4.123368,-0.115230,6.365089,0.228162,-0.009549,0.012398,-0.000000,-0.048333,-0.003962,-0.000000,-0.013289,0.000000,-3.569056,-10.934383,-2.155595,0.069560,-0.334943,-0.006517,0.088469,0.193045,1.323052,4
574140387733730,-4.110972,-0.106539,6.352029,0.215774,-0.001713,0.000002,-4.123468,-0.115330,6.365189,0.228262,-0.009630,0.012498,-0.000000,-0.049125,-0.002377,-0.000000,-0.010442,0.002848,-3.608412,-10.842196,-2.133431,0.059870,-0.334285,-0.006565,0.088439,0.193089,1.323047,4
574140388729745,-4.110972,-0.106586,6.352029,0.215772,-0.001726,0.000002,-4.123568,-0.115430,6.365289,0.228362,-0.009711,0.012598,-0.000000,-0.049125,0.000000,-0.000000,-0.008543,0.000000,-3.601129,-11.103632,-2.246077,0.082141,-0.352337,-0.006568,0.088410,0.193130,1.323041,4
574140389729740,-4.110970,-0.106634,6.352027,0.215773,-0.001738,0.000000,-4.123668,-0.115530,6.365389,0.228462,-0.009793,0.012698,-0.000000,-0.048333,-0.002377,-0.000000,-0.012340,0.000000,-3.615150,-11.209881,-2.244442,0.079519,-0.347094,-0.006601,0.088379,0.193174,1.323036,4
574140390730931,-4.110970,-0.106684,6.352025,0.215772,-0.001751,-0.000001,-4.123768,-0.115630,6.365489,0.228562,-0.009874,0.012798,-0.000000,-0.049918,0.000000,-0.000000,-0.013289,0.000000,-3.685580,-10.884408,-2.144312,0.050821,-0.333855,-0.006639,0.088347,0.193219,1.323030,4
574140391730715,-4.110970,-0.106734,6.352026,0.215773,-0.001763,-0.000001,-4.123868,-0.115730,6.365589,0.228662,-0.009955,0.012898,-0.000000,-0.049918,0.000000,-0.000000,-0.011391,0.000000,-3.706315,-10.933897,-2.154503,0.049731,-0.335806,-0.006668,0.088316,0.193263,1.323025,4
574140392742157,-4.110969,-0.106784,6.352025,0.215774,-0.001769,0.000000,-4.123968,-0.115830,6.365689,0.228762,-0.010037,0.012998,-0.000000,-0.050710,0.000000,-0.000000,-0.006645,0.000000,-3.763352,-10.710153,-2.069285,0.025646,-0.326366,-0.006704,0.088285,0.193307,1.323019,4
574140393733226,-4.110973,-0.106836,6.352024,0.215773,-0.001784,0.000002,-4.124068,-0.115930,6.365789,0.228862,-0.010118,0.013098,-0.003962,-0.051502,0.000000,-0.000000,-0.014239,0.000000,-3.682871,-10.679535,-2.042007,0.036449,-0.318623,-0.006547,0.088254,0.193353,1.323013,4
574140394732578,-4.110971,-0.106891,6.352025,0.215771,-0.001793,0.000000,-4.124168,-0.116030,6.365889,0.228962,-0.010200,0.013198,-0.000000,-0.054672,0.000000,-0.000000,-0.009492,0.000000,-3.996625,-9.354028,-1.562915,-0.102469,-0.253106,-0.006803,0.088221,0.193400,1.323007,4
574140395730774,-4.110973,-0.106944,6.352027,0.215775,-0.001803,0.000000,-4.124268,-0.116130,6.365989,0.229062,-0.010281,0.013298,-0.002377,-0.053879,0.000000,0.003797,-0.009492,0.000000,-3.906248,-9.773233,-1.699619,-0.065770,-0.271903,-0.006754,0.088188,0.193446,1.323001,4
574140396691487,-4.110972,-0.106998,6.352026,0.215770,-0.001816,0.000001,-4.124368,-0.116230,6.366089,0.229162,-0.010363,0.013398,-0.000000,-0.053087,0.000000,-0.004746,-0.013289,0.000000,-3.959797,-10.003635,-1.778732,-0.051478,-0.279798,-0.006791,0.088156,0.193493,1.322995,4
574140397683552,-4.110971,-0.107047,6.352027,0.215772,-0.001823,0.000001,-4.124468,-0.116330,6.366189,0.229262,-0.010445,0.013498,-0.000000,-0.049918,0.000000,-0.000000,-0.006645,0.000000,-3.842138,-11.148489,-2.180060,0.034873,-0.338444,-0.006846,0.088125,0.193536,1.322990,4
574140398683444,-4.110970,-0.107103,6.352026,0.215771,-0.001834,0.000001,-4.124568,-0.116430,6.366289,0.229362,-0.010527,0.013598,-0.000000,-0.055464,0.000000,-0.000000,-0.011391,0.000000,-4.129593,-9.182027,-1.462748,-0.140461,-0.235418,-0.006933,0.088091,0.193585,1.322984,4
574140399729963,-4.110970,-0.107154,6.352028,0.215772,-0.001842,0.000000,-4.124668,-0.116530,6.366389,0.229462,-0.010609,0.013698,-0.000000,-0.053087,0.000000,-0.000000,-0.008543,0.000000,-4.039261,-10.073740,-1.775448,-0.069094,-0.279913,-0.006938,0.088061,0.193629,1.322978,4
574140400687816,-4.110972,-0.107208,6.352030,0.215772,-0.001854,0.000000,-4.124768,-0.116630,6.366489,0.229562,-0.010691,0.013798,-0.000000,-0.053087,0.000000,-0.000000,-0.012340,0.000000,-4.064647,-10.088568,-1.768313,-0.074156,-0.275870,-0.006970,0.088029,0.193675,1.322972,4
574140401736813,-4.110973,-0.107263,6.352031,0.215771,-0.001861,0.000001,-4.124868,-0.116730,6.366589,0.229662,-0.010773,0.013898,-0.000000,-0.055464,0.000000,-0.000000,-0.006645,0.000000,-4.196422,-9.293449,-1.479700,-0.146879,-0.238880,-0.007020,0.087996,0.193722,1.322966,4
574140402728573,-4.110972,-0.107321,6.352031,0.215772,-0.001871,0.000000,-4.124968,-0.116830,6.366689,0.229762,-0.010855,0.013998,-0.000000,-0.053879,0.000000,-0.000000,-0.010442,0.000000,-4.151162,-9.849745,-1.666177,-0.105688,-0.261649,-0.007037,0.087960,0.193772,1.322960,4
574140403727914,-4.110972,-0.107372,6.352031,0.215771,-0.001879,0.000000,-4.125068,-0.116930,6.366789,0.229862,-0.010937,0.014098,-0.000000,-0.055464,0.000000,-0.000000,-0.009492,0.000000,-4.247378,-9.328300,-1.471281,-0.155898,-0.234628,-0.007082,0.087930,0.193817,1.322954,4
574140404727933,-4.110973,-0.107429,6.352031,0.215771,-0.001885,-0.000002,-4.125168,-0.117030,6.366889,0.229962,-0.011020,0.014198,-0.000000,-0.055464,0.000000,-0.000000,-0.008543,0.000000,-4.272085,-9.348076,-1.469999,-0.159695,-0.234429,-0.007112,0.087896,0.193866,1.322948,4
574140405727575,-4.110973,-0.107481,6.352030,0.215772,-0.001892,0.000001,-4.125268,-0.117130,6.366989,0.230062,-0.011102,0.014298,-0.000000,-0.051502,0.000000,-0.000000,-0.006645,0.002848,-4.108860,-10.793751,-1.979630,-0.041127,-0.305580,-0.007120,0.087864,0.193911,1.322942,4
574140406740167,-4.110973,-0.107537,6.352031,0.215772,-0.001901,0.000001,-4.125368,-0.117230,6.367089,0.230162,-0.011185,0.014398,-0.000000,-0.056257,0.000000,-0.000000,-0.009492,0.000000,-4.357649,-9.116550,-1.367832,-0.191144,-0.218406,-0.007181,0.087831,0.193959,1.322936,4
574140407693559,-4.110973,-0.107592,6.352031,0.215772,-0.001909,0.000003,-4.125468,-0.117330,6.367189,0.230262,-0.011267,0.014498,-0.000000,-0.054672,0.000000,-0.000000,-0.007594,0.000000,-4.306943,-9.709335,-1.572345,-0.145677,-0.247295,-0.007195,0.087798,0.194007,1.322929,4
574140408682923,-4.110975,-0.107646,6.352031,0.215770,-0.001913,-0.000001,-4.125568,-0.117430,6.367289,0.230362,-0.011350,0.014598,-0.000000,-0.054672,0.000000,-0.000000,-0.003797,-0.003797,-4.328287,-9.751032,-1.581481,-0.146940,-0.250369,-0.007200,0.087766,0.194053,1.322923,4
574140409728218,-4.110973,-0.107701,6.352029,0.215772,-0.001924,0.000003,-4.125668,-0.117530,6.367389,0.230462,-0.011433,0.014698,-0.000000,-0.054672,0.000000,-0.000000,-0.011391,0.003797,-4.358639,-9.738639,-1.560839,-0.155404,-0.242023,-0.007279,0.087731,0.194102,1.322917,4
574140410718222,-4.110974,-0.107754,6.352029,0.215773,-0.001929,0.000001,-4.125768,-0.117630,6.367489,0.230562,-0.011516,0.014798,-0.000000,-0.054672,0.000000,-0.000000,-0.007594,0.000000,-4.379605,-9.785217,-1.571665,-0.156337,-0.245316,-0.007285,0.087700,0.194148,1.322911,4
574140411729223,-4.110974,-0.107810,6.352029,0.215771,-0.001934,0.000001,-4.125868,-0.117730,6.367589,0.230662,-0.011599,0.014898,-0.000000,-0.055464,0.000000,-0.000000,-0.004746,0.000000,-4.439621,-9.538128,-1.476603,-0.182662,-0.233342,-0.007322,0.087667,0.194195,1.322905,4
574140412707851,-4.110973,-0.107865,6.352030,0.215773,-0.001939,0.000003,-4.125968,-0.117830,6.367689,0.230762,-0.011682,0.014998,-0.000000,-0.053879,0.000000,0.002848,-0.004746,0.002848,-4.398243,-10.091660,-1.662512,-0.145400,-0.258165,-0.007389,0.087634,0.194243,1.322899,4
574140413691169,-4.110973,-0.107921,6.352028,0.215774,-0.001945,0.000003,-4.126068,-0.117930,6.367789,0.230862,-0.011765,0.015098,-0.000000,-0.055464,0.000000,-0.000000,-0.005695,0.000000,-4.490836,-9.573806,-1.470009,-0.191376,-0.230579,-0.007384,0.087600,0.194291,1.322893,4
574140414687638,-4.110973,-0.107974,6.352028,0.215772,-0.001950,0.000000,-4.126168,-0.118030,6.367889,0.230962,-0.011848,0.015198,-0.000000,-0.053879,0.000000,-0.000000,-0.004746,0.000000,-4.439980,-10.166821,-1.673922,-0.145979,-0.258820,-0.007398,0.087568,0.194337,1.322887,4
574140415683242,-4.110973,-0.108032,6.352028,0.215771,-0.001955,0.000000,-4.126268,-0.118130,6.367989,0.231062,-0.011931,0.015298,-0.000000,-0.057049,0.000000,-0.000000,-0.005695,0.000000,-4.614395,-9.055013,-1.266013,-0.247223,-0.201104,-0.007460,0.087535,0.194386,1.322880,4
574140416682813,-4.110973,-0.108085,6.352028,0.215774,-0.001960,0.000002,-4.126368,-0.118230,6.368089,0.231162,-0.012014,0.015398,-0.000000,-0.058634,0.000000,-0.000000,-0.003797,0.000000,-4.711751,-8.527752,-1.069768,-0.297880,-0.174505,-0.007506,0.087502,0.194433,1.322874,4
574140417686531,-4.110973,-0.108141,6.352030,0.215772,-0.001963,0.000000,-4.126468,-0.118330,6.368189,0.231262,-0.012098,0.015498,-0.000000,-0.055464,0.000000,-0.000000,-0.002848,0.000000,-4.587454,-9.677985,-1.473327,-0.204655,-0.230426,-0.007504,0.087470,0.194479,1.322868,4
574140418683687,-4.110974,-0.108200,6.352031,0.215771,-0.001968,0.000001,-4.126568,-0.118430,6.368289,0.231362,-0.012181,0.015598,-0.000000,-0.058634,0.000000,-0.000000,-0.004746,0.000000,-4.762905,-8.557523,-1.061598,-0.306767,-0.171598,-0.007566,0.087436,0.194529,1.322862,4
574140419683295,-4.110973,-0.108256,6.352030,0.215772,-0.001973,-0.000001,-4.126668,-0.118530,6.368389,0.231462,-0.012265,0.015698,-0.000000,-0.056257,0.000000,-0.000000,-0.004746,0.000000,-4.677616,-9.416578,-1.359755,-0.238895,-0.212276,-0.007574,0.087402,0.194577,1.322855,4
574140420682615,-4.110974,-0.108312,6.352031,0.215772,-0.001976,0.000002,-4.126768,-0.118630,6.368489,0.231562,-0.012349,0.015798,-0.000000,-0.056257,0.000000,-0.000000,-0.003797,0.002848,-4.701916,-9.440763,-1.360285,-0.242296,-0.212362,-0.007620,0.087370,0.194625,1.322849,4
574140421683159,-4.110973,-0.108371,6.352035,0.215772,-0.001979,0.000000,-4.126868,-0.118730,6.368589,0.231662,-0.012432,0.015898,-0.000000,-0.058634,0.003169,-0.000000,-0.002848,0.000000,-4.803843,-8.882015,-1.187990,-0.288894,-0.191080,-0.007646,0.087336,0.194673,1.322843,4
574140422682683,-4.110973,-0.108432,6.352033,0.215767,-0.001980,-0.000003,-4.126968,-0.118830,6.368689,0.231762,-0.012516,0.015998,-0.000000,-0.061011,0.000000,-0.004746,-0.000000,-0.002848,-4.963570,-7.832727,-0.775285,-0.383481,-0.133090,-0.007634,0.087301,0.194725,1.322836,4
574140423683338,-4.110975,-0.108491,6.352035,0.215769,-0.001985,0.000001,-4.127068,-0.118930,6.368789,0.231862,-0.012600,0.016098,-0.002377,-0.059426,0.002377,-0.000000,-0.004746,0.003797,-4.817874,-8.684341,-1.088414,-0.306936,-0.175205,-0.007622,0.087266,0.194775,1.322829,4
574140424682540,-4.110973,-0.108552,6.352036,0.215769,-0.001987,0.000000,-4.127168,-0.119030,6.368889,0.231962,-0.012684,0.016198,-0.000000,-0.061011,0.000000,-0.000000,-0.000000,0.000000,-5.030177,-7.795520,-0.738941,-0.405432,-0.126365,-0.007771,0.087231,0.194826,1.322823,4
574140425682899,-4.110973,-0.108610,6.352039,0.215770,-0.001989,0.000001,-4.127268,-0.119130,6.368989,0.232062,-0.012768,0.016298,-0.000000,-0.057841,0.002377,-0.000000,-0.000000,0.000000,-4.881877,-9.133411,-1.235586,-0.291279,-0.196503,-0.007763,0.087197,0.194875,1.322816,4
574140426694128,-4.110975,-0.108668,6.352038,0.215771,-0.001992,0.000000,-4.127368,-0.119230,6.369089,0.232162,-0.012853,0.016398,-0.002377,-0.057841,0.000000,-0.000000,-0.002848,0.000000,-4.848891,-9.081244,-1.178331,-0.294795,-0.185190,-0.007684,0.087164,0.194924,1.322810,4
574140427715860,-4.110972,-0.108724,6.352039,0.215772,-0.001993,-0.000001,-4.127468,-0.119330,6.369189,0.232262,-0.012937,0.016498,0.003169,-0.056257,0.000000,-0.000000,-0.000000,0.000000,-5.001871,-9.327321,-1.260256,-0.307678,-0.195579,-0.007975,0.087130,0.194971,1.322804,4
574140428739703,-4.110974,-0.108786,6.352043,0.215768,-0.001996,0.000000,-4.127568,-0.119430,6.369289,0.232362,-0.013021,0.016598,-0.002377,-0.061803,0.003169,-0.003797,-0.002848,0.000000,-5.042003,-8.004320,-0.814959,-0.385745,-0.136687,-0.007726,0.087096,0.195022,1.322797,4
574140429730118,-4.110973,-0.108842,6.352043,0.215768,-0.001995,-0.000001,-4.127668,-0.119530,6.369389,0.232462,-0.013106,0.016698,-0.000000,-0.056257,0.000000,-0.000000,-0.000000,0.000000,-4.938744,-9.545504,-1.320393,-0.283812,-0.204026,-0.007877,0.087064,0.195069,1.322791,4
574140430731308,-4.110973,-0.108898,6.352045,0.215771,-0.001996,-0.000002,-4.127768,-0.119630,6.369489,0.232562,-0.013190,0.016798,-0.000000,-0.056257,0.000000,-0.000000,-0.000000,0.000000,-4.964010,-9.565578,-1.318706,-0.287802,-0.203228,-0.007908,0.087031,0.195116,1.322785,4
574140431705280,-4.110974,-0.108959,6.352043,0.215771,-0.001998,0.000001,-4.127868,-0.119730,6.369589,0.232662,-0.013275,0.016898,-0.000000,-0.056257,0.000000,-0.000000,-0.000000,0.000000,-4.991341,-9.568712,-1.310509,-0.293270,-0.201496,-0.007939,0.086996,0.195168,1.322778,4
574140432728397,-4.110974,-0.109016,6.352044,0.215770,-0.001996,0.000000,-4.127968,-0.119830,6.369689,0.232762,-0.013359,0.016998,-0.000000,-0.057841,0.000000,-0.000000,-0.000000,0.000000,-5.091509,-9.020775,-1.105433,-0.345950,-0.172543,-0.007985,0.086963,0.195216,1.322771,4
574140433728294,-4.110974,-0.109073,6.352045,0.215771,-0.001995,0.000001,-4.128068,-0.119930,6.369789,0.232862,-0.013444,0.017098,-0.000000,-0.057049,0.000000,-0.000000,-0.000000,0.000000,-5.080298,-9.317666,-1.202668,-0.326209,-0.185453,-0.008008,0.086930,0.195264,1.322765,4
574140434742818,-4.110973,-0.109127,6.352043,0.215769,-0.001996,0.000002,-4.128168,-0.120030,6.369889,0.232962,-0.013529,0.017198,-0.000000,-0.055464,0.000000,-0.000000,-0.000000,0.000000,-5.031024,-9.904415,-1.403353,-0.281666,-0.212659,-0.008023,0.086898,0.195310,1.322759,4
574140435725068,-4.110973,-0.109187,6.352044,0.215771,-0.001996,0.000001,-4.128268,-0.120130,6.369989,0.233062,-0.013614,0.017298,-0.000000,-0.057841,0.000000,-0.000000,-0.000000,0.000000,-5.169118,-9.069645,-1.095570,-0.359002,-0.169459,-0.008077,0.086864,0.195360,1.322752,4
574140436704762,-4.110973,-0.109247,6.352042,0.215771,-0.001996,0.000001,-4.128368,-0.120230,6.370089,0.233162,-0.013699,0.017398,-0.000000,-0.060218,-0.002377,-0.000000,-0.000000,0.000000,-5.334666,-8.028067,-0.686727,-0.459304,-0.110317,-0.008140,0.086828,0.195412,1.322745,4
574140437683350,-4.110973,-0.109306,6.352040,0.215768,-0.001997,0.000001,-4.128468,-0.120330,6.370189,0.233262,-0.013784,0.017498,-0.000000,-0.059426,0.000000,-0.002848,-0.000000,0.000000,-5.290631,-8.544933,-0.892193,-0.411112,-0.140422,-0.008119,0.086794,0.195462,1.322739,4
574140438690286,-4.110972,-0.109364,6.352038,0.215773,-0.001996,0.000000,-4.128568,-0.120430,6.370289,0.233362,-0.013869,0.017598,-0.000000,-0.057841,-0.003169,-0.000000,-0.000000,0.000000,-5.286663,-8.818860,-0.942117,-0.404843,-0.143872,-0.008181,0.086759,0.195513,1.322732,4
574140439731033,-4.110974,-0.109423,6.352039,0.215770,-0.001994,0.000002,-4.128668,-0.120530,6.370389,0.233462,-0.013955,0.017698,-0.000000,-0.059426,0.000000,-0.002848,-0.000000,0.000000,-5.343621,-8.566519,-0.881513,-0.420756,-0.137812,-0.008180,0.086726,0.195561,1.322726,4
574140440730896,-4.110973,-0.109483,6.352033,0.215770,-0.001994,0.000002,-4.128768,-0.120630,6.370489,0.233562,-0.014040,0.017798,-0.000000,-0.060218,-0.005546,-0.003797,-0.000000,0.000000,-5.468305,-7.825396,-0.545250,-0.500751,-0.086242,-0.008227,0.086689,0.195615,1.322718,4
574140441729899,-4.110973,-0.109543,6.352035,0.215774,-0.001994,0.000002,-4.128868,-0.120730,6.370589,0.233662,-0.014125,0.017898,-0.000000,-0.059426,0.002377,0.003797,-0.000000,0.000000,-5.390123,-8.707685,-0.932909,-0.425499,-0.144949,-0.008316,0.086655,0.195664,1.322712,4
574140442728108,-4.110976,-0.109609,6.352035,0.215773,-0.001994,0.000000,-4.128968,-0.120830,6.370689,0.233762,-0.014211,0.017998,-0.000000,-0.061011,0.000000,-0.000000,-0.000000,0.000000,-5.510373,-7.966561,-0.636028,-0.493914,-0.101759,-0.008323,0.086617,0.195720,1.322704,4
574140443727716,-4.110975,-0.109672,6.352033,0.215771,-0.001993,0.000000,-4.129068,-0.120930,6.370789,0.233862,-0.014297,0.018098,-0.000000,-0.062595,-0.002377,-0.000000,-0.000000,0.000000,-5.640091,-7.197422,-0.324739,-0.570830,-0.056137,-0.008378,0.086580,0.195774,1.322697,4
574140444739793,-4.110973,-0.109734,6.352034,0.215771,-0.001993,0.000000,-4.129168,-0.121030,6.370889,0.233962,-0.014382,0.018198,-0.000000,-0.062595,0.000000,-0.000000,-0.000000,0.000000,-5.642882,-7.393623,-0.412657,-0.554678,-0.069661,-0.008402,0.086544,0.195826,1.322690,4
574140445736565,-4.110975,-0.109798,6.352034,0.215773,-0.001993,0.000000,-4.129268,-0.121130,6.370989,0.234062,-0.014468,0.018298,-0.000000,-0.064180,0.000000,-0.000000,-0.000000,0.000000,-5.745927,-6.822788,-0.199259,-0.609337,-0.039532,-0.008448,0.086507,0.195880,1.322683,4
574140446735103,-4.110974,-0.109860,6.352035,0.215769,-0.001993,0.000001,-4.129368,-0.121230,6.371089,0.234162,-0.014554,0.018398,-0.000000,-0.061803,0.000000,-0.003797,-0.000000,0.000000,-5.653337,-7.702465,-0.509248,-0.533705,-0.082318,-0.008409,0.086472,0.195932,1.322676,4
574140447734842,-4.110976,-0.109924,6.352037,0.215772,-0.001994,-0.000001,-4.129468,-0.121330,6.371189,0.234262,-0.014640,0.018498,-0.000000,-0.063388,0.002377,0.002848,-0.000000,0.000000,-5.746831,-7.270080,-0.365192,-0.581627,-0.062997,-0.008528,0.086436,0.195985,1.322669,4
574140448730446,-4.110975,-0.109989,6.352039,0.215768,-0.001995,-0.000001,-4.129568,-0.121430,6.371289,0.234362,-0.014726,0.018598,-0.000000,-0.065765,0.000000,-0.003797,-0.000000,0.000000,-5.897173,-6.279575,0.017637,-0.667092,-0.008206,-0.008509,0.086398,0.196039,1.322662,4
574140449730520,-4.110977,-0.110052,6.352043,0.215771,-0.001993,0.000000,-4.129668,-0.121530,6.371389,0.234462,-0.014812,0.018698,-0.000000,-0.062595,0.003962,0.002848,-0.000000,0.000000,-5.750366,-7.669930,-0.508654,-0.555220,-0.083052,-0.008577,0.086364,0.196090,1.322655,4
574140450731059,-4.110974,-0.110116,6.352045,0.215769,-0.001996,0.000000,-4.129768,-0.121630,6.371489,0.234562,-0.014898,0.018798,0.002377,-0.064180,0.002377,-0.000000,-0.002848,0.000000,-5.953604,-6.833313,-0.183352,-0.644635,-0.033689,-0.008714,0.086327,0.196143,1.322648,4
574140451722889,-4.110976,-0.110180,6.352050,0.215767,-0.001996,0.000002,-4.129868,-0.121730,6.371589,0.234662,-0.014985,0.018898,-0.000000,-0.063388,0.004754,-0.000000,-0.000000,0.000000,-5.829242,-7.473542,-0.433109,-0.577244,-0.072419,-0.008609,0.086292,0.196194,1.322641,4
574140452723665,-4.110976,-0.110245,6.352052,0.215767,-0.001998,-0.000002,-4.129968,-0.121830,6.371689,0.234762,-0.015071,0.018998,-0.000000,-0.064972,0.002377,-0.000000,-0.000000,-0.003797,-5.959433,-6.700127,-0.120844,-0.654389,-0.026672,-0.008642,0.086255,0.196248,1.322634,4
574140453732417,-4.110975,-0.110304,6.352058,0.215767,-0.001995,0.000002,-4.130068,-0.121930,6.371789,0.234862,-0.015158,0.019098,-0.000000,-0.059426,0.006339,-0.000000,0.002848,0.003797,-5.681253,-9.024797,-0.991536,-0.451577,-0.151766,-0.008648,0.086223,0.196295,1.322628,4
574140454731138,-4.110975,-0.110366,6.352061,0.215766,-0.001995,-0.000001,-4.130168,-0.122030,6.371889,0.234962,-0.015244,0.019198,-0.000000,-0.061803,0.002377,-0.000000,-0.000000,-0.002848,-5.866343,-7.835822,-0.510261,-0.568294,-0.079549,-0.008678,0.086188,0.196346,1.322621,4
574140455732960,-4.110977,-0.110425,6.352065,0.215767,-0.001998,0.000000,-4.130268,-0.122130,6.371989,0.235062,-0.015331,0.019298,-0.000000,-0.059426,0.003962,-0.000000,-0.002848,0.000000,-5.765861,-8.810707,-0.865790,-0.487422,-0.127709,-0.008697,0.086155,0.196394,1.322614,4
574140456730687,-4.110974,-0.110487,6.352072,0.215766,-0.001996,0.000000,-4.130368,-0.122230,6.372089,0.235162,-0.015418,0.019398,0.002377,-0.061803,0.007131,-0.000000,-0.000000,0.000000,-5.955436,-8.104203,-0.643015,-0.558617,-0.099744,-0.008858,0.086121,0.196443,1.322608,4
574140457729884,-4.110977,-0.110548,6.352073,0.215767,-0.001997,0.000001,-4.130468,-0.122330,6.372189,0.235262,-0.015504,0.019498,-0.002377,-0.061011,0.000000,-0.000000,-0.000000,0.000000,-5.850584,-8.081533,-0.545599,-0.556945,-0.081826,-0.008669,0.086086,0.196494,1.322601,4
574140458730698,-4.110977,-0.110608,6.352078,0.215768,-0.001998,-0.000001,-4.130568,-0.122430,6.372289,0.235362,-0.015591,0.019598,-0.000000,-0.060218,0.005546,-0.000000,-0.000000,0.000000,-5.866170,-8.691937,-0.818027,-0.510571,-0.122544,-0.008790,0.086053,0.196543,1.322594,4
574140459683954,-4.110976,-0.110668,6.352081,0.215767,-0.001994,0.000002,-4.130668,-0.122530,6.372389,0.235462,-0.015678,0.019698,-0.000000,-0.060218,0.003169,-0.000000,0.003797,0.002848,-5.917747,-8.514371,-0.722525,-0.535908,-0.109274,-0.008845,0.086020,0.196591,1.322588,4
574140460729329,-4.110976,-0.110729,6.352083,0.215767,-0.001999,0.000000,-4.130768,-0.122630,6.372489,0.235562,-0.015765,0.019798,-0.000000,-0.060218,0.000000,-0.000000,-0.004746,0.000000,-5.986176,-8.214332,-0.563074,-0.575854,-0.078624,-0.008874,0.085985,0.196642,1.322581,4
574140461730503,-4.110975,-0.110790,6.352084,0.215769,-0.001997,0.000000,-4.130868,-0.122730,6.372589,0.235662,-0.015852,0.019898,-0.000000,-0.061011,0.000000,-0.000000,-0.000000,0.000000,-6.048395,-7.956530,-0.466126,-0.602833,-0.067640,-0.008911,0.085950,0.196693,1.322574,4
574140462729861,-4.110977,-0.110849,6.352086,0.215767,-0.001996,-0.000001,-4.130968,-0.122830,6.372689,0.235762,-0.015940,0.019998,-0.000000,-0.061803,0.000000,-0.000000,-0.000000,-0.002848,-6.111953,-7.685474,-0.360272,-0.631664,-0.052432,-0.008932,0.085917,0.196742,1.322568,4
574140463731952,-4.110976,-0.110915,6.352086,0.215767,-0.001996,0.000000,-4.131068,-0.122930,6.372789,0.235862,-0.016027,0.020098,-0.000000,-0.061803,0.000000,-0.000000,-0.000000,0.000000,-6.142809,-7.669190,-0.345387,-0.638893,-0.049787,-0.008980,0.085878,0.196797,1.322560,4
574140464728140,-4.110977,-0.110980,6.352087,0.215768,-0.001997,0.000000,-4.131168,-0.123030,6.372889,0.235962,-0.016114,0.020198,-0.000000,-0.064972,0.000000,-0.000000,-0.000000,0.000000,-6.320676,-6.534350,0.069740,-0.741949,0.008292,-0.009042,0.085841,0.196852,1.322553,4
574140465728407,-4.110977,-0.111045,6.352087,0.215768,-0.001995,-0.000001,-4.131268,-0.123130,6.372989,0.236062,-0.016202,0.020298,-0.000000,-0.064972,0.000000,-0.000000,-0.000000,0.000000,-6.350842,-6.521517,0.083372,-0.748820,0.010743,-0.009073,0.085804,0.196906,1.322545,4
574140466742488,-4.110976,-0.111108,6.352088,0.215767,-0.001996,0.000001,-4.131368,-0.123230,6.373089,0.236162,-0.016289,0.020398,-0.000000,-0.063388,0.000000,-0.000000,-0.000000,0.000000,-6.306402,-7.076043,-0.106125,-0.707041,-0.014922,-0.009089,0.085767,0.196959,1.322538,4
574140467729142,-4.110977,-0.111172,6.352085,0.215770,-0.001995,0.000001,-4.131468,-0.123330,6.373189,0.236262,-0.016377,0.020498,-0.000000,-0.064180,-0.002377,0.002848,-0.000000,0.000000,-6.407239,-6.553679,0.119965,-0.767239,0.019214,-0.009172,0.085729,0.197015,1.322531,4
574140468732974,-4.110977,-0.111240,6.352084,0.215767,-0.001995,0.000000,-4.131568,-0.123430,6.373289,0.236362,-0.016465,0.020598,-0.000000,-0.067349,0.000000,-0.002848,-0.000000,0.000000,-6.545341,-5.666776,0.413756,-0.835100,0.057955,-0.009155,0.085690,0.197072,1.322523,4
574140469731309,-4.110978,-0.111306,6.352081,0.215766,-0.001995,0.000000,-4.131668,-0.123530,6.373389,0.236462,-0.016552,0.020698,-0.000000,-0.066557,-0.003169,-0.000000,-0.000000,0.000000,-6.581872,-5.630523,0.474809,-0.855245,0.069879,-0.009224,0.085651,0.197129,1.322515,4
574140470729918,-4.110977,-0.111374,6.352083,0.215769,-0.001994,-0.000001,-4.131768,-0.123630,6.373489,0.236562,-0.016640,0.020798,-0.000000,-0.068142,0.002377,0.002848,-0.000000,0.000000,-6.633917,-5.485541,0.476282,-0.865969,0.066479,-0.009288,0.085611,0.197186,1.322508,4
574140471731253,-4.110977,-0.111441,6.352084,0.215768,-0.001996,-0.000001,-4.131868,-0.123730,6.373589,0.236662,-0.016728,0.020898,-0.000000,-0.066557,0.000000,-0.000000,-0.000000,0.000000,-6.609462,-5.857489,0.375734,-0.840494,0.054747,-0.009277,0.085573,0.197242,1.322500,4
574140472730626,-4.110977,-0.111508,6.352084,0.215766,-0.001997,0.000000,-4.131968,-0.123830,6.373689,0.236762,-0.016816,0.020998,-0.000000,-0.066557,0.000000,-0.002848,-0.000000,0.000000,-6.633254,-5.867377,0.378154,-0.841021,0.055361,-0.009274,0.085535,0.197298,1.322492,4
574140473730889,-4.110977,-0.111575,6.352084,0.215765,-0.001996,-0.000001,-4.132068,-0.123930,6.373789,0.236862,-0.016905,0.021098,-0.000000,-0.067349,0.000000,-0.003797,-0.000000,0.000000,-6.699097,-5.575617,0.490468,-0.870319,0.071380,-0.009301,0.085496,0.197354,1.322485,4
574140474727669,-4.110977,-0.111642,6.352086,0.215768,-0.001997,-0.000001,-4.132168,-0.124030,6.373889,0.236962,-0.016993,0.021198,-0.000000,-0.067349,0.000000,0.002848,-0.000000,0.000000,-6.748002,-5.487928,0.537908,-0.893954,0.079259,-0.009415,0.085457,0.197411,1.322477,4
574140475727983,-4.110979,-0.111709,6.352088,0.215765,-0.001995,0.000001,-4.132268,-0.124130,6.373989,0.237062,-0.017081,0.021298,-0.002377,-0.066557,0.000000,-0.002848,-0.000000,0.000000,-6.638481,-5.958953,0.372107,-0.837936,0.055245,-0.009249,0.085420,0.197465,1.322470,4
574140476736706,-4.110979,-0.111779,6.352087,0.215766,-0.001996,-0.000001,-4.132368,-0.124230,6.374089,0.237162,-0.017170,0.021398,-0.000000,-0.069726,0.000000,-0.000000,-0.000000,0.000000,-6.914274,-4.628342,0.860413,-0.974659,0.124757,-0.009465,0.085379,0.197525,1.322462,4
574140477731229,-4.110977,-0.111842,6.352090,0.215764,-0.001996,-0.000001,-4.132468,-0.124330,6.374189,0.237262,-0.017258,0.021498,-0.000000,-0.063388,0.003169,-0.000000,-0.000000,0.000000,-6.612655,-7.136954,-0.064332,-0.758416,-0.005332,-0.009423,0.085344,0.197577,1.322455,4
574140478731880,-4.110977,-0.111908,6.352092,0.215765,-0.001995,-0.000002,-4.132568,-0.124430,6.374289,0.237362,-0.017347,0.021598,-0.000000,-0.066557,0.000000,-0.000000,-0.000000,0.000000,-6.826904,-5.728818,0.484046,-0.891792,0.073749,-0.009497,0.085306,0.197632,1.322447,4
574140479736402,-4.110978,-0.111972,6.352095,0.215766,-0.001999,0.000000,-4.132668,-0.124530,6.374389,0.237462,-0.017436,0.021698,-0.000000,-0.063388,0.003169,-0.000000,-0.003797,0.000000,-6.675077,-7.098831,-0.029767,-0.773871,0.003006,-0.009487,0.085269,0.197685,1.322440,4
574140480744832,-4.110979,-0.112035,6.352093,0.215767,-0.001997,0.000000,-4.132768,-0.124630,6.374489,0.237562,-0.017525,0.021798,-0.000000,-0.063388,0.000000,-0.000000,-0.000000,0.000000,-6.737334,-6.839557,0.104486,-0.808016,0.022338,-0.009528,0.085233,0.197739,1.322432,4
574140481731139,-4.110978,-0.112099,6.352098,0.215765,-0.001998,0.000000,-4.132868,-0.124730,6.374589,0.237662,-0.017613,0.021898,-0.000000,-0.064180,0.004754,-0.000000,-0.000000,0.000000,-6.751152,-6.954466,0.018433,-0.793567,0.007133,-0.009550,0.085197,0.197790,1.322425,4
574140482730344,-4.110978,-0.112165,6.352099,0.215765,-0.001997,0.000002,-4.132968,-0.124830,6.374689,0.237762,-0.017702,0.021998,-0.000000,-0.065765,0.000000,-0.000000,-0.000000,0.000000,-6.908727,-5.976142,0.430861,-0.893511,0.068668,-0.009614,0.085159,0.197845,1.322418,4
574140483732036,-4.110978,-0.112230,6.352102,0.215764,-0.001997,0.000001,-4.133068,-0.124930,6.374789,0.237862,-0.017791,0.022098,-0.000000,-0.064972,0.002377,-0.000000,-0.000000,0.000000,-6.875299,-6.447808,0.244010,-0.853618,0.041424,-0.009629,0.085123,0.197899,1.322411,4
574140484687395,-4.110979,-0.112291,6.352103,0.215764,-0.001997,0.000000,-4.133168,-0.125030,6.374889,0.237962,-0.017881,0.022198,-0.000000,-0.061011,0.000000,-0.000000,-0.000000,0.000000,-6.744767,-7.653192,-0.151736,-0.761099,-0.010900,-0.009629,0.085088,0.197950,1.322404,4
574140485684497,-4.110979,-0.112355,6.352105,0.215767,-0.001996,-0.000001,-4.133268,-0.125130,6.374989,0.238062,-0.017970,0.022298,-0.000000,-0.064180,0.002377,0.002848,-0.000000,0.000000,-6.903721,-6.694166,0.176656,-0.848410,0.033538,-0.009718,0.085051,0.198003,1.322396,4
574140486728916,-4.110981,-0.112419,6.352104,0.215768,-0.001995,0.000002,-4.133368,-0.125230,6.375089,0.238162,-0.018059,0.022398,-0.000000,-0.063388,0.000000,-0.000000,0.002848,0.002848,-6.913075,-6.807739,0.166355,-0.844614,0.032503,-0.009729,0.085014,0.198057,1.322389,4
574140487714830,-4.110977,-0.112482,6.352105,0.215765,-0.001996,0.000000,-4.133468,-0.125330,6.375189,0.238262,-0.018148,0.022498,-0.000000,-0.065765,0.000000,-0.000000,-0.000000,-0.003797,-7.056509,-5.945592,0.486242,-0.924937,0.079198,-0.009747,0.084978,0.198110,1.322382,4
574140488732253,-4.110979,-0.112549,6.352107,0.215768,-0.001994,0.000003,-4.133568,-0.125430,6.375289,0.238362,-0.018238,0.022598,-0.000000,-0.066557,0.000000,0.002848,-0.000000,0.002848,-7.131640,-5.619616,0.614837,-0.963076,0.097876,-0.009860,0.084940,0.198165,1.322374,4
574140489731913,-4.110979,-0.112618,6.352104,0.215766,-0.001996,0.000000,-4.133668,-0.125530,6.375389,0.238462,-0.018327,0.022698,-0.000000,-0.068142,-0.002377,-0.000000,-0.000000,0.000000,-7.257661,-4.854147,0.921711,-1.035268,0.142609,-0.009864,0.084899,0.198225,1.322366,4
574140490729263,-4.110981,-0.112684,6.352105,0.215768,-0.001993,0.000001,-4.133768,-0.125630,6.375489,0.238562,-0.018417,0.022798,-0.002377,-0.068142,0.000000,-0.000000,0.002848,0.000000,-7.171684,-5.201978,0.777087,-0.993062,0.118427,-0.009766,0.084862,0.198280,1.322359,4
574140491730495,-4.110980,-0.112751,6.352106,0.215765,-0.001993,0.000000,-4.133868,-0.125730,6.375589,0.238662,-0.018507,0.022898,-0.000000,-0.065765,0.000000,-0.002848,-0.000000,0.000000,-7.174384,-5.894018,0.537633,-0.948028,0.088306,-0.009859,0.084824,0.198335,1.322351,4
574140492731228,-4.110981,-0.112819,6.352106,0.215764,-0.001994,-0.000002,-4.133968,-0.125830,6.375689,0.238762,-0.018597,0.022998,-0.000000,-0.068142,0.000000,-0.000000,-0.000000,0.000000,-7.324725,-4.999307,0.869930,-1.034938,0.135235,-0.009949,0.084784,0.198393,1.322343,4
574140493730653,-4.110981,-0.112886,6.352104,0.215766,-0.001996,-0.000001,-4.134068,-0.125930,6.375789,0.238862,-0.018687,0.023098,-0.000000,-0.067349,0.000000,-0.000000,-0.000000,0.000000,-7.319719,-5.257023,0.786971,-1.018722,0.124361,-0.009973,0.084744,0.198451,1.322335,4
574140494730157,-4.110981,-0.112954,6.352107,0.215765,-0.001995,0.000001,-4.134168,-0.126030,6.375889,0.238962,-0.018777,0.023198,-0.000000,-0.067349,0.002377,-0.000000,-0.000000,0.000000,-7.324428,-5.439279,0.703769,-1.003643,0.111472,-0.009996,0.084707,0.198506,1.322328,4
574140495720558,-4.110980,-0.113019,6.352107,0.215765,-0.001995,0.000001,-4.134268,-0.126130,6.375989,0.239062,-0.018867,0.023298,-0.000000,-0.064972,0.000000,-0.000000,-0.000000,0.000000,-7.271010,-6.066783,0.514913,-0.960850,0.087825,-0.010013,0.084669,0.198561,1.322320,4
574140496746302,-4.110981,-0.113085,6.352108,0.215765,-0.001997,0.000001,-4.134368,-0.126230,6.376089,0.239162,-0.018957,0.023398,-0.000000,-0.066557,0.000000,-0.000000,-0.000000,0.000000,-7.375933,-5.488584,0.730694,-1.016170,0.118301,-0.010059,0.084630,0.198617,1.322312,4
574140497682826,-4.110981,-0.113148,6.352109,0.215765,-0.001996,0.000001,-4.134468,-0.126330,6.376189,0.239262,-0.019047,0.023498,-0.000000,-0.062595,0.000000,-0.000000,-0.000000,0.000000,-7.219940,-6.889288,0.238338,-0.901778,0.050670,-0.010051,0.084595,0.198669,1.322305,4
574140498682991,-4.110981,-0.113211,6.352111,0.215767,-0.001997,0.000001,-4.134568,-0.126430,6.376289,0.239362,-0.019138,0.023598,-0.000000,-0.063388,0.000000,-0.000000,-0.000000,0.000000,-7.286645,-6.602613,0.349816,-0.932161,0.066696,-0.010090,0.084558,0.198722,1.322298,4
574140499732724,-4.110982,-0.113275,6.352113,0.215765,-0.001997,0.000001,-4.134668,-0.126530,6.376389,0.239462,-0.019228,0.023698,-0.000000,-0.064180,0.002377,-0.000000,-0.000000,0.000000,-7.326825,-6.515647,0.362969,-0.940156,0.067159,-0.010120,0.084522,0.198775,1.322291,4
574140500731832,-4.110981,-0.113338,6.352114,0.215764,-0.001997,0.000000,-4.134768,-0.126630,6.376489,0.239562,-0.019318,0.023798,-0.000000,-0.064180,0.004754,-0.002848,-0.000000,0.000000,-7.322480,-6.741612,0.261262,-0.917013,0.051420,-0.010108,0.084486,0.198827,1.322283,4
574140501724833,-4.110982,-0.113401,6.352115,0.215765,-0.001995,-0.000002,-4.134868,-0.126730,6.376589,0.239662,-0.019409,0.023898,-0.000000,-0.063388,0.000000,-0.000000,-0.000000,0.000000,-7.375278,-6.586349,0.382114,-0.950772,0.072867,-0.010183,0.084450,0.198879,1.322276,4
574140502726374,-4.110984,-0.113466,6.352117,0.215765,-0.001996,0.000000,-4.134968,-0.126830,6.376689,0.239762,-0.019500,0.023998,-0.003962,-0.061803,0.000000,-0.000000,0.002848,0.000000,-7.182894,-7.396479,0.098714,-0.865784,0.030741,-0.010000,0.084414,0.198933,1.322269,4
574140503732084,-4.110983,-0.113529,6.352121,0.215764,-0.001998,-0.000001,-4.135068,-0.126930,6.376789,0.239862,-0.019590,0.024098,-0.000000,-0.062595,0.003962,-0.000000,-0.000000,0.000000,-7.353438,-7.190292,0.138895,-0.901841,0.037129,-0.010223,0.084378,0.198985,1.322262,4
574140504730566,-4.110983,-0.113591,6.352123,0.215764,-0.001997,-0.000002,-4.135168,-0.127030,6.376889,0.239962,-0.019681,0.024198,-0.000000,-0.062595,0.000000,-0.000000,-0.000000,0.000000,-7.426795,-6.852632,0.313042,-0.945123,0.065016,-0.010268,0.084343,0.199036,1.322255,4
574140505730287,-4.110981,-0.113652,6.352123,0.215764,-0.001997,0.000001,-4.135268,-0.127130,6.376989,0.240062,-0.019772,0.024298,-0.000000,-0.061011,0.000000,-0.000000,-0.000000,0.002848,-7.382037,-7.415346,0.120602,-0.902748,0.038948,-0.010301,0.084307,0.199088,1.322247,4
574140506730719,-4.110982,-0.113717,6.352126,0.215764,-0.001997,0.000002,-4.135368,-0.127230,6.377089,0.240162,-0.019863,0.024398,-0.000000,-0.064972,0.003169,-0.000000,-0.000000,0.000000,-7.561841,-6.270062,0.503539,-0.999797,0.089990,-0.010343,0.084271,0.199141,1.322240,4
574140507729205,-4.110983,-0.113782,6.352126,0.215765,-0.001996,0.000000,-4.135468,-0.127330,6.377189,0.240262,-0.019954,0.024498,-0.000000,-0.064180,0.000000,-0.000000,-0.000000,0.000000,-7.590146,-6.273443,0.546943,-1.012142,0.099139,-0.010377,0.084234,0.199195,1.322233,4
574140508731386,-4.110983,-0.113845,6.352127,0.215765,-0.001998,0.000001,-4.135568,-0.127430,6.377289,0.240362,-0.020045,0.024598,-0.000000,-0.063388,0.000000,-0.000000,-0.000000,0.000000,-7.583026,-6.547764,0.457722,-0.994414,0.087379,-0.010400,0.084197,0.199248,1.322225,4
574140509732779,-4.110983,-0.113906,6.352127,0.215764,-0.001999,-0.000002,-4.135668,-0.127530,6.377389,0.240462,-0.020137,0.024698,-0.000000,-0.061011,0.000000,-0.000000,-0.000000,-0.002848,-7.500775,-7.391607,0.164761,-0.927823,0.047393,-0.010391,0.084162,0.199300,1.322218,4
574140510687449,-4.110983,-0.113969,6.352129,0.215765,-0.001996,0.000001,-4.135768,-0.127630,6.377489,0.240562,-0.020228,0.024798,-0.000000,-0.063388,0.000000,-0.000000,0.002848,0.002848,-7.639741,-6.556266,0.470018,-1.004730,0.088429,-0.010478,0.084126,0.199352,1.322211,4
574140511687018,-4.110984,-0.114033,6.352126,0.215766,-0.001998,-0.000001,-4.135868,-0.127730,6.377589,0.240662,-0.020319,0.024898,-0.000000,-0.063388,-0.002377,-0.000000,-0.000000,0.000000,-7.698060,-6.334098,0.588096,-1.035313,0.109125,-0.010502,0.084088,0.199407,1.322203,4
574140512709340,-4.110982,-0.114097,6.352127,0.215764,-0.001997,-0.000001,-4.135968,-0.127830,6.377689,0.240762,-0.020411,0.024998,-0.000000,-0.064180,0.000000,-0.000000,-0.000000,0.000000,-7.739476,-6.244384,0.602412,-1.043720,0.109766,-0.010533,0.084052,0.199461,1.322196,4
574140513728259,-4.110985,-0.114160,6.352128,0.215765,-0.001996,0.000000,-4.136068,-0.127930,6.377789,0.240862,-0.020502,0.025098,-0.000000,-0.065765,0.000000,-0.000000,-0.000000,0.000000,-7.842546,-5.678020,0.814044,-1.097980,0.139646,-0.010578,0.084016,0.199513,1.322189,4
574140514727601,-4.110985,-0.114224,6.352126,0.215764,-0.001996,0.000002,-4.136168,-0.128030,6.377889,0.240962,-0.020594,0.025198,-0.000000,-0.063388,0.000000,-0.000000,-0.000000,0.000000,-7.761757,-6.511982,0.524796,-1.032304,0.100181,-0.010586,0.083979,0.199567,1.322181,4
574140515727932,-4.110985,-0.114288,6.352127,0.215764,-0.001997,0.000002,-4.136268,-0.128130,6.377989,0.241062,-0.020686,0.025298,-0.000000,-0.064180,0.000000,-0.000000,-0.000000,0.000000,-7.829092,-6.222144,0.637448,-1.062950,0.116375,-0.010625,0.083942,0.199621,1.322174,4
574140516730685,-4.110984,-0.114352,6.352130,0.215764,-0.001997,0.000003,-4.136368,-0.128230,6.378089,0.241162,-0.020778,0.025398,-0.000000,-0.062595,0.002377,-0.000000,-0.000000,0.002848,-7.759161,-6.976265,0.349605,-0.998960,0.075161,-0.010650,0.083905,0.199674,1.322166,4
574140517694678,-4.110986,-0.114415,6.352127,0.215764,-0.001996,0.000000,-4.136468,-0.128330,6.378189,0.241262,-0.020869,0.025498,-0.002377,-0.062595,-0.002377,-0.000000,-0.000000,-0.002848,-7.752989,-6.717712,0.504950,-1.024720,0.100105,-0.010545,0.083869,0.199728,1.322159,4
574140518684637,-4.110985,-0.114476,6.352130,0.215764,-0.001996,-0.000001,-4.136568,-0.128430,6.378289,0.241362,-0.020961,0.025598,-0.000000,-0.061803,0.002377,-0.000000,-0.000000,0.000000,-7.780566,-7.252564,0.268792,-0.986819,0.065131,-0.010687,0.083834,0.199779,1.322152,4
574140519737484,-4.110986,-0.114540,6.352130,0.215764,-0.001997,0.000000,-4.136668,-0.128530,6.378389,0.241462,-0.021053,0.025698,-0.000000,-0.063388,0.000000,-0.000000,-0.000000,0.000000,-7.910709,-6.484319,0.579358,-1.063606,0.110657,-0.010741,0.083797,0.199832,1.322144,4
574140520731710,-4.110986,-0.114599,6.352130,0.215764,-0.001996,0.000000,-4.136768,-0.128630,6.378489,0.241562,-0.021146,0.025798,-0.000000,-0.062595,0.000000,-0.000000,-0.000000,0.000000,-7.901909,-6.771847,0.485573,-1.044766,0.098251,-0.010764,0.083763,0.199882,1.322137,4
574140521683932,-4.110987,-0.114661,6.352131,0.215763,-0.001999,0.000001,-4.136868,-0.128730,6.378589,0.241662,-0.021238,0.025898,-0.000000,-0.061803,0.000000,-0.000000,-0.002848,0.000000,-7.895634,-7.040678,0.400733,-1.027993,0.088896,-0.010788,0.083727,0.199934,1.322130,4
574140522722895,-4.110988,-0.114725,6.352134,0.215760,-0.001998,0.000002,-4.136968,-0.128830,6.378689,0.241762,-0.021330,0.025998,-0.002377,-0.061011,0.002377,-0.004746,-0.000000,0.000000,-7.759511,-7.723903,0.130697,-0.949601,0.046806,-0.010625,0.083692,0.199986,1.322123,4
574140523683083,-4.110988,-0.114787,6.352134,0.215763,-0.002000,0.000001,-4.137068,-0.128930,6.378789,0.241862,-0.021422,0.026098,-0.000000,-0.061803,0.000000,0.002848,-0.000000,0.000000,-7.960531,-7.016482,0.427608,-1.045471,0.092292,-0.010884,0.083655,0.200039,1.322115,4
574140524682671,-4.110988,-0.114844,6.352136,0.215764,-0.001997,0.000003,-4.137168,-0.129030,6.378889,0.241962,-0.021515,0.026198,-0.000000,-0.060218,0.000000,-0.000000,-0.000000,0.002848,-7.905832,-7.624084,0.215923,-0.994738,0.063212,-0.010880,0.083623,0.200086,1.322109,4
574140525682977,-4.110989,-0.114909,6.352138,0.215760,-0.002001,0.000000,-4.137268,-0.129130,6.378989,0.242062,-0.021607,0.026298,-0.000000,-0.061011,0.002377,-0.000000,-0.000000,0.000000,-7.946413,-7.534902,0.229860,-1.002869,0.063816,-0.010893,0.083587,0.200139,1.322101,4
574140526682870,-4.110989,-0.114969,6.352140,0.215763,-0.002000,0.000000,-4.137368,-0.129230,6.379089,0.242162,-0.021700,0.026398,-0.000000,-0.061803,0.000000,-0.000000,-0.000000,0.000000,-8.037923,-7.061681,0.434775,-1.054414,0.094693,-0.010940,0.083553,0.200189,1.322094,4
574140527683161,-4.110988,-0.115030,6.352142,0.215763,-0.002001,0.000002,-4.137468,-0.129330,6.379189,0.242262,-0.021793,0.026498,-0.000000,-0.061803,0.002377,-0.000000,-0.000000,0.000000,-8.040933,-7.262909,0.344816,-1.037832,0.080897,-0.010963,0.083517,0.200240,1.322087,4
574140528682901,-4.110988,-0.115091,6.352145,0.215764,-0.002001,0.000002,-4.137568,-0.129430,6.379289,0.242362,-0.021885,0.026598,-0.000000,-0.061011,0.002377,-0.000000,-0.000000,0.000000,-8.032738,-7.547131,0.251859,-1.019254,0.068596,-0.010987,0.083483,0.200291,1.322080,4
574140529683017,-4.110991,-0.115153,6.352145,0.215762,-0.001999,0.000001,-4.137668,-0.129530,6.379389,0.242462,-0.021978,0.026698,-0.002377,-0.061803,0.000000,-0.002848,-0.000000,0.000000,-8.028833,-7.242876,0.393455,-1.039289,0.089368,-0.010879,0.083448,0.200342,1.322073,4
574140530682809,-4.110989,-0.115214,6.352146,0.215764,-0.002001,0.000001,-4.137768,-0.129630,6.379489,0.242562,-0.022071,0.026798,-0.000000,-0.061011,0.000000,-0.000000,-0.000000,0.000000,-8.117244,-7.347914,0.367783,-1.053056,0.087745,-0.011056,0.083412,0.200394,1.322066,4
574140531682872,-4.110990,-0.115274,6.352147,0.215764,-0.002000,0.000001,-4.137868,-0.129730,6.379589,0.242662,-0.022164,0.026898,-0.000000,-0.060218,0.000000,-0.000000,-0.000000,0.000000,-8.108456,-7.634963,0.273892,-1.034197,0.075308,-0.011079,0.083378,0.200444,1.322059,4
574140532682652,-4.110992,-0.115337,6.352146,0.215763,-0.002000,0.000000,-4.137968,-0.129830,6.379689,0.242762,-0.022257,0.026998,-0.000000,-0.062595,0.000000,-0.000000,-0.000000,0.000000,-8.248772,-6.789204,0.585671,-1.112473,0.119082,-0.011132,0.083342,0.200497,1.322051,4
574140533682639,-4.110991,-0.115400,6.352146,0.215764,-0.001999,0.000001,-4.138068,-0.129930,6.379789,0.242862,-0.022350,0.027098,-0.000000,-0.063388,0.000000,-0.000000,-0.000000,0.000000,-8.316376,-6.501002,0.697837,-1.143085,0.135209,-0.011172,0.083305,0.200550,1.322044,4
574140534684882,-4.110992,-0.115462,6.352149,0.215763,-0.002002,0.000002,-4.138168,-0.130030,6.379889,0.242962,-0.022443,0.027198,-0.000000,-0.061803,0.002377,-0.000000,-0.002848,0.000000,-8.246766,-7.252240,0.413561,-1.079796,0.096307,-0.011180,0.083270,0.200601,1.322037,4
574140535724332,-4.110993,-0.115523,6.352147,0.215763,-0.002001,0.000001,-4.138268,-0.130130,6.379989,0.243062,-0.022536,0.027298,-0.000000,-0.061011,0.000000,-0.000000,-0.000000,0.000000,-8.263038,-7.345875,0.413427,-1.082140,0.096998,-0.011209,0.083235,0.200653,1.322029,4
574140536754376,-4.110992,-0.115588,6.352146,0.215762,-0.002000,0.000000,-4.138368,-0.130230,6.380089,0.243162,-0.022630,0.027398,-0.000000,-0.064972,0.000000,-0.000000,-0.000000,0.000000,-8.479787,-5.928050,0.929932,-1.209669,0.169140,-0.011280,0.083197,0.200708,1.322022,4
574140537743577,-4.110993,-0.115649,6.352147,0.215762,-0.002000,0.000003,-4.138468,-0.130330,6.380189,0.243262,-0.022723,0.027498,-0.000000,-0.061011,0.000000,-0.000000,-0.000000,0.002848,-8.323307,-7.335080,0.435304,-1.094748,0.101208,-0.011288,0.083162,0.200759,1.322014,4
574140538730809,-4.110992,-0.115717,6.352146,0.215764,-0.002001,0.000002,-4.138568,-0.130430,6.380289,0.243362,-0.022817,0.027598,-0.000000,-0.064180,0.000000,-0.000000,-0.000000,0.000000,-8.504472,-6.186674,0.855435,-1.199176,0.160020,-0.011335,0.083122,0.200817,1.322006,4
574140539730781,-4.110992,-0.115784,6.352146,0.215763,-0.002001,0.000001,-4.138668,-0.130530,6.380389,0.243462,-0.022910,0.027698,-0.000000,-0.066557,0.000000,-0.000000,-0.000000,0.000000,-8.647491,-5.325564,1.172702,-1.278886,0.204568,-0.011389,0.083083,0.200874,1.321998,4
574140540731361,-4.110996,-0.115849,6.352148,0.215764,-0.002000,-0.000001,-4.138768,-0.130630,6.380489,0.243562,-0.023004,0.027798,-0.003169,-0.064972,0.002377,-0.000000,-0.000000,0.000000,-8.458972,-6.276464,0.814607,-1.181265,0.152248,-0.011238,0.083047,0.200927,1.321991,4
574140541734434,-4.110995,-0.115915,6.352148,0.215764,-0.001999,0.000001,-4.138868,-0.130730,6.380589,0.243662,-0.023098,0.027898,-0.000000,-0.065765,0.000000,-0.000000,-0.000000,0.000000,-8.672124,-5.581758,1.098724,-1.268442,0.195472,-0.011443,0.083009,0.200982,1.321983,4
574140542686932,-4.110996,-0.115977,6.352147,0.215761,-0.001998,-0.000001,-4.138968,-0.130830,6.380689,0.243762,-0.023192,0.027998,-0.000000,-0.062595,0.000000,-0.002848,-0.000000,0.000000,-8.546350,-6.729675,0.693894,-1.171346,0.139671,-0.011407,0.082973,0.201035,1.321976,4
574140543730683,-4.110997,-0.116039,6.352148,0.215763,-0.002002,0.000000,-4.139068,-0.130930,6.380789,0.243862,-0.023286,0.028098,-0.000000,-0.061803,0.000000,-0.000000,-0.003797,0.000000,-8.548431,-6.965070,0.625069,-1.162099,0.133466,-0.011467,0.082937,0.201087,1.321968,4
574140544710571,-4.110996,-0.116105,6.352149,0.215762,-0.001998,0.000003,-4.139168,-0.131030,6.380889,0.243962,-0.023380,0.028198,-0.000000,-0.065765,0.000000,-0.000000,0.003797,0.002848,-8.760475,-5.579229,1.123168,-1.285391,0.198226,-0.011551,0.082900,0.201142,1.321961,4
574140545729159,-4.110998,-0.116167,6.352149,0.215763,-0.001999,-0.000001,-4.139268,-0.131130,6.380989,0.244062,-0.023474,0.028298,-0.000000,-0.063388,0.000000,-0.000000,-0.000000,0.000000,-8.680699,-6.405658,0.839705,-1.220953,0.161949,-0.011542,0.082864,0.201194,1.321953,4
574140546732006,-4.110999,-0.116232,6.352150,0.215763,-0.002001,0.000001,-4.139368,-0.131230,6.381089,0.244162,-0.023568,0.028398,-0.000000,-0.063388,0.000000,-0.002848,-0.000000,0.000000,-8.704054,-6.422997,0.839354,-1.220843,0.162195,-0.011538,0.082827,0.201248,1.321946,4
574140547727441,-4.111000,-0.116292,6.352153,0.215762,-0.002001,-0.000001,-4.139468,-0.131330,6.381189,0.244262,-0.023662,0.028498,-0.000000,-0.062595,0.000000,-0.000000,-0.000000,0.000000,-8.702873,-6.682133,0.758394,-1.208764,0.151862,-0.011596,0.082793,0.201298,1.321938,4
574140548731099,-4.111002,-0.116357,6.352156,0.215761,-0.002002,0.000001,-4.139568,-0.131430,6.381289,0.244362,-0.023756,0.028598,-0.003169,-0.061803,0.003962,-0.000000,-0.000000,0.000000,-8.533803,-7.486684,0.434760,-1.120241,0.103037,-0.011447,0.082757,0.201351,1.321931,4
574140549720866,-4.111002,-0.116418,6.352157,0.215763,-0.001999,0.000001,-4.139668,-0.131530,6.381389,0.244462,-0.023851,0.028698,-0.000000,-0.061011,0.000000,-0.000000,0.002848,0.000000,-8.686269,-7.250141,0.570111,-1.170987,0.125121,-0.011640,0.082722,0.201402,1.321924,4
574140550688002,-4.111002,-0.116480,6.352157,0.215762,-0.002002,0.000000,-4.139768,-0.131630,6.381489,0.244562,-0.023945,0.028798,-0.000000,-0.061803,0.000000,-0.000000,-0.002848,0.000000,-8.756637,-6.943943,0.693668,-1.204173,0.146448,-0.011681,0.082686,0.201454,1.321916,4
574140551683791,-4.111004,-0.116542,6.352157,0.215763,-0.002000,0.000001,-4.139868,-0.131730,6.381589,0.244662,-0.024040,0.028898,-0.000000,-0.062595,0.000000,-0.000000,-0.000000,0.000000,-8.821309,-6.672692,0.797229,-1.232667,0.159568,-0.011718,0.082651,0.201506,1.321909,4
574140552731976,-4.111004,-0.116606,6.352160,0.215764,-0.001999,-0.000001,-4.139968,-0.131830,6.381689,0.244762,-0.024134,0.028998,-0.000000,-0.063388,0.002377,-0.000000,-0.000000,0.000000,-8.862163,-6.588045,0.809554,-1.240600,0.159929,-0.011749,0.082615,0.201559,1.321902,4
574140553683165,-4.111005,-0.116666,6.352161,0.215764,-0.001999,-0.000002,-4.140068,-0.131930,6.381789,0.244862,-0.024229,0.029098,-0.000000,-0.062595,0.000000,-0.000000,-0.000000,0.000000,-8.879866,-6.674118,0.814353,-1.244100,0.163096,-0.011779,0.082581,0.201609,1.321894,4
574140554728613,-4.111006,-0.116728,6.352160,0.215763,-0.001999,0.000002,-4.140168,-0.132030,6.381889,0.244962,-0.024324,0.029198,-0.000000,-0.061803,0.000000,-0.000000,-0.000000,0.003797,-8.872456,-6.953653,0.723410,-1.225968,0.151098,-0.011824,0.082545,0.201661,1.321887,4
574140555730168,-4.111007,-0.116795,6.352162,0.215760,-0.002000,-0.000001,-4.140268,-0.132130,6.381989,0.245062,-0.024419,0.029298,-0.000000,-0.063388,0.000000,-0.000000,-0.000000,0.000000,-8.978340,-6.373876,0.939562,-1.281390,0.181622,-0.011848,0.082507,0.201717,1.321879,4
574140556730766,-4.111008,-0.116854,6.352161,0.215763,-0.001999,0.000000,-4.140368,-0.132230,6.382089,0.245162,-0.024513,0.029398,-0.000000,-0.062595,0.000000,0.002848,-0.000000,0.000000,-8.977378,-6.632810,0.859115,-1.269481,0.171384,-0.011906,0.082472,0.201767,1.321872,4
574140557729945,-4.111009,-0.116921,6.352160,0.215763,-0.001999,0.000000,-4.140468,-0.132330,6.382189,0.245262,-0.024608,0.029498,-0.000000,-0.064180,0.000000,-0.000000,-0.000000,0.000000,-9.075639,-6.081537,1.062528,-1.318170,0.199857,-0.011918,0.082434,0.201824,1.321864,4
574140558732906,-4.111009,-0.116984,6.352159,0.215763,-0.002000,0.000000,-4.140568,-0.132430,6.382289,0.245362,-0.024703,0.029598,-0.000000,-0.063388,0.000000,-0.000000,-0.000000,0.000000,-9.069394,-6.354741,0.973864,-1.300627,0.188190,-0.011941,0.082397,0.201878,1.321856,4
574140559737205,-4.111011,-0.117050,6.352160,0.215760,-0.002000,0.000002,-4.140668,-0.132530,6.382389,0.245462,-0.024799,0.029698,-0.002377,-0.065765,0.000000,-0.002848,-0.000000,0.000000,-9.114894,-5.676340,1.222567,-1.347601,0.221875,-0.011841,0.082360,0.201932,1.321848,4
574140560730229,-4.111011,-0.117115,6.352160,0.215762,-0.001997,0.000000,-4.140768,-0.132630,6.382489,0.245562,-0.024894,0.029798,-0.000000,-0.064972,0.000000,-0.000000,0.002848,0.000000,-9.204066,-5.779764,1.194965,-1.361002,0.218181,-0.012017,0.082322,0.201987,1.321841,4
574140561730390,-4.111014,-0.117178,6.352161,0.215762,-0.001999,0.000000,-4.140868,-0.132730,6.382589,0.245662,-0.024989,0.029898,-0.003169,-0.063388,0.000000,-0.000000,-0.000000,0.000000,-9.042972,-6.522396,0.940705,-1.286905,0.183971,-0.011875,0.082286,0.202040,1.321833,4
574140562730333,-4.111015,-0.117241,6.352160,0.215763,-0.002000,0.000002,-4.140968,-0.132830,6.382689,0.245762,-0.025085,0.029998,-0.000000,-0.062595,0.000000,-0.000000,-0.000000,0.000000,-9.154527,-6.600986,0.921632,-1.302672,0.183329,-0.012056,0.082250,0.202093,1.321825,4
574140563727941,-4.111015,-0.117310,6.352161,0.215764,-0.001997,0.000001,-4.141068,-0.132930,6.382789,0.245862,-0.025180,0.030098,-0.000000,-0.068934,0.000000,-0.000000,0.002848,0.000000,-9.481953,-4.341496,1.736615,-1.501775,0.294993,-0.012148,0.082210,0.202151,1.321817,4
574140564727517,-4.111015,-0.117375,6.352161,0.215761,-0.001999,0.000001,-4.141168,-0.133030,6.382889,0.245962,-0.025276,0.030198,-0.000000,-0.064972,0.000000,-0.002848,-0.000000,0.000000,-9.322716,-5.749911,1.240886,-1.382925,0.228425,-0.012106,0.082173,0.202205,1.321809,4
574140565741767,-4.111017,-0.117442,6.352162,0.215763,-0.001998,-0.000001,-4.141268,-0.133130,6.382989,0.246062,-0.025371,0.030298,-0.002377,-0.067349,0.000000,-0.000000,-0.000000,0.000000,-9.384233,-5.007701,1.518615,-1.444298,0.266751,-0.012077,0.082135,0.202261,1.321801,4
574140566723069,-4.111019,-0.117509,6.352161,0.215762,-0.001997,-0.000001,-4.141368,-0.133230,6.383089,0.246162,-0.025467,0.030398,-0.000000,-0.066557,0.000000,-0.000000,-0.000000,0.000000,-9.467958,-5.122102,1.486703,-1.452779,0.263969,-0.012218,0.082096,0.202318,1.321793,4
574140567724813,-4.111020,-0.117573,6.352162,0.215762,-0.001999,0.000000,-4.141468,-0.133330,6.383189,0.246262,-0.025563,0.030498,-0.000000,-0.064180,0.000000,-0.000000,-0.000000,0.000000,-9.387396,-5.956950,1.196739,-1.386935,0.224404,-0.012225,0.082060,0.202371,1.321786,4
574140568735946,-4.111022,-0.117637,6.352164,0.215763,-0.001998,0.000000,-4.141568,-0.133430,6.383289,0.246362,-0.025658,0.030598,-0.000000,-0.064180,0.000000,-0.000000,-0.000000,0.000000,-9.417805,-5.949615,1.208164,-1.393329,0.226564,-0.012256,0.082023,0.202425,1.321778,4
574140569741022,-4.111023,-0.117701,6.352163,0.215762,-0.001997,-0.000002,-4.141668,-0.133530,6.383389,0.246462,-0.025754,0.030698,-0.000000,-0.064180,0.000000,-0.000000,-0.000000,0.000000,-9.448763,-5.939949,1.220691,-1.399996,0.228895,-0.012286,0.081987,0.202479,1.321770,4
574140570730457,-4.111025,-0.117765,6.352165,0.215760,-0.001999,0.000001,-4.141768,-0.133630,6.383489,0.246562,-0.025850,0.030798,-0.002377,-0.063388,0.002377,-0.000000,-0.000000,0.002848,-9.326084,-6.566392,0.978635,-1.334334,0.192991,-0.012199,0.081951,0.202531,1.321763,4
574140571730648,-4.111025,-0.117830,6.352167,0.215760,-0.001998,0.000000,-4.141868,-0.133730,6.383589,0.246662,-0.025946,0.030898,-0.000000,-0.064972,0.000000,-0.000000,-0.000000,0.000000,-9.546743,-5.645032,1.343709,-1.436788,0.247106,-0.012355,0.081914,0.202585,1.321755,4
574140572732339,-4.111027,-0.117895,6.352168,0.215761,-0.001997,0.000001,-4.141968,-0.133830,6.383689,0.246762,-0.026043,0.030998,-0.000000,-0.064972,0.000000,-0.000000,-0.000000,0.000000,-9.577709,-5.634173,1.356489,-1.443511,0.249461,-0.012386,0.081877,0.202639,1.321747,4
574140573731511,-4.111028,-0.117955,6.352169,0.215759,-0.001999,0.000002,-4.142068,-0.133930,6.383789,0.246862,-0.026139,0.031098,-0.000000,-0.060218,0.000000,-0.000000,-0.000000,0.000000,-9.384222,-7.325751,0.759897,-1.304154,0.167419,-0.012369,0.081843,0.202689,1.321740,4
574140574731710,-4.111032,-0.118018,6.352172,0.215759,-0.002000,0.000003,-4.142168,-0.134030,6.383889,0.246962,-0.026235,0.031198,-0.003962,-0.063388,0.002377,-0.000000,-0.000000,0.000000,-9.386586,-6.647934,0.984718,-1.341952,0.195471,-0.012224,0.081808,0.202741,1.321733,4
574140575732461,-4.111034,-0.118079,6.352173,0.215762,-0.001999,0.000001,-4.142268,-0.134130,6.383989,0.247062,-0.026332,0.031298,-0.000000,-0.061011,0.000000,0.002848,-0.000000,0.000000,-9.486793,-7.017838,0.890708,-1.346389,0.187003,-0.012472,0.081773,0.202792,1.321725,4
574140576728297,-4.111035,-0.118141,6.352176,0.215760,-0.002000,0.000000,-4.142368,-0.134230,6.384089,0.247162,-0.026428,0.031398,-0.000000,-0.061803,0.002377,-0.000000,-0.000000,0.000000,-9.518959,-6.969037,0.887103,-1.346718,0.184855,-0.012466,0.081739,0.202843,1.321718,4
574140577732853,-4.111037,-0.118208,6.352176,0.215762,-0.002000,0.000000,-4.142468,-0.134330,6.384189,0.247262,-0.026525,0.031498,-0.000000,-0.067349,0.000000,-0.000000,-0.000000,0.000000,-9.836516,-4.783383,1.704907,-1.545125,0.300650,-0.012559,0.081700,0.202899,1.321710,4
574140578728611,-4.111038,-0.118271,6.352177,0.215761,-0.001998,0.000000,-4.142568,-0.134430,6.384289,0.247362,-0.026621,0.031598,-0.000000,-0.062595,0.000000,-0.000000,-0.000000,0.000000,-9.644704,-6.465297,1.111834,-1.406676,0.219078,-0.012543,0.081665,0.202951,1.321702,4
574140579732308,-4.111040,-0.118335,6.352180,0.215762,-0.001997,-0.000002,-4.142668,-0.134530,6.384389,0.247462,-0.026718,0.031698,-0.002377,-0.064180,0.003169,-0.000000,-0.000000,0.000000,-9.624500,-6.314182,1.139065,-1.405989,0.219803,-0.012460,0.081629,0.203003,1.321695,4
574140580727772,-4.111044,-0.118400,6.352180,0.215761,-0.001999,-0.000002,-4.142768,-0.134630,6.384489,0.247562,-0.026815,0.031798,-0.003962,-0.064972,0.000000,-0.000000,-0.000000,0.000000,-9.667578,-5.854157,1.348355,-1.449633,0.251256,-0.012429,0.081592,0.203058,1.321687,4
574140581683979,-4.111046,-0.118464,6.352180,0.215760,-0.001997,0.000000,-4.142868,-0.134730,6.384589,0.247662,-0.026911,0.031898,-0.000000,-0.063388,0.000000,-0.000000,-0.000000,0.000000,-9.772321,-6.163630,1.246339,-1.449694,0.239457,-0.012641,0.081556,0.203111,1.321679,4
574140582730280,-4.111047,-0.118529,6.352182,0.215760,-0.001997,0.000001,-4.142968,-0.134830,6.384689,0.247762,-0.027008,0.031998,-0.000000,-0.064972,0.000000,-0.000000,-0.000000,0.000000,-9.877267,-5.592078,1.459674,-1.504480,0.269595,-0.012687,0.081520,0.203165,1.321672,4
574140583683716,-4.111051,-0.118595,6.352183,0.215759,-0.001998,-0.000001,-4.143068,-0.134930,6.384789,0.247862,-0.027105,0.032098,-0.003962,-0.066557,0.000000,-0.000000,-0.000000,0.000000,-9.833763,-5.262123,1.586850,-1.517608,0.286048,-0.012534,0.081482,0.203220,1.321663,4
574140584687709,-4.111052,-0.118657,6.352182,0.215760,-0.001999,0.000001,-4.143168,-0.135030,6.384889,0.247962,-0.027202,0.032198,-0.003169,-0.064180,0.000000,-0.000000,-0.000000,0.000000,-9.782515,-6.053723,1.312620,-1.459763,0.249030,-0.012582,0.081446,0.203273,1.321656,4
574140585684962,-4.111053,-0.118727,6.352183,0.215761,-0.001997,0.000002,-4.143268,-0.135130,6.384989,0.248062,-0.027299,0.032298,-0.000000,-0.065765,0.000000,-0.000000,-0.000000,0.000000,-10.008831,-5.267173,1.602800,-1.549702,0.291215,-0.012786,0.081406,0.203331,1.321647,4
574140586743558,-4.111057,-0.118788,6.352182,0.215762,-0.002000,0.000000,-4.143368,-0.135230,6.385089,0.248162,-0.027397,0.032398,-0.000000,-0.064180,0.000000,-0.000000,-0.000000,0.000000,-9.963352,-5.832083,1.409765,-1.506975,0.265096,-0.012799,0.081371,0.203383,1.321640,4
574140587730275,-4.111061,-0.118852,6.352184,0.215757,-0.001996,-0.000001,-4.143468,-0.135330,6.385189,0.248262,-0.027494,0.032498,-0.003169,-0.064180,0.000000,-0.004746,0.003797,0.000000,-9.859270,-6.088396,1.318407,-1.465811,0.248654,-0.012610,0.081336,0.203435,1.321632,4
574140588729032,-4.111062,-0.118918,6.352184,0.215760,-0.001998,0.000000,-4.143568,-0.135430,6.385289,0.248362,-0.027591,0.032598,-0.000000,-0.065765,0.000000,0.002848,-0.000000,0.000000,-10.106423,-5.222267,1.648694,-1.575142,0.299660,-0.012910,0.081298,0.203490,1.321624,4
574140589733504,-4.111066,-0.118989,6.352188,0.215760,-0.001999,0.000000,-4.143668,-0.135530,6.385389,0.248462,-0.027689,0.032698,-0.002377,-0.067349,0.002377,-0.000000,-0.003797,0.000000,-10.092993,-4.991644,1.713539,-1.579226,0.308334,-0.012795,0.081259,0.203549,1.321616,4
574140590729642,-4.111070,-0.119052,6.352185,0.215762,-0.001996,-0.000001,-4.143768,-0.135630,6.385489,0.248562,-0.027786,0.032798,-0.003962,-0.063388,-0.002377,-0.000000,-0.000000,0.000000,-9.929872,-6.094561,1.378191,-1.491608,0.263204,-0.012722,0.081222,0.203603,1.321608,4
574140591683089,-4.111072,-0.119120,6.352187,0.215758,-0.001996,0.000000,-4.143868,-0.135730,6.385589,0.248662,-0.027884,0.032898,-0.002377,-0.068142,0.000000,-0.003797,-0.000000,0.000000,-10.210204,-4.506251,1.924474,-1.630812,0.337827,-0.012823,0.081184,0.203659,1.321600,4
574140592730304,-4.111077,-0.119187,6.352189,0.215760,-0.001999,0.000002,-4.143968,-0.135830,6.385689,0.248762,-0.027981,0.032998,-0.004754,-0.066557,0.002377,-0.000000,-0.002848,0.000000,-10.066441,-5.328195,1.619104,-1.554755,0.295361,-0.012759,0.081147,0.203714,1.321592,4
574140593683678,-4.111080,-0.119250,6.352191,0.215758,-0.001999,0.000000,-4.144068,-0.135929,6.385789,0.248862,-0.028079,0.033098,-0.002377,-0.063388,0.000000,-0.000000,-0.000000,0.000000,-10.065286,-6.088045,1.379952,-1.512377,0.263996,-0.012884,0.081112,0.203766,1.321584,4
574140594730478,-4.111082,-0.119313,6.352192,0.215760,-0.001996,0.000002,-4.144168,-0.136029,6.385889,0.248962,-0.028177,0.033198,-0.002377,-0.064972,0.002377,-0.000000,-0.000000,0.002848,-10.145757,-5.701853,1.500268,-1.546133,0.279305,-0.012938,0.081077,0.203818,1.321577,4
574140595730340,-4.111086,-0.119382,6.352193,0.215760,-0.001997,-0.000002,-4.144268,-0.136129,6.385989,0.249062,-0.028275,0.033298,-0.003169,-0.064180,0.000000,-0.000000,-0.000000,0.000000,-10.141103,-5.782297,1.507075,-1.545871,0.282411,-0.012913,0.081038,0.203876,1.321568,4
574140596730602,-4.111091,-0.119444,6.352195,0.215760,-0.001998,0.000000,-4.144368,-0.136228,6.386089,0.249162,-0.028373,0.033398,-0.003962,-0.064180,0.000000,0.002848,-0.000000,0.000000,-10.150740,-5.779874,1.519851,-1.551936,0.284719,-0.012938,0.081003,0.203927,1.321561,4
574140597723325,-4.111093,-0.119513,6.352196,0.215760,-0.001997,0.000000,-4.144468,-0.136328,6.386189,0.249262,-0.028471,0.033498,-0.002377,-0.064180,0.003169,-0.000000,-0.000000,0.000000,-10.203455,-5.930852,1.435838,-1.541808,0.271503,-0.013002,0.080964,0.203984,1.321553,4
574140598731954,-4.111099,-0.119578,6.352199,0.215758,-0.001999,0.000001,-4.144568,-0.136427,6.386289,0.249362,-0.028569,0.033598,-0.005546,-0.064972,0.002377,-0.000000,-0.000000,0.000000,-10.162908,-5.749162,1.518599,-1.547937,0.282765,-0.012884,0.080929,0.204037,1.321545,4
574140599682787,-4.111102,-0.119643,6.352201,0.215759,-0.001998,0.000001,-4.144668,-0.136527,6.386389,0.249462,-0.028667,0.033698,-0.003169,-0.065765,0.002377,-0.000000,-0.000000,0.000000,-10.323617,-5.282965,1.693991,-1.606131,0.308697,-0.013040,0.080892,0.204091,1.321537,4
574140600682755,-4.111107,-0.119710,6.352203,0.215760,-0.001999,0.000000,-4.144768,-0.136626,6.386489,0.249562,-0.028765,0.033798,-0.004754,-0.066557,0.002377,-0.000000,-0.000000,0.000000,-10.335243,-5.061426,1.782057,-1.622404,0.320766,-0.012999,0.080855,0.204146,1.321529,4
574140601731046,-4.111110,-0.119778,6.352205,0.215759,-0.001998,0.000001,-4.144868,-0.136725,6.386589,0.249662,-0.028864,0.033898,-0.003169,-0.068142,0.000000,-0.000000,-0.000000,0.000000,-10.530942,-4.153218,2.142425,-1.719471,0.373894,-0.013132,0.080817,0.204202,1.321521,4
574140602742726,-4.111114,-0.119843,6.352207,0.215757,-0.001997,-0.000001,-4.144968,-0.136824,6.386689,0.249762,-0.028962,0.033998,-0.004754,-0.067349,0.003169,-0.000000,-0.000000,0.000000,-10.432556,-4.766824,1.896070,-1.657232,0.337062,-0.013064,0.080782,0.204255,1.321513,4
574140603731108,-4.111118,-0.119912,6.352208,0.215758,-0.001997,0.000001,-4.145068,-0.136923,6.386789,0.249862,-0.029061,0.034098,-0.003962,-0.068934,0.000000,-0.000000,-0.000000,0.000000,-10.607564,-3.837674,2.272905,-1.753633,0.392764,-0.013161,0.080743,0.204312,1.321504,4
574140604728314,-4.111123,-0.119986,6.352210,0.215760,-0.001997,0.000000,-4.145168,-0.137023,6.386889,0.249962,-0.029159,0.034198,-0.004754,-0.068934,0.002377,-0.000000,-0.000000,0.000000,-10.589837,-4.018651,2.190263,-1.734482,0.379631,-0.013144,0.080702,0.204373,1.321495,4
574140605731503,-4.111129,-0.120055,6.352211,0.215760,-0.001998,0.000001,-4.145268,-0.137122,6.386989,0.250062,-0.029258,0.034298,-0.005546,-0.068934,0.000000,0.002848,-0.000000,0.000000,-10.629441,-3.788830,2.311076,-1.765170,0.398827,-0.013177,0.080663,0.204431,1.321487,4
574140606701009,-4.111133,-0.120127,6.352212,0.215760,-0.001995,0.000001,-4.145368,-0.137220,6.387089,0.250162,-0.029357,0.034398,-0.003962,-0.072103,0.000000,0.002848,-0.000000,0.000000,-10.875017,-2.502791,2.780058,-1.889520,0.465075,-0.013318,0.080623,0.204490,1.321478,4
574140607733794,-4.111136,-0.120197,6.352214,0.215758,-0.001996,0.000001,-4.145468,-0.137319,6.387189,0.250262,-0.029455,0.034498,-0.003169,-0.070519,0.000000,-0.000000,-0.000000,0.000000,-10.860556,-2.986646,2.612509,-1.853469,0.442510,-0.013337,0.080584,0.204548,1.321470,4
574140608731019,-4.111142,-0.120269,6.352216,0.215759,-0.001997,0.000000,-4.145568,-0.137418,6.387289,0.250362,-0.029554,0.034598,-0.006339,-0.072103,0.002377,-0.000000,-0.000000,0.000000,-10.825849,-2.761261,2.675331,-1.856521,0.448445,-0.013217,0.080544,0.204608,1.321461,4
574140609740499,-4.111146,-0.120334,6.352218,0.215757,-0.001994,0.000000,-4.145668,-0.137517,6.387389,0.250462,-0.029653,0.034698,-0.003169,-0.067349,0.000000,-0.000000,0.002848,0.000000,-10.781879,-4.023941,2.256133,-1.775141,0.392484,-0.013365,0.080508,0.204661,1.321453,4
574140610682697,-4.111154,-0.120408,6.352216,0.215757,-0.001995,0.000000,-4.145768,-0.137615,6.387489,0.250562,-0.029752,0.034798,-0.006339,-0.068142,0.000000,-0.000000,-0.000000,0.002848,-10.739012,-3.858982,2.327009,-1.778723,0.403277,-0.013262,0.080466,0.204723,1.321444,4
574140611682973,-4.111158,-0.120477,6.352222,0.215755,-0.001997,-0.000003,-4.145868,-0.137714,6.387589,0.250662,-0.029851,0.034898,-0.003962,-0.068934,0.005546,-0.000000,-0.000000,-0.002848,-10.839803,-3.849827,2.276141,-1.785570,0.393393,-0.013365,0.080429,0.204778,1.321436,4
574140612683608,-4.111164,-0.120547,6.352225,0.215757,-0.001998,0.000001,-4.145968,-0.137812,6.387689,0.250762,-0.029951,0.034998,-0.006339,-0.070519,0.003169,-0.000000,-0.000000,0.003797,-10.886980,-3.178763,2.551708,-1.841321,0.432987,-0.013340,0.080390,0.204836,1.321427,4
574140613729159,-4.111170,-0.120610,6.352228,0.215758,-0.001995,0.000000,-4.146068,-0.137911,6.387789,0.250862,-0.030050,0.035098,-0.005546,-0.068934,0.003962,-0.000000,-0.000000,0.000000,-10.866385,-3.731195,2.353624,-1.801928,0.405803,-0.013368,0.080357,0.204887,1.321420,4
574140614727094,-4.111176,-0.120680,6.352230,0.215758,-0.001998,0.000001,-4.146168,-0.138009,6.387889,0.250962,-0.030149,0.035198,-0.006339,-0.069726,0.002377,-0.000000,-0.002848,0.000000,-10.928849,-3.300222,2.536895,-1.844236,0.434506,-0.013372,0.080318,0.204944,1.321411,4
574140615727701,-4.111182,-0.120749,6.352237,0.215755,-0.001996,0.000000,-4.146268,-0.138107,6.387989,0.251062,-0.030249,0.035298,-0.005546,-0.069726,0.006339,-0.002848,-0.000000,0.000000,-10.941212,-3.574297,2.396794,-1.816796,0.410669,-0.013391,0.080282,0.204999,1.321403,4
574140616727861,-4.111188,-0.120821,6.352241,0.215754,-0.001996,0.000001,-4.146368,-0.138206,6.388089,0.251162,-0.030348,0.035398,-0.006339,-0.067349,0.003962,-0.002848,-0.000000,0.000000,-10.863542,-4.205452,2.205970,-1.769086,0.386349,-0.013366,0.080243,0.205056,1.321395,4
574140617687528,-4.111194,-0.120887,6.352245,0.215758,-0.001996,0.000003,-4.146468,-0.138304,6.388189,0.251262,-0.030448,0.035498,-0.006339,-0.065765,0.003962,0.003797,-0.000000,0.000000,-10.841215,-4.660399,2.058834,-1.745937,0.367255,-0.013462,0.080207,0.205110,1.321387,4
574140618683389,-4.111201,-0.120953,6.352249,0.215758,-0.001997,0.000000,-4.146568,-0.138402,6.388289,0.251362,-0.030547,0.035598,-0.006339,-0.066557,0.003169,-0.000000,-0.000000,-0.002848,-10.911162,-4.309432,2.197811,-1.777351,0.387301,-0.013438,0.080171,0.205164,1.321379,4
574140619756809,-4.111207,-0.121023,6.352255,0.215754,-0.001995,0.000000,-4.146668,-0.138500,6.388389,0.251462,-0.030647,0.035698,-0.006339,-0.069726,0.006339,-0.003797,-0.000000,0.000000,-11.049567,-3.439868,2.477423,-1.844571,0.423575,-0.013456,0.080135,0.205218,1.321371,4
574140620730447,-4.111214,-0.121087,6.352261,0.215755,-0.001992,0.000001,-4.146768,-0.138598,6.388489,0.251562,-0.030747,0.035798,-0.005546,-0.068934,0.004754,-0.000000,0.002848,0.000000,-11.101307,-3.478641,2.491020,-1.859625,0.426226,-0.013568,0.080102,0.205269,1.321363,4
574140621736389,-4.111220,-0.121154,6.352264,0.215757,-0.001995,-0.000001,-4.146868,-0.138696,6.388589,0.251662,-0.030847,0.035898,-0.006339,-0.066557,0.003169,-0.000000,-0.002848,0.000000,-11.016315,-4.168842,2.275497,-1.806329,0.401481,-0.013543,0.080065,0.205323,1.321355,4
574140622727484,-4.111227,-0.121228,6.352270,0.215757,-0.001994,-0.000002,-4.146968,-0.138793,6.388689,0.251762,-0.030946,0.035998,-0.007131,-0.067349,0.003962,-0.000000,-0.000000,-0.002848,-11.051151,-3.943937,2.352836,-1.824587,0.409933,-0.013520,0.080025,0.205383,1.321346,4
574140623730289,-4.111234,-0.121291,6.352275,0.215757,-0.001993,0.000001,-4.147068,-0.138891,6.388789,0.251862,-0.031046,0.036098,-0.006339,-0.066557,0.004754,-0.000000,-0.000000,0.002848,-11.067704,-4.212736,2.256063,-1.809457,0.396786,-0.013610,0.079992,0.205433,1.321339,4
574140624727541,-4.111240,-0.121362,6.352280,0.215757,-0.001993,0.000000,-4.147168,-0.138989,6.388889,0.251962,-0.031146,0.036198,-0.006339,-0.070519,0.005546,-0.000000,-0.000000,0.000000,-11.280416,-2.817842,2.754665,-1.932839,0.465789,-0.013659,0.079954,0.205489,1.321330,4
