jieun02-kim/RAON-RT-Revision/App/Indy7/rt_log_results/plotted_csv/DataLog_20260422_235508.csv
timestamp_ns,q0,q1,q2,q3,q4,q5,q_ref0,q_ref1,q_ref2,q_ref3,q_ref4,q_ref5,qd0,qd1,qd2,qd3,qd4,qd5,tau0,tau1,tau2,tau3,tau4,tau5,tcp_x,tcp_y,tcp_z,ctrl_mode
532822355445517,0.552383,-0.117209,7.031813,-5.698829,-0.000018,0.000001,0.000000,0.000000,0.000000,0.000000,0.000000,0.000000,-0.000000,-0.000000,0.000000,-0.000000,-0.000000,0.000000,-0.000000,-5.447423,-11.387098,3.071291,-1.420015,0.000557,-0.094349,-0.241566,1.272564,0
532822356443974,0.552383,-0.117209,7.031814,-5.698830,-0.000018,0.000000,0.000000,0.000000,0.000000,0.000000,0.000000,0.000000,-0.000000,-0.000000,0.000000,-0.000000,-0.000000,0.000000,-0.000000,-5.447444,-11.387119,3.071296,-1.420018,0.000557,-0.094349,-0.241566,1.272564,0
532822357419733,0.552383,-0.117208,7.031813,-5.698829,-0.000016,0.000002,0.000000,0.000000,0.000000,0.000000,0.000000,0.000000,-0.000000,-0.000000,0.000000,-0.000000,-0.000000,0.000000,0.000000,-5.447540,-11.387135,3.071299,-1.420023,0.000557,-0.094349,-0.241566,1.272564,0
532822358444394,0.552382,-0.117208,7.031815,-5.698826,-0.000015,-0.000001,0.000000,0.000000,0.000000,0.000000,0.000000,0.000000,-0.000000,-0.000000,0.000000,-0.000000,0.002848,0.000000,-0.000000,-5.447564,-11.387159,3.071301,-1.420025,0.000557,-0.094349,-0.241566,1.272564,0
532822359445986,0.552383,-0.117208,7.031814,-5.698830,-0.000016,0.000001,0.000000,0.000000,0.000000,0.000000,0.000000,0.000000,-0.000000,-0.000000,0.000000,-0.003797,-0.000000,0.000000,0.000000,-5.447561,-11.387156,3.071305,-1.420025,0.000557,-0.094349,-0.241566,1.272564,0
532822360443610,0.552383,-0.117208,7.031815,-5.698828,-0.000014,0.000001,0.000000,0.000000,0.000000,0.000000,0.000000,0.000000,-0.000000,-0.000000,0.002377,-0.000000,-0.000000,0.000000,0.000000,-5.447534,-11.387169,3.071306,-1.420029,0.000557,-0.094349,-0.241566,1.272564,0
532822361454834,0.552383,-0.117208,7.031813,-5.698831,-0.000018,-0.000001,0.000000,0.000000,0.000000,0.000000,0.000000,0.000000,-0.000000,-0.000000,-0.002377,-0.002848,-0.000000,0.000000,0.000000,-5.447545,-11.387140,3.071302,-1.420020,0.000557,-0.094349,-0.241566,1.272564,0
532822362419337,0.552383,-0.117208,7.031815,-5.698827,-0.000015,0.000000,0.000000,0.000000,0.000000,0.000000,0.000000,0.000000,-0.000000,-0.000000,0.000000,-0.000000,0.002848,0.000000,-0.000000,-5.447511,-11.387146,3.071300,-1.420025,0.000557,-0.094349,-0.241566,1.272564,0
532822363443513,0.552383,-0.117207,7.031813,-5.698826,-0.000015,0.000000,0.000000,0.000000,0.000000,0.000000,0.000000,0.000000,-0.000000,-0.000000,0.000000,-0.000000,-0.000000,0.000000,0.000000,-5.447587,-11.387142,3.071298,-1.420024,0.000557,-0.094349,-0.241566,1.272564,0
532822364442419,0.552382,-0.117208,7.031813,-5.698829,-0.000017,0.000000,0.000000,0.000000,0.000000,0.000000,0.000000,0.000000,-0.000000,-0.000000,0.000000,-0.000000,-0.000000,0.000000,0.000000,-5.447482,-11.387116,3.071295,-1.420019,0.000557,-0.094349,-0.241566,1.272564,0
532822365420121,0.552383,-0.117208,7.031815,-5.698825,-0.000016,0.000002,0.000000,0.000000,0.000000,0.000000,0.000000,0.000000,-0.000000,-0.000000,0.000000,0.004746,-0.000000,0.000000,0.000000,-5.447558,-11.387153,3.071298,-1.420022,0.000557,-0.094349,-0.241566,1.272564,0
532822366419421,0.552381,-0.117208,7.031814,-5.698829,-0.000018,0.000001,0.000000,0.000000,0.000000,0.000000,0.000000,0.000000,-0.000000,-0.000000,0.000000,-0.000000,-0.000000,0.000000,-0.000000,-5.447497,-11.387132,3.071298,-1.420018,0.000557,-0.094349,-0.241566,1.272564,0
532822367446586,0.552383,-0.117209,7.031814,-5.698829,-0.000014,0.000002,0.000000,0.000000,0.000000,0.000000,0.000000,0.000000,-0.000000,-0.000000,0.000000,-0.000000,0.003797,0.000000,-0.000000,-5.447447,-11.387122,3.071298,-1.420026,0.000557,-0.094349,-0.241566,1.272564,0
532822368443314,0.552384,-0.117209,7.031813,-5.698829,-0.000017,0.000002,0.000000,0.000000,0.000000,0.000000,0.000000,0.000000,-0.000000,-0.000000,0.000000,-0.000000,-0.000000,0.000000,-0.000000,-5.447425,-11.387100,3.071292,-1.420018,0.000557,-0.094349,-0.241566,1.272564,0
532822369443125,0.552384,-0.117208,7.031814,-5.698830,-0.000016,0.000000,0.000000,0.000000,0.000000,0.000000,0.000000,0.000000,-0.000000,-0.000000,0.000000,-0.000000,-0.000000,0.000000,-0.000000,-5.447504,-11.387139,3.071301,-1.420024,0.000557,-0.094349,-0.241566,1.272564,0
532822370443685,0.552383,-0.117209,7.031813,-5.698829,-0.000017,0.000001,0.000000,0.000000,0.000000,0.000000,0.000000,0.000000,-0.000000,-0.000000,0.000000,-0.000000,-0.000000,0.000000,-0.000000,-5.447425,-11.387100,3.071292,-1.420018,0.000557,-0.094349,-0.241566,1.272564,0
532822371447322,0.552383,-0.117208,7.031813,-5.698827,-0.000017,0.000000,0.000000,0.000000,0.000000,0.000000,0.000000,0.000000,-0.000000,-0.000000,0.000000,-0.000000,-0.000000,0.000000,0.000000,-5.447530,-11.387125,3.071295,-1.420019,0.000557,-0.094349,-0.241566,1.272564,0
532822372444887,0.552381,-0.117208,7.031814,-5.698826,-0.000015,0.000000,0.000000,0.000000,0.000000,0.000000,0.000000,0.000000,-0.000000,-0.000000,0.000000,-0.000000,-0.000000,0.000000,-0.000000,-5.447490,-11.387125,3.071295,-1.420022,0.000557,-0.094349,-0.241566,1.272564,0
532822373447940,0.552383,-0.117207,7.031814,-5.698830,-0.000017,0.000000,0.000000,0.000000,0.000000,0.000000,0.000000,0.000000,-0.000000,-0.000000,0.000000,-0.003797,-0.000000,0.000000,-0.000000,-5.447616,-11.387171,3.071307,-1.420025,0.000557,-0.094349,-0.241566,1.272564,0
532822374421923,0.552383,-0.117208,7.031813,-5.698828,-0.000015,0.000002,0.000000,0.000000,0.000000,0.000000,0.000000,0.000000,-0.000000,-0.000000,0.000000,-0.000000,-0.000000,0.000000,0.000000,-5.447538,-11.387133,3.071298,-1.420024,0.000557,-0.094349,-0.241566,1.272564,0
532822375447759,0.552383,-0.117208,7.031814,-5.698826,-0.000015,0.000002,0.000000,0.000000,0.000000,0.000000,0.000000,0.000000,-0.000000,-0.000000,0.000000,-0.000000,-0.000000,0.000000,-0.000000,-5.447490,-11.387125,3.071295,-1.420022,0.000557,-0.094349,-0.241566,1.272564,0
532822376446231,0.552383,-0.117208,7.031814,-5.698827,-0.000016,0.000003,0.000000,0.000000,0.000000,0.000000,0.000000,0.000000,-0.000000,-0.000000,0.000000,-0.000000,-0.000000,0.000000,-0.000000,-5.447492,-11.387127,3.071296,-1.420021,0.000557,-0.094349,-0.241566,1.272564,0
532822377448188,0.552383,-0.117208,7.031814,-5.698831,-0.000017,-0.000002,0.000000,0.000000,0.000000,0.000000,0.000000,0.000000,-0.000000,-0.000000,0.000000,-0.000000,-0.000000,-0.002848,-0.000000,-5.447506,-11.387141,3.071302,-1.420022,0.000557,-0.094349,-0.241566,1.272564,0
532822378444184,0.552384,-0.117209,7.031812,-5.698826,-0.000014,0.000000,0.000000,0.000000,0.000000,0.000000,0.000000,0.000000,-0.000000,-0.002377,0.000000,-0.000000,-0.000000,0.000000,0.000000,-5.447401,-11.387076,3.071285,-1.420020,0.000557,-0.094349,-0.241566,1.272564,0
532822379419763,0.552384,-0.117208,7.031815,-5.698828,-0.000018,0.000001,0.000000,0.000000,0.000000,0.000000,0.000000,0.000000,-0.000000,-0.000000,0.003169,-0.000000,-0.003797,0.000000,-0.000000,-5.447583,-11.387178,3.071306,-1.420022,0.000557,-0.094349,-0.241566,1.272564,0
532822380444679,0.552381,-0.117208,7.031816,-5.698828,-0.000018,0.000002,0.000000,0.000000,0.000000,0.000000,0.000000,0.000000,-0.002377,-0.000000,0.000000,-0.000000,-0.000000,0.000000,-0.000000,-5.447600,-11.387195,3.071309,-1.420024,0.000557,-0.094349,-0.241566,1.272564,0
532822381443751,0.552383,-0.117210,7.031815,-5.698829,-0.000015,0.000003,0.000000,0.000000,0.000000,0.000000,0.000000,0.000000,-0.000000,-0.002377,0.000000,-0.000000,0.002848,0.000000,0.000000,-5.447405,-11.387120,3.071297,-1.420023,0.000557,-0.094349,-0.241566,1.272564,0
532822382447297,0.552382,-0.117208,7.031815,-5.698829,-0.000016,0.000001,0.000000,0.000000,0.000000,0.000000,0.000000,0.000000,-0.000000,-0.000000,0.000000,-0.003797,-0.000000,0.000000,0.000000,-5.447517,-11.387152,3.071303,-1.420024,0.000557,-0.094349,-0.241566,1.272564,0
532822383442915,0.552381,-0.117207,7.031815,-5.698826,-0.000018,0.000000,0.000000,0.000000,0.000000,0.000000,0.000000,0.000000,-0.000000,-0.000000,0.000000,-0.000000,-0.005695,0.000000,0.000000,-5.447632,-11.387187,3.071305,-1.420022,0.000557,-0.094349,-0.241566,1.272564,0
532822384444064,0.552382,-0.117208,7.031813,-5.698829,-0.000018,0.000003,0.000000,0.000000,0.000000,0.000000,0.000000,0.000000,-0.000000,-0.000000,-0.002377,-0.002848,-0.000000,0.002848,0.000000,-5.447480,-11.387115,3.071294,-1.420017,0.000557,-0.094349,-0.241566,1.272564,0
532822385419655,0.552384,-0.117208,7.031814,-5.698828,-0.000016,0.000001,0.000000,0.000000,0.000000,0.000000,0.000000,0.000000,0.002377,-0.000000,0.000000,-0.000000,-0.000000,0.000000,-0.000000,-5.447496,-11.387131,3.071298,-1.420022,0.000557,-0.094349,-0.241566,1.272564,0
532822386444054,0.552381,-0.117210,7.031813,-5.698828,-0.000017,0.000003,0.000000,0.000000,0.000000,0.000000,0.000000,0.000000,-0.003169,-0.003169,0.000000,-0.000000,-0.000000,0.000000,-0.000000,-5.447364,-11.387079,3.071287,-1.420015,0.000557,-0.094349,-0.241566,1.272564,0
532822387443921,0.552384,-0.117208,7.031815,-5.698828,-0.000018,0.000001,0.000000,0.000000,0.000000,0.000000,0.000000,0.000000,0.002377,-0.000000,0.000000,-0.000000,-0.000000,0.000000,0.000000,-5.447510,-11.387145,3.071299,-1.420019,0.000557,-0.094349,-0.241566,1.272564,0
532822388443743,0.552382,-0.117209,7.031815,-5.698827,-0.000017,0.000002,0.000000,0.000000,0.000000,0.000000,0.000000,0.000000,-0.000000,-0.000000,0.000000,-0.000000,-0.000000,0.000000,-0.000000,-5.447467,-11.387142,3.071298,-1.420020,0.000557,-0.094349,-0.241566,1.272564,0
532822389446304,0.552384,-0.117208,7.031815,-5.698829,-0.000019,0.000003,0.000000,0.000000,0.000000,0.000000,0.000000,0.000000,-0.000000,-0.000000,0.000000,0.002848,-0.000000,0.000000,-0.000000,-5.447569,-11.387164,3.071303,-1.420019,0.000557,-0.094349,-0.241566,1.272564,0
532822390420466,0.552381,-0.117208,7.031814,-5.698830,-0.000018,0.000003,0.000000,0.000000,0.000000,0.000000,0.000000,0.000000,-0.002377,-0.000000,0.000000,-0.000000,-0.000000,0.000000,-0.000000,-5.447501,-11.387136,3.071300,-1.420019,0.000557,-0.094349,-0.241566,1.272564,0
532822391443449,0.552382,-0.117208,7.031815,-5.698826,-0.000017,0.000002,0.000000,0.000000,0.000000,0.000000,0.000000,0.000000,-0.000000,-0.000000,0.000000,0.002848,-0.000000,0.000000,-0.000000,-5.447560,-11.387155,3.071299,-1.420021,0.000557,-0.094349,-0.241566,1.272564,0
532822392443185,0.552382,-0.117208,7.031815,-5.698828,-0.000018,0.000001,0.000000,0.000000,0.000000,0.000000,0.000000,0.000000,-0.000000,-0.000000,0.000000,-0.000000,-0.000000,0.000000,0.000000,-5.447510,-11.387145,3.071299,-1.420019,0.000557,-0.094349,-0.241566,1.272564,0
532822393446106,0.552384,-0.117208,7.031815,-5.698830,-0.000017,0.000000,0.000000,0.000000,0.000000,0.000000,0.000000,0.000000,-0.000000,-0.000000,0.000000,-0.000000,-0.000000,0.000000,-0.000000,-5.447593,-11.387188,3.071310,-1.420026,0.000557,-0.094349,-0.241566,1.272564,0
532822394446607,0.552382,-0.117209,7.031815,-5.698828,-0.000016,0.000002,0.000000,0.000000,0.000000,0.000000,0.000000,0.000000,-0.000000,-0.000000,0.000000,-0.000000,-0.000000,0.000000,0.000000,-5.447456,-11.387131,3.071298,-1.420022,0.000557,-0.094349,-0.241566,1.272564,0
532822395452124,0.552382,-0.117208,7.031815,-5.698829,-0.000014,0.000001,0.000000,0.000000,0.000000,0.000000,0.000000,0.000000,-0.000000,-0.000000,0.000000,-0.000000,-0.000000,0.000000,-0.000000,-5.447578,-11.387173,3.071308,-1.420030,0.000557,-0.094349,-0.241566,1.272564,0
532822396427977,0.552384,-0.117208,7.031815,-5.698827,-0.000017,0.000001,0.000000,0.000000,0.000000,0.000000,0.000000,0.000000,-0.000000,-0.000000,0.000000,-0.000000,-0.002848,0.000000,0.000000,-5.447507,-11.387142,3.071298,-1.420020,0.000557,-0.094349,-0.241566,1.272564,0
532822397420165,0.552384,-0.117207,7.031815,-5.698827,-0.000015,0.000002,0.000000,0.000000,0.000000,0.000000,0.000000,0.000000,-0.000000,-0.000000,0.000000,-0.000000,-0.000000,0.000000,-0.000000,-5.447625,-11.387180,3.071306,-1.420028,0.000557,-0.094349,-0.241566,1.272564,0
532822398446256,0.552383,-0.117208,7.031815,-5.698829,-0.000017,0.000001,0.000000,0.000000,0.000000,0.000000,0.000000,0.000000,-0.000000,-0.000000,0.000000,-0.000000,-0.000000,0.000000,-0.000000,-5.447572,-11.387167,3.071305,-1.420024,0.000557,-0.094349,-0.241566,1.272564,0
532822399447662,0.552382,-0.117208,7.031814,-5.698828,-0.000017,-0.000001,0.000000,0.000000,0.000000,0.000000,0.000000,0.000000,-0.003169,-0.000000,-0.002377,-0.000000,-0.000000,0.000000,-0.000000,-5.447551,-11.387146,3.071300,-1.420021,0.000557,-0.094349,-0.241566,1.272564,0
532822400445943,0.552383,-0.117207,7.031815,-5.698827,-0.000015,0.000001,0.000000,0.000000,0.000000,0.000000,0.000000,0.000000,-0.000000,-0.000000,0.000000,-0.000000,-0.000000,0.000000,-0.000000,-5.447625,-11.387180,3.071306,-1.420028,0.000557,-0.094349,-0.241566,1.272564,0
532822401446738,0.552382,-0.117208,7.031815,-5.698829,-0.000014,0.000000,0.000000,0.000000,0.000000,0.000000,0.000000,0.000000,-0.000000,-0.000000,0.000000,-0.000000,0.002848,0.000000,-0.000000,-5.447521,-11.387156,3.071305,-1.420029,0.000557,-0.094349,-0.241566,1.272564,0
532822402443522,0.552384,-0.117208,7.031815,-5.698830,-0.000015,0.000000,0.000000,0.000000,0.000000,0.000000,0.000000,0.000000,-0.000000,-0.000000,0.000000,-0.000000,-0.000000,0.000000,-0.000000,-5.447580,-11.387175,3.071309,-1.420029,0.000557,-0.094349,-0.241566,1.272564,0
532822403421567,0.552382,-0.117208,7.031814,-5.698829,-0.000015,0.000002,0.000000,0.000000,0.000000,0.000000,0.000000,0.000000,-0.000000,-0.000000,0.000000,-0.000000,-0.000000,0.000000,-0.000000,-5.447502,-11.387137,3.071300,-1.420025,0.000557,-0.094349,-0.241566,1.272564,0
532822404448082,0.552384,-0.117208,7.031814,-5.698826,-0.000017,0.000000,0.000000,0.000000,0.000000,0.000000,0.000000,0.000000,-0.000000,-0.000000,0.000000,0.002848,-0.000000,0.000000,-0.000000,-5.447487,-11.387121,3.071293,-1.420018,0.000557,-0.094349,-0.241566,1.272564,0
532822405450185,0.552382,-0.117208,7.031814,-5.698828,-0.000016,0.000001,0.000000,0.000000,0.000000,0.000000,0.000000,0.000000,-0.000000,-0.000000,0.000000,-0.000000,-0.000000,0.000000,0.000000,-5.447553,-11.387148,3.071301,-1.420023,0.000557,-0.094349,-0.241566,1.272564,0
532822406446712,0.552383,-0.117207,7.031814,-5.698831,-0.000017,0.000002,0.000000,0.000000,0.000000,0.000000,0.000000,0.000000,-0.000000,-0.000000,0.000000,-0.002848,-0.000000,0.000000,-0.000000,-5.447620,-11.387175,3.071309,-1.420025,0.000557,-0.094349,-0.241566,1.272564,0
532822407448375,0.552382,-0.117208,7.031814,-5.698829,-0.000016,0.000002,0.000000,0.000000,0.000000,0.000000,0.000000,0.000000,-0.000000,-0.000000,-0.002377,-0.000000,-0.000000,0.000000,-0.000000,-5.447500,-11.387135,3.071299,-1.420023,0.000557,-0.094349,-0.241566,1.272564,0
532822408445661,0.552383,-0.117210,7.031815,-5.698828,-0.000015,0.000000,0.000000,0.000000,0.000000,0.000000,0.000000,0.000000,-0.000000,-0.000000,0.000000,-0.000000,-0.000000,0.000000,0.000000,-5.447401,-11.387116,3.071295,-1.420023,0.000557,-0.094349,-0.241566,1.272564,0
532822409421646,0.552384,-0.117208,7.031813,-5.698829,-0.000016,0.000001,0.000000,0.000000,0.000000,0.000000,0.000000,0.000000,-0.000000,0.002377,0.000000,-0.000000,-0.000000,0.000000,0.000000,-5.447540,-11.387135,3.071299,-1.420023,0.000557,-0.094349,-0.241566,1.272564,0
532822410447207,0.552383,-0.117208,7.031816,-5.698828,-0.000016,0.000001,0.000000,0.000000,0.000000,0.000000,0.000000,0.000000,-0.000000,-0.000000,0.003169,-0.000000,-0.000000,0.000000,0.000000,-5.447547,-11.387182,3.071308,-1.420026,0.000557,-0.094349,-0.241566,1.272564,0
532822411444026,0.552383,-0.117208,7.031815,-5.698827,-0.000017,0.000000,0.000000,0.000000,0.000000,0.000000,0.000000,0.000000,-0.000000,-0.000000,0.000000,-0.000000,-0.000000,0.000000,-0.000000,-5.447581,-11.387176,3.071305,-1.420023,0.000557,-0.094349,-0.241566,1.272564,0
532822412445684,0.552381,-0.117208,7.031815,-5.698829,-0.000015,0.000003,0.000000,0.000000,0.000000,0.000000,0.000000,0.000000,-0.000000,-0.000000,0.000000,-0.000000,0.003797,0.002848,-0.000000,-5.447593,-11.387188,3.071310,-1.420030,0.000557,-0.094349,-0.241566,1.272564,0
532822413444294,0.552383,-0.117208,7.031815,-5.698828,-0.000014,0.000002,0.000000,0.000000,0.000000,0.000000,0.000000,0.000000,-0.000000,0.002377,0.000000,-0.003797,-0.000000,0.000000,-0.000000,-5.447574,-11.387169,3.071306,-1.420029,0.000557,-0.094349,-0.241566,1.272564,0
532822414446752,0.552383,-0.117208,7.031815,-5.698830,-0.000017,-0.000002,0.000000,0.000000,0.000000,0.000000,0.000000,0.000000,-0.000000,-0.000000,0.000000,-0.002848,-0.002848,-0.003797,-0.000000,-5.447519,-11.387154,3.071304,-1.420023,0.000557,-0.094349,-0.241566,1.272564,0
532822415445190,0.552382,-0.117208,7.031813,-5.698827,-0.000013,0.000002,0.000000,0.000000,0.000000,0.000000,0.000000,0.000000,-0.000000,-0.000000,-0.003962,0.002848,0.003797,0.003797,0.000000,-5.447481,-11.387116,3.071295,-1.420026,0.000557,-0.094349,-0.241566,1.272564,0
532822416419559,0.552383,-0.117209,7.031814,-5.698826,-0.000018,0.000003,0.000000,0.000000,0.000000,0.000000,0.000000,0.000000,-0.000000,-0.000000,0.000000,-0.000000,-0.004746,0.000000,-0.000000,-5.447428,-11.387103,3.071289,-1.420014,0.000557,-0.094349,-0.241566,1.272564,0
532822417443973,0.552383,-0.117208,7.031815,-5.698825,-0.000014,0.000004,0.000000,0.000000,0.000000,0.000000,0.000000,0.000000,-0.000000,-0.000000,0.000000,-0.000000,-0.000000,0.000000,-0.000000,-5.447505,-11.387140,3.071297,-1.420025,0.000557,-0.094349,-0.241566,1.272564,0
532822418444633,0.552381,-0.117207,7.031815,-5.698829,-0.000017,0.000002,0.000000,0.000000,0.000000,0.000000,0.000000,0.000000,-0.000000,-0.000000,0.000000,-0.003797,-0.000000,0.000000,0.000000,-5.447646,-11.387201,3.071312,-1.420027,0.000557,-0.094349,-0.241566,1.272564,0
532822419445112,0.552382,-0.117208,7.031815,-5.698827,-0.000016,0.000001,0.000000,0.000000,0.000000,0.000000,0.000000,0.000000,-0.000000,-0.000000,0.000000,-0.000000,-0.000000,0.000000,-0.000000,-5.447566,-11.387161,3.071302,-1.420024,0.000557,-0.094349,-0.241566,1.272564,0
532822420422549,0.552383,-0.117208,7.031815,-5.698827,-0.000014,0.000001,0.000000,0.000000,0.000000,0.000000,0.000000,0.000000,-0.000000,-0.000000,0.000000,-0.000000,-0.000000,0.000000,-0.000000,-5.447570,-11.387165,3.071304,-1.420028,0.000557,-0.094349,-0.241566,1.272564,0
532822421445614,0.552381,-0.117209,7.031814,-5.698830,-0.000018,0.000003,0.000000,0.000000,0.000000,0.000000,0.000000,0.000000,-0.000000,-0.000000,-0.002377,-0.000000,-0.003797,0.000000,-0.000000,-5.447444,-11.387119,3.071296,-1.420018,0.000557,-0.094349,-0.241566,1.272564,0
532822422420089,0.552382,-0.117208,7.031815,-5.698828,-0.000016,0.000000,0.000000,0.000000,0.000000,0.000000,0.000000,0.000000,-0.000000,-0.000000,0.000000,0.002848,-0.000000,-0.002848,0.000000,-5.447513,-11.387148,3.071301,-1.420023,0.000557,-0.094349,-0.241566,1.272564,0
532822423420061,0.552382,-0.117208,7.031814,-5.698829,-0.000014,0.000000,0.000000,0.000000,0.000000,0.000000,0.000000,0.000000,-0.000000,-0.000000,0.000000,-0.000000,-0.000000,0.000000,-0.000000,-5.447504,-11.387139,3.071301,-1.420027,0.000557,-0.094349,-0.241566,1.272564,0
532822424448341,0.552384,-0.117208,7.031815,-5.698828,-0.000017,-0.000001,0.000000,0.000000,0.000000,0.000000,0.000000,0.000000,-0.000000,-0.000000,0.002377,-0.000000,-0.000000,0.000000,0.000000,-5.447528,-11.387163,3.071303,-1.420023,0.000557,-0.094349,-0.241566,1.272564,0
532822425420230,0.552381,-0.117208,7.031815,-5.698829,-0.000017,-0.000001,0.000000,0.000000,0.000000,0.000000,0.000000,0.000000,-0.000000,-0.000000,0.000000,-0.000000,-0.000000,0.000000,0.000000,-5.447532,-11.387167,3.071305,-1.420024,0.000557,-0.094349,-0.241566,1.272564,0
532822426446701,0.552382,-0.117210,7.031815,-5.698829,-0.000016,0.000002,0.000000,0.000000,0.000000,0.000000,0.000000,0.000000,-0.000000,-0.000000,0.000000,-0.000000,-0.000000,0.002848,0.000000,-5.447403,-11.387118,3.071296,-1.420021,0.000557,-0.094349,-0.241566,1.272564,0
532822427443611,0.552382,-0.117208,7.031815,-5.698826,-0.000015,-0.000001,0.000000,0.000000,0.000000,0.000000,0.000000,0.000000,-0.000000,-0.000000,0.002377,-0.000000,-0.000000,0.000000,-0.000000,-5.447581,-11.387176,3.071305,-1.420027,0.000557,-0.094349,-0.241566,1.272564,0
532822428443387,0.552383,-0.117210,7.031815,-5.698830,-0.000018,0.000002,0.000000,0.000000,0.000000,0.000000,0.000000,0.000000,-0.000000,-0.000000,0.000000,-0.002848,-0.000000,0.002848,-0.000000,-5.447404,-11.387119,3.071296,-1.420018,0.000557,-0.094349,-0.241566,1.272564,0
532822429442797,0.552382,-0.117209,7.031815,-5.698829,-0.000021,0.000000,0.000000,0.000000,0.000000,0.000000,0.000000,0.000000,-0.000000,-0.000000,0.000000,-0.000000,-0.003797,0.000000,0.000000,-5.447451,-11.387126,3.071295,-1.420012,0.000557,-0.094349,-0.241566,1.272564,0
532822430446291,0.552381,-0.117209,7.031815,-5.698828,-0.000013,0.000004,0.000000,0.000000,0.000000,0.000000,0.000000,0.000000,-0.000000,-0.000000,0.000000,-0.000000,0.007594,0.003797,-0.000000,-5.447479,-11.387154,3.071304,-1.420030,0.000557,-0.094349,-0.241566,1.272564,0
532822431450663,0.552384,-0.117208,7.031813,-5.698826,-0.000015,0.000002,0.000000,0.000000,0.000000,0.000000,0.000000,0.000000,0.002377,-0.000000,0.000000,-0.000000,-0.000000,0.000000,0.000000,-5.447530,-11.387125,3.071295,-1.420022,0.000557,-0.094349,-0.241566,1.272564,0
532822432448850,0.552383,-0.117209,7.031813,-5.698828,-0.000017,0.000000,0.000000,0.000000,0.000000,0.000000,0.000000,0.000000,-0.000000,-0.000000,0.000000,-0.000000,-0.000000,0.000000,-0.000000,-5.447421,-11.387096,3.071290,-1.420017,0.000557,-0.094349,-0.241566,1.272564,0
532822433445667,0.552382,-0.117209,7.031815,-5.698826,-0.000014,0.000004,0.000000,0.000000,0.000000,0.000000,0.000000,0.000000,-0.000000,-0.000000,0.000000,-0.000000,0.002848,0.003797,0.000000,-5.447452,-11.387127,3.071295,-1.420025,0.000557,-0.094349,-0.241566,1.272564,0
532822434444514,0.552383,-0.117208,7.031815,-5.698828,-0.000018,0.000001,0.000000,0.000000,0.000000,0.000000,0.000000,0.000000,-0.000000,-0.000000,0.000000,-0.000000,-0.003797,-0.002848,0.000000,-5.447510,-11.387145,3.071299,-1.420019,0.000557,-0.094349,-0.241566,1.272564,0
532822435447883,0.552382,-0.117212,7.031815,-5.698829,-0.000016,0.000001,0.000000,0.000000,0.000000,0.000000,0.000000,0.000000,-0.000000,-0.003169,0.000000,-0.000000,-0.000000,0.000000,-0.000000,-5.447307,-11.387101,3.071293,-1.420020,0.000557,-0.094349,-0.241566,1.272564,0
532822436447679,0.552382,-0.117208,7.031815,-5.698827,-0.000018,-0.000001,0.000000,0.000000,0.000000,0.000000,0.000000,0.000000,-0.000000,-0.000000,0.000000,0.002848,-0.000000,0.000000,-0.000000,-5.447506,-11.387141,3.071297,-1.420018,0.000557,-0.094349,-0.241566,1.272564,0
532822437448922,0.552383,-0.117208,7.031815,-5.698828,-0.000017,0.000004,0.000000,0.000000,0.000000,0.000000,0.000000,0.000000,-0.000000,-0.000000,0.000000,-0.000000,-0.000000,0.004746,0.000000,-5.447568,-11.387163,3.071303,-1.420023,0.000557,-0.094349,-0.241566,1.272564,0
532822438448358,0.552382,-0.117208,7.031815,-5.698830,-0.000015,0.000000,0.000000,0.000000,0.000000,0.000000,0.000000,0.000000,-0.000000,-0.000000,0.000000,-0.000000,-0.000000,-0.003797,-0.000000,-5.447523,-11.387158,3.071306,-1.420027,0.000557,-0.094349,-0.241566,1.272564,0
532822439443681,0.552382,-0.117209,7.031813,-5.698827,-0.000015,0.000001,0.000000,0.000000,0.000000,0.000000,0.000000,0.000000,-0.000000,-0.000000,0.000000,0.002848,-0.000000,0.000000,0.000000,-5.447420,-11.387095,3.071290,-1.420020,0.000557,-0.094349,-0.241566,1.272564,0
532822440443799,0.552381,-0.117208,7.031814,-5.698829,-0.000015,0.000001,0.000000,0.000000,0.000000,0.000000,0.000000,0.000000,-0.000000,-0.000000,0.000000,-0.000000,-0.000000,0.000000,0.000000,-5.447559,-11.387154,3.071304,-1.420027,0.000557,-0.094349,-0.241566,1.272564,0
532822441446698,0.552382,-0.117208,7.031813,-5.698829,-0.000016,0.000001,0.000000,0.000000,0.000000,0.000000,0.000000,0.000000,-0.000000,-0.000000,0.000000,-0.000000,-0.000000,0.000000,0.000000,-5.447483,-11.387118,3.071296,-1.420021,0.000557,-0.094349,-0.241566,1.272564,0
532822442446468,0.552382,-0.117208,7.031815,-5.698828,-0.000012,0.000002,0.000000,0.000000,0.000000,0.000000,0.000000,0.000000,-0.000000,-0.000000,0.000000,-0.000000,0.003797,0.000000,0.000000,-5.447521,-11.387156,3.071304,-1.420032,0.000557,-0.094349,-0.241566,1.272564,0
532822443447499,0.552383,-0.117210,7.031815,-5.698828,-0.000016,0.000000,0.000000,0.000000,0.000000,0.000000,0.000000,0.000000,-0.000000,-0.000000,0.000000,-0.000000,-0.003797,0.000000,-0.000000,-5.447416,-11.387131,3.071298,-1.420022,0.000557,-0.094349,-0.241566,1.272564,0
532822444446377,0.552383,-0.117208,7.031816,-5.698828,-0.000016,0.000001,0.000000,0.000000,0.000000,0.000000,0.000000,0.000000,-0.000000,-0.000000,0.000000,-0.000000,-0.000000,0.000000,0.000000,-5.447547,-11.387182,3.071308,-1.420026,0.000557,-0.094349,-0.241566,1.272564,0
532822445446579,0.552383,-0.117208,7.031816,-5.698827,-0.000015,0.000000,0.000000,0.000000,0.000000,0.000000,0.000000,0.000000,-0.000000,-0.000000,0.000000,-0.000000,-0.000000,0.000000,-0.000000,-5.447545,-11.387180,3.071306,-1.420028,0.000557,-0.094349,-0.241566,1.272564,0
532822446446234,0.552382,-0.117208,7.031815,-5.698829,-0.000014,0.000000,0.000000,0.000000,0.000000,0.000000,0.000000,0.000000,-0.000000,-0.000000,0.000000,-0.000000,-0.000000,0.000000,-0.000000,-5.447538,-11.387173,3.071308,-1.420030,0.000557,-0.094349,-0.241566,1.272564,0
532822447419647,0.552384,-0.117208,7.031815,-5.698828,-0.000017,-0.000001,0.000000,0.000000,0.000000,0.000000,0.000000,0.000000,0.002377,-0.000000,0.000000,-0.000000,-0.002848,0.000000,0.000000,-5.447511,-11.387146,3.071300,-1.420021,0.000557,-0.094349,-0.241566,1.272564,0
532822448444700,0.552383,-0.117208,7.031815,-5.698825,-0.000017,0.000000,0.000000,0.000000,0.000000,0.000000,0.000000,0.000000,-0.000000,-0.000000,0.000000,0.003797,-0.000000,0.000000,0.000000,-5.447556,-11.387151,3.071298,-1.420020,0.000557,-0.094349,-0.241566,1.272564,0
532822449443773,0.552384,-0.117210,7.031815,-5.698829,-0.000016,0.000001,0.000000,0.000000,0.000000,0.000000,0.000000,0.000000,-0.000000,-0.002377,0.000000,-0.000000,-0.000000,0.000000,0.000000,-5.447403,-11.387118,3.071296,-1.420021,0.000557,-0.094349,-0.241566,1.272564,0
532822450419346,0.552381,-0.117208,7.031814,-5.698828,-0.000015,0.000003,0.000000,0.000000,0.000000,0.000000,0.000000,0.000000,-0.000000,-0.000000,0.000000,-0.000000,-0.000000,0.000000,0.000000,-5.447555,-11.387150,3.071302,-1.420026,0.000557,-0.094349,-0.241566,1.272564,0
532822451419315,0.552384,-0.117208,7.031815,-5.698829,-0.000017,0.000001,0.000000,0.000000,0.000000,0.000000,0.000000,0.000000,-0.000000,-0.000000,0.000000,-0.000000,-0.000000,0.000000,0.000000,-5.447532,-11.387167,3.071305,-1.420024,0.000557,-0.094349,-0.241566,1.272564,0
532822452443103,0.552383,-0.117208,7.031816,-5.698826,-0.000017,0.000000,0.000000,0.000000,0.000000,0.000000,0.000000,0.000000,-0.000000,-0.000000,0.000000,-0.000000,-0.000000,0.000000,0.000000,-5.447594,-11.387189,3.071306,-1.420024,0.000557,-0.094349,-0.241566,1.272564,0
532822453419223,0.552384,-0.117209,7.031815,-5.698827,-0.000018,0.000002,0.000000,0.000000,0.000000,0.000000,0.000000,0.000000,-0.000000,-0.000000,0.000000,0.003797,-0.000000,0.002848,-0.000000,-5.447466,-11.387141,3.071297,-1.420018,0.000557,-0.094349,-0.241566,1.272564,0
532822454448932,0.552383,-0.117210,7.031814,-5.698827,-0.000017,-0.000001,0.000000,0.000000,0.000000,0.000000,0.000000,0.000000,-0.000000,-0.000000,0.000000,-0.000000,-0.000000,-0.002848,0.000000,-5.447377,-11.387092,3.071288,-1.420016,0.000557,-0.094349,-0.241566,1.272564,0
532822455447582,0.552383,-0.117208,7.031815,-5.698828,-0.000014,0.000001,0.000000,0.000000,0.000000,0.000000,0.000000,0.000000,-0.000000,-0.000000,0.000000,-0.000000,0.003797,0.000000,-0.000000,-5.447517,-11.387152,3.071303,-1.420028,0.000557,-0.094349,-0.241566,1.272564,0
532822456446732,0.552384,-0.117209,7.031815,-5.698828,-0.000016,0.000001,0.000000,0.000000,0.000000,0.000000,0.000000,0.000000,-0.000000,-0.000000,0.000000,-0.000000,-0.000000,0.000000,0.000000,-5.447456,-11.387131,3.071298,-1.420022,0.000557,-0.094349,-0.241566,1.272564,0
532822457445961,0.552384,-0.117210,7.031815,-5.698829,-0.000017,0.000001,0.000000,0.000000,0.000000,0.000000,0.000000,0.000000,-0.000000,-0.000000,0.000000,-0.000000,-0.000000,0.000000,0.000000,-5.447402,-11.387116,3.071295,-1.420019,0.000557,-0.094349,-0.241566,1.272564,0
532822458447260,0.552384,-0.117208,7.031814,-5.698829,-0.000017,0.000002,0.000000,0.000000,0.000000,0.000000,0.000000,0.000000,-0.000000,-0.000000,0.000000,-0.002848,-0.000000,0.000000,0.000000,-5.447498,-11.387133,3.071299,-1.420021,0.000557,-0.094349,-0.241566,1.272564,0
532822459448376,0.552383,-0.117209,7.031815,-5.698831,-0.000014,0.000005,0.000000,0.000000,0.000000,0.000000,0.000000,0.000000,-0.000000,-0.000000,0.000000,-0.000000,0.002848,0.002848,-0.000000,-5.447472,-11.387147,3.071305,-1.420029,0.000557,-0.094349,-0.241566,1.272564,0
532822460447576,0.552382,-0.117209,7.031814,-5.698825,-0.000016,0.000003,0.000000,0.000000,0.000000,0.000000,0.000000,0.000000,-0.000000,-0.000000,0.000000,0.005695,-0.000000,0.000000,-0.000000,-5.447427,-11.387102,3.071288,-1.420018,0.000557,-0.094349,-0.241566,1.272564,0
532822461443233,0.552383,-0.117208,7.031815,-5.698829,-0.000015,0.000000,0.000000,0.000000,0.000000,0.000000,0.000000,0.000000,-0.000000,-0.000000,0.000000,-0.003797,-0.000000,-0.002848,-0.000000,-5.447593,-11.387188,3.071310,-1.420030,0.000557,-0.094349,-0.241566,1.272564,0
532822462442732,0.552382,-0.117209,7.031815,-5.698829,-0.000016,0.000001,0.000000,0.000000,0.000000,0.000000,0.000000,0.000000,-0.000000,-0.000000,0.000000,-0.000000,-0.000000,0.000000,0.000000,-5.447460,-11.387135,3.071299,-1.420023,0.000557,-0.094349,-0.241566,1.272564,0
532822463447433,0.552382,-0.117208,7.031815,-5.698827,-0.000016,0.000001,0.000000,0.000000,0.000000,0.000000,0.000000,0.000000,-0.000000,-0.000000,0.000000,-0.000000,-0.000000,0.000000,-0.000000,-5.447566,-11.387161,3.071302,-1.420024,0.000557,-0.094349,-0.241566,1.272564,0
532822464445624,0.552383,-0.117209,7.031817,-5.698828,-0.000016,0.000002,0.000000,0.000000,0.000000,0.000000,0.000000,0.000000,-0.000000,-0.000000,0.003962,-0.000000,-0.000000,0.000000,-0.000000,-5.447507,-11.387182,3.071308,-1.420026,0.000557,-0.094349,-0.241566,1.272564,0
532822465444874,0.552383,-0.117210,7.031813,-5.698828,-0.000017,0.000001,0.000000,0.000000,0.000000,0.000000,0.000000,0.000000,-0.000000,-0.000000,-0.003962,-0.000000,-0.000000,0.000000,-0.000000,-5.447364,-11.387079,3.071287,-1.420015,0.000557,-0.094349,-0.241566,1.272564,0
532822466448149,0.552382,-0.117208,7.031815,-5.698828,-0.000016,0.000002,0.000000,0.000000,0.000000,0.000000,0.000000,0.000000,-0.000000,-0.000000,0.000000,-0.000000,-0.000000,0.000000,0.000000,-5.447513,-11.387148,3.071301,-1.420023,0.000557,-0.094349,-0.241566,1.272564,0
532822467420976,0.552381,-0.117209,7.031815,-5.698829,-0.000015,0.000002,0.000000,0.000000,0.000000,0.000000,0.000000,0.000000,-0.000000,-0.000000,0.000000,-0.000000,-0.000000,0.000000,0.000000,-5.447462,-11.387137,3.071300,-1.420025,0.000557,-0.094349,-0.241566,1.272564,0
532822468449467,0.552383,-0.117208,7.031814,-5.698827,-0.000016,0.000002,0.000000,0.000000,0.000000,0.000000,0.000000,0.000000,-0.000000,-0.000000,0.000000,-0.000000,-0.000000,0.000000,0.000000,-5.447549,-11.387144,3.071299,-1.420023,0.000557,-0.094349,-0.241566,1.272564,0
532822469423802,0.552384,-0.117209,7.031815,-5.698829,-0.000016,0.000000,0.000000,0.000000,0.000000,0.000000,0.000000,0.000000,-0.000000,-0.000000,0.000000,-0.000000,-0.000000,0.000000,0.000000,-5.447477,-11.387152,3.071303,-1.420024,0.000557,-0.094349,-0.241566,1.272564,0
532822470448039,0.552384,-0.117209,7.031816,-5.698829,-0.000014,0.000000,0.000000,0.000000,0.000000,0.000000,0.000000,0.000000,-0.000000,-0.000000,0.002377,-0.000000,-0.000000,0.000000,0.000000,-5.447498,-11.387173,3.071308,-1.420030,0.000557,-0.094349,-0.241566,1.272564,0
532822471421388,0.552382,-0.117209,7.031815,-5.698829,-0.000018,0.000000,0.000000,0.000000,0.000000,0.000000,0.000000,0.000000,-0.000000,-0.000000,0.000000,-0.000000,-0.000000,-0.002848,-0.000000,-5.447474,-11.387149,3.071301,-1.420020,0.000557,-0.094349,-0.241566,1.272564,0
532822472443423,0.552382,-0.117209,7.031813,-5.698827,-0.000017,0.000002,0.000000,0.000000,0.000000,0.000000,0.000000,0.000000,-0.000000,-0.000000,0.000000,-0.000000,-0.000000,0.000000,-0.000000,-5.447417,-11.387092,3.071288,-1.420016,0.000557,-0.094349,-0.241566,1.272564,0
532822473446269,0.552382,-0.117209,7.031815,-5.698828,-0.000016,0.000001,0.000000,0.000000,0.000000,0.000000,0.000000,0.000000,-0.000000,-0.000000,0.000000,-0.000000,-0.000000,0.000000,0.000000,-5.447456,-11.387131,3.071298,-1.420022,0.000557,-0.094349,-0.241566,1.272564,0
532822474443436,0.552384,-0.117208,7.031815,-5.698828,-0.000015,-0.000001,0.000000,0.000000,0.000000,0.000000,0.000000,0.000000,0.002377,-0.000000,0.000000,-0.000000,0.002848,0.000000,-0.000000,-5.447589,-11.387184,3.071308,-1.420029,0.000557,-0.094349,-0.241566,1.272564,0
532822475419684,0.552383,-0.117210,7.031815,-5.698827,-0.000017,0.000002,0.000000,0.000000,0.000000,0.000000,0.000000,0.000000,-0.000000,-0.002377,0.000000,-0.000000,-0.000000,0.002848,0.000000,-5.447394,-11.387108,3.071291,-1.420017,0.000557,-0.094349,-0.241566,1.272564,0
532822476447411,0.552383,-0.117208,7.031815,-5.698829,-0.000019,0.000001,0.000000,0.000000,0.000000,0.000000,0.000000,0.000000,-0.000000,-0.000000,0.000000,-0.000000,-0.000000,0.000000,-0.000000,-5.447512,-11.387147,3.071300,-1.420018,0.000557,-0.094349,-0.241566,1.272564,0
532822477445312,0.552383,-0.117209,7.031815,-5.698829,-0.000014,0.000001,0.000000,0.000000,0.000000,0.000000,0.000000,0.000000,-0.000000,-0.000000,0.000000,-0.000000,0.004746,0.000000,0.000000,-5.447481,-11.387156,3.071305,-1.420029,0.000557,-0.094349,-0.241566,1.272564,0
532822478456810,0.552382,-0.117209,7.031814,-5.698828,-0.000016,0.000003,0.000000,0.000000,0.000000,0.000000,0.000000,0.000000,-0.000000,-0.000000,0.000000,-0.000000,-0.000000,0.000000,0.000000,-5.447439,-11.387114,3.071294,-1.420020,0.000557,-0.094349,-0.241566,1.272564,0
532822479443287,0.552381,-0.117209,7.031814,-5.698828,-0.000014,0.000001,0.000000,0.000000,0.000000,0.000000,0.000000,0.000000,-0.000000,-0.000000,-0.002377,-0.000000,0.004746,0.000000,0.000000,-5.447443,-11.387118,3.071296,-1.420025,0.000557,-0.094349,-0.241566,1.272564,0
532822480443215,0.552384,-0.117209,7.031814,-5.698829,-0.000016,0.000001,0.000000,0.000000,0.000000,0.000000,0.000000,0.000000,0.003169,-0.000000,0.000000,-0.000000,-0.000000,0.000000,0.000000,-5.447443,-11.387118,3.071296,-1.420021,0.000557,-0.094349,-0.241566,1.272564,0
532822481446285,0.552383,-0.117208,7.031813,-5.698828,-0.000017,0.000001,0.000000,0.000000,0.000000,0.000000,0.000000,0.000000,-0.000000,-0.000000,0.000000,-0.000000,-0.000000,0.000000,0.000000,-5.447478,-11.387112,3.071293,-1.420018,0.000557,-0.094349,-0.241566,1.272564,0
532822482419930,0.552383,-0.117210,7.031814,-5.698829,-0.000016,-0.000001,0.000000,0.000000,0.000000,0.000000,0.000000,0.000000,-0.000000,-0.000000,0.000000,-0.002848,-0.000000,0.000000,-0.000000,-5.447387,-11.387101,3.071293,-1.420020,0.000557,-0.094349,-0.241566,1.272564,0
532822483442506,0.552383,-0.117208,7.031815,-5.698829,-0.000015,0.000001,0.000000,0.000000,0.000000,0.000000,0.000000,0.000000,-0.000000,-0.000000,0.000000,-0.000000,-0.000000,0.000000,-0.000000,-5.447519,-11.387154,3.071304,-1.420027,0.000557,-0.094349,-0.241566,1.272564,0
532822484443294,0.552382,-0.117208,7.031814,-5.698826,-0.000014,0.000001,0.000000,0.000000,0.000000,0.000000,0.000000,0.000000,-0.000000,0.003169,0.000000,0.004746,-0.000000,0.000000,0.000000,-5.447549,-11.387144,3.071299,-1.420026,0.000557,-0.094349,-0.241566,1.272564,0
532822485420329,0.552383,-0.117210,7.031815,-5.698827,-0.000017,0.000003,0.000000,0.000000,0.000000,0.000000,0.000000,0.000000,-0.000000,-0.000000,0.000000,-0.000000,-0.000000,0.000000,0.000000,-5.447411,-11.387125,3.071295,-1.420019,0.000557,-0.094349,-0.241566,1.272564,0
532822486446634,0.552384,-0.117208,7.031813,-5.698827,-0.000017,0.000000,0.000000,0.000000,0.000000,0.000000,0.000000,0.000000,-0.000000,-0.000000,-0.002377,-0.000000,-0.002848,-0.002848,0.000000,-5.447474,-11.387108,3.071291,-1.420017,0.000557,-0.094349,-0.241566,1.272564,0
532822487444449,0.552383,-0.117209,7.031814,-5.698828,-0.000017,0.000001,0.000000,0.000000,0.000000,0.000000,0.000000,0.000000,-0.000000,-0.000000,0.000000,-0.000000,-0.000000,0.000000,0.000000,-5.447438,-11.387112,3.071293,-1.420018,0.000557,-0.094349,-0.241566,1.272564,0
532822488446109,0.552384,-0.117208,7.031815,-5.698829,-0.000016,0.000001,0.000000,0.000000,0.000000,0.000000,0.000000,0.000000,-0.000000,-0.000000,-0.002377,-0.000000,0.002848,0.000000,0.000000,-5.447517,-11.387152,3.071303,-1.420024,0.000557,-0.094349,-0.241566,1.272564,0
532822489454410,0.552381,-0.117209,7.031815,-5.698831,-0.000013,0.000003,0.000000,0.000000,0.000000,0.000000,0.000000,0.000000,-0.000000,-0.000000,0.000000,-0.000000,0.003797,0.000000,-0.000000,-5.447474,-11.387149,3.071306,-1.420031,0.000557,-0.094349,-0.241566,1.272564,0
532822490446686,0.552382,-0.117208,7.031816,-5.698831,-0.000018,0.000001,0.000000,0.000000,0.000000,0.000000,0.000000,0.000000,-0.000000,-0.000000,0.000000,-0.000000,-0.003797,0.000000,0.000000,-5.447555,-11.387190,3.071311,-1.420025,0.000557,-0.094349,-0.241566,1.272564,0
532822491445762,0.552384,-0.117208,7.031815,-5.698827,-0.000015,0.000000,0.000000,0.000000,0.000000,0.000000,0.000000,0.000000,0.002377,-0.000000,0.000000,0.003797,-0.000000,0.000000,0.000000,-5.447528,-11.387163,3.071303,-1.420026,0.000557,-0.094349,-0.241566,1.272564,0
532822492448268,0.552384,-0.117209,7.031815,-5.698827,-0.000016,0.000002,0.000000,0.000000,0.000000,0.000000,0.000000,0.000000,-0.000000,-0.000000,0.000000,-0.000000,-0.000000,0.000000,-0.000000,-5.447452,-11.387127,3.071296,-1.420021,0.000557,-0.094349,-0.241566,1.272564,0
532822493447781,0.552384,-0.117209,7.031815,-5.698828,-0.000017,-0.000001,0.000000,0.000000,0.000000,0.000000,0.000000,0.000000,-0.000000,-0.000000,0.000000,-0.000000,-0.000000,-0.002848,0.000000,-5.447455,-11.387129,3.071297,-1.420020,0.000557,-0.094349,-0.241566,1.272564,0
532822494443868,0.552382,-0.117209,7.031814,-5.698827,-0.000017,-0.000001,0.000000,0.000000,0.000000,0.000000,0.000000,0.000000,-0.000000,-0.002377,0.000000,-0.000000,-0.000000,0.000000,0.000000,-5.447434,-11.387108,3.071291,-1.420017,0.000557,-0.094349,-0.241566,1.272564,0
532822495443497,0.552382,-0.117208,7.031815,-5.698826,-0.000017,0.000000,0.000000,0.000000,0.000000,0.000000,0.000000,0.000000,-0.000000,0.002377,0.000000,-0.000000,-0.000000,0.000000,0.000000,-5.447520,-11.387155,3.071299,-1.420021,0.000557,-0.094349,-0.241566,1.272564,0
532822496445091,0.552383,-0.117209,7.031814,-5.698827,-0.000019,0.000001,0.000000,0.000000,0.000000,0.000000,0.000000,0.000000,-0.000000,-0.000000,0.000000,-0.000000,-0.000000,0.000000,-0.000000,-5.447430,-11.387105,3.071290,-1.420013,0.000557,-0.094349,-0.241566,1.272564,0
532822497446827,0.552383,-0.117210,7.031815,-5.698826,-0.000014,0.000000,0.000000,0.000000,0.000000,0.000000,0.000000,0.000000,-0.000000,-0.000000,0.000000,-0.000000,0.004746,0.000000,0.000000,-5.447395,-11.387110,3.071292,-1.420023,0.000557,-0.094349,-0.241566,1.272564,0
532822498444818,0.552384,-0.117208,7.031814,-5.698826,-0.000016,0.000000,0.000000,0.000000,0.000000,0.000000,0.000000,0.000000,-0.000000,-0.000000,0.000000,-0.000000,-0.000000,0.000000,0.000000,-5.447545,-11.387140,3.071297,-1.420022,0.000557,-0.094349,-0.241566,1.272564,0
532822499447810,0.552384,-0.117208,7.031814,-5.698827,-0.000014,-0.000001,0.000000,0.000000,0.000000,0.000000,0.000000,0.000000,-0.000000,-0.000000,-0.003169,-0.000000,-0.000000,0.000000,-0.000000,-5.447553,-11.387148,3.071301,-1.420027,0.000557,-0.094349,-0.241566,1.272564,0
532822500456195,0.552382,-0.117209,7.031814,-5.698831,-0.000017,0.000004,0.000000,0.000000,0.000000,0.000000,0.000000,0.000000,-0.000000,-0.000000,0.000000,-0.003797,-0.002848,0.004746,0.000000,-5.447450,-11.387124,3.071299,-1.420021,0.000557,-0.094349,-0.241566,1.272564,0
532822501449721,0.552384,-0.117208,7.031815,-5.698827,-0.000017,0.000000,0.000000,0.000000,0.000000,0.000000,0.000000,0.000000,-0.000000,-0.000000,0.000000,0.003797,-0.000000,-0.003797,0.000000,-5.447524,-11.387159,3.071301,-1.420022,0.000557,-0.094349,-0.241566,1.272564,0
532822502446615,0.552384,-0.117209,7.031817,-5.698827,-0.000017,0.000003,0.000000,0.000000,0.000000,0.000000,0.000000,0.000000,-0.000000,-0.000000,0.000000,-0.000000,-0.000000,0.002848,-0.000000,-5.447501,-11.387176,3.071305,-1.420023,0.000557,-0.094349,-0.241566,1.272564,0
532822503446163,0.552384,-0.117209,7.031813,-5.698829,-0.000015,0.000002,0.000000,0.000000,0.000000,0.000000,0.000000,0.000000,-0.000000,-0.000000,-0.003962,-0.000000,-0.000000,0.000000,-0.000000,-5.447428,-11.387103,3.071294,-1.420022,0.000557,-0.094349,-0.241566,1.272564,0
532822504444007,0.552384,-0.117208,7.031815,-5.698829,-0.000015,0.000000,0.000000,0.000000,0.000000,0.000000,0.000000,0.000000,-0.000000,-0.000000,0.002377,-0.000000,-0.000000,0.000000,-0.000000,-5.447593,-11.387188,3.071310,-1.420030,0.000557,-0.094349,-0.241566,1.272564,0
532822505446428,0.552382,-0.117209,7.031815,-5.698828,-0.000016,0.000001,0.000000,0.000000,0.000000,0.000000,0.000000,0.000000,-0.000000,-0.000000,0.000000,-0.000000,-0.000000,0.000000,0.000000,-5.447456,-11.387131,3.071298,-1.420022,0.000557,-0.094349,-0.241566,1.272564,0
532822506443322,0.552381,-0.117209,7.031815,-5.698831,-0.000018,0.000001,0.000000,0.000000,0.000000,0.000000,0.000000,0.000000,-0.000000,-0.002377,0.000000,-0.002848,-0.000000,0.000000,-0.000000,-5.447482,-11.387156,3.071305,-1.420022,0.000557,-0.094349,-0.241566,1.272564,0
532822507442873,0.552383,-0.117208,7.031815,-5.698826,-0.000016,0.000002,0.000000,0.000000,0.000000,0.000000,0.000000,0.000000,-0.000000,-0.000000,0.000000,0.004746,-0.000000,0.000000,-0.000000,-5.447522,-11.387157,3.071300,-1.420023,0.000557,-0.094349,-0.241566,1.272564,0
532822508419827,0.552382,-0.117210,7.031814,-5.698829,-0.000017,0.000000,0.000000,0.000000,0.000000,0.000000,0.000000,0.000000,-0.000000,-0.000000,0.000000,-0.002848,-0.000000,0.000000,-0.000000,-5.447385,-11.387100,3.071292,-1.420018,0.000557,-0.094349,-0.241566,1.272564,0
532822509446492,0.552383,-0.117208,7.031815,-5.698828,-0.000016,0.000002,0.000000,0.000000,0.000000,0.000000,0.000000,0.000000,-0.000000,-0.000000,0.000000,-0.000000,-0.000000,0.000000,-0.000000,-5.447530,-11.387165,3.071304,-1.420025,0.000557,-0.094349,-0.241566,1.272564,0
532822510443635,0.552382,-0.117209,7.031815,-5.698829,-0.000018,0.000003,0.000000,0.000000,0.000000,0.000000,0.000000,0.000000,-0.000000,-0.000000,0.000000,-0.000000,-0.000000,0.000000,0.000000,-5.447457,-11.387132,3.071298,-1.420018,0.000557,-0.094349,-0.241566,1.272564,0
532822511443719,0.552384,-0.117209,7.031815,-5.698827,-0.000017,0.000001,0.000000,0.000000,0.000000,0.000000,0.000000,0.000000,-0.000000,-0.000000,0.000000,-0.000000,-0.000000,0.000000,-0.000000,-5.447467,-11.387142,3.071298,-1.420020,0.000557,-0.094349,-0.241566,1.272564,0
532822512444965,0.552384,-0.117208,7.031815,-5.698828,-0.000017,0.000002,0.000000,0.000000,0.000000,0.000000,0.000000,0.000000,-0.000000,-0.000000,0.000000,-0.000000,-0.002848,0.000000,0.000000,-5.447511,-11.387146,3.071300,-1.420021,0.000557,-0.094349,-0.241566,1.272564,0
532822513445412,0.552383,-0.117210,7.031816,-5.698827,-0.000013,-0.000001,0.000000,0.000000,0.000000,0.000000,0.000000,0.000000,-0.000000,-0.000000,0.000000,-0.000000,0.003797,-0.002848,-0.000000,-5.447435,-11.387150,3.071302,-1.420029,0.000557,-0.094349,-0.241566,1.272564,0
532822514443772,0.552383,-0.117208,7.031816,-5.698830,-0.000015,0.000000,0.000000,0.000000,0.000000,0.000000,0.000000,0.000000,-0.000000,-0.000000,0.000000,-0.002848,-0.000000,0.000000,0.000000,-5.447557,-11.387192,3.071312,-1.420030,0.000557,-0.094349,-0.241566,1.272564,0
532822515456025,0.552383,-0.117208,7.031815,-5.698828,-0.000018,0.000000,0.000000,0.000000,0.000000,0.000000,0.000000,0.000000,-0.000000,-0.000000,0.000000,-0.000000,-0.002848,0.000000,-0.000000,-5.447583,-11.387178,3.071306,-1.420022,0.000557,-0.094349,-0.241566,1.272564,0
532822516443612,0.552383,-0.117209,7.031815,-5.698827,-0.000017,-0.000001,0.000000,0.000000,0.000000,0.000000,0.000000,0.000000,-0.000000,-0.000000,0.000000,-0.000000,-0.000000,0.000000,-0.000000,-5.447451,-11.387125,3.071295,-1.420019,0.000557,-0.094349,-0.241566,1.272564,0
532822517442756,0.552383,-0.117210,7.031815,-5.698827,-0.000016,0.000000,0.000000,0.000000,0.000000,0.000000,0.000000,0.000000,-0.000000,-0.000000,0.000000,-0.000000,-0.000000,0.000000,-0.000000,-5.447395,-11.387110,3.071292,-1.420019,0.000557,-0.094349,-0.241566,1.272564,0
532822518442880,0.552383,-0.117208,7.031815,-5.698829,-0.000016,0.000001,0.000000,0.000000,0.000000,0.000000,0.000000,0.000000,-0.000000,-0.000000,0.000000,-0.000000,-0.000000,0.000000,0.000000,-5.447534,-11.387169,3.071306,-1.420026,0.000557,-0.094349,-0.241566,1.272564,0
532822519442791,0.552384,-0.117208,7.031814,-5.698830,-0.000017,0.000001,0.000000,0.000000,0.000000,0.000000,0.000000,0.000000,-0.000000,-0.000000,0.000000,-0.000000,-0.000000,0.000000,0.000000,-5.447502,-11.387137,3.071300,-1.420021,0.000557,-0.094349,-0.241566,1.272564,0
532822520443310,0.552384,-0.117207,7.031815,-5.698828,-0.000016,0.000002,0.000000,0.000000,0.000000,0.000000,0.000000,0.000000,-0.000000,-0.000000,0.000000,-0.000000,-0.000000,0.000000,0.000000,-5.447627,-11.387182,3.071308,-1.420026,0.000557,-0.094349,-0.241566,1.272564,0
532822521419630,0.552384,-0.117207,7.031815,-5.698828,-0.000016,0.000002,0.000000,0.000000,0.000000,0.000000,0.000000,0.000000,-0.000000,-0.000000,0.000000,-0.000000,-0.000000,0.000000,0.000000,-5.447627,-11.387182,3.071308,-1.420026,0.000557,-0.094349,-0.241566,1.272564,0
532822522445940,0.552382,-0.117207,7.031815,-5.698829,-0.000016,0.000001,0.000000,0.000000,0.000000,0.000000,0.000000,0.000000,-0.000000,-0.000000,0.000000,-0.000000,-0.000000,0.000000,0.000000,-5.447631,-11.387186,3.071309,-1.420027,0.000557,-0.094349,-0.241566,1.272564,0
532822523445302,0.552383,-0.117208,7.031816,-5.698829,-0.000016,0.000000,0.000000,0.000000,0.000000,0.000000,0.000000,0.000000,-0.000000,-0.000000,0.000000,-0.000000,-0.000000,0.000000,0.000000,-5.447608,-11.387203,3.071313,-1.420029,0.000557,-0.094349,-0.241566,1.272564,0
532822524420165,0.552384,-0.117209,7.031815,-5.698831,-0.000015,0.000001,0.000000,0.000000,0.000000,0.000000,0.000000,0.000000,-0.000000,-0.000000,0.000000,-0.000000,-0.000000,-0.002848,0.000000,-5.447487,-11.387162,3.071307,-1.420028,0.000557,-0.094349,-0.241566,1.272564,0
532822525445752,0.552383,-0.117209,7.031815,-5.698828,-0.000015,0.000004,0.000000,0.000000,0.000000,0.000000,0.000000,0.000000,-0.000000,-0.000000,0.000000,0.002848,-0.000000,0.000000,0.000000,-5.447475,-11.387150,3.071302,-1.420026,0.000557,-0.094349,-0.241566,1.272564,0
532822526445133,0.552383,-0.117208,7.031815,-5.698830,-0.000014,0.000003,0.000000,0.000000,0.000000,0.000000,0.000000,0.000000,-0.000000,-0.000000,0.000000,-0.000000,-0.000000,0.000000,0.000000,-5.447542,-11.387177,3.071310,-1.420031,0.000557,-0.094349,-0.241566,1.272564,0
532822527444918,0.552380,-0.117208,7.031815,-5.698830,-0.000015,0.000002,0.000000,0.000000,0.000000,0.000000,0.000000,0.000000,-0.003169,-0.000000,0.000000,-0.000000,-0.000000,0.000000,-0.000000,-5.447523,-11.387158,3.071306,-1.420027,0.000557,-0.094349,-0.241566,1.272564,0
532822528445062,0.552384,-0.117209,7.031815,-5.698828,-0.000015,0.000002,0.000000,0.000000,0.000000,0.000000,0.000000,0.000000,0.003962,-0.000000,0.000000,-0.000000,-0.000000,0.000000,-0.000000,-5.447475,-11.387150,3.071302,-1.420026,0.000557,-0.094349,-0.241566,1.272564,0
532822529447929,0.552382,-0.117209,7.031817,-5.698828,-0.000018,-0.000001,0.000000,0.000000,0.000000,0.000000,0.000000,0.000000,-0.000000,-0.000000,0.000000,-0.000000,-0.002848,-0.002848,-0.000000,-5.447504,-11.387178,3.071306,-1.420022,0.000557,-0.094349,-0.241566,1.272564,0
532822530443741,0.552384,-0.117210,7.031813,-5.698830,-0.000016,-0.000001,0.000000,0.000000,0.000000,0.000000,0.000000,0.000000,-0.000000,-0.000000,-0.003962,-0.000000,-0.000000,0.000000,-0.000000,-5.447374,-11.387088,3.071291,-1.420019,0.000557,-0.094349,-0.241566,1.272564,0
532822531443187,0.552383,-0.117208,7.031817,-5.698829,-0.000016,0.000003,0.000000,0.000000,0.000000,0.000000,0.000000,0.000000,-0.000000,-0.000000,0.003962,-0.000000,-0.000000,0.003797,0.000000,-5.447568,-11.387203,3.071313,-1.420029,0.000557,-0.094349,-0.241566,1.272564,0
532822532422245,0.552380,-0.117208,7.031815,-5.698828,-0.000014,0.000000,0.000000,0.000000,0.000000,0.000000,0.000000,0.000000,-0.002377,-0.000000,0.000000,-0.000000,-0.000000,-0.002848,-0.000000,-5.447591,-11.387186,3.071309,-1.420031,0.000557,-0.094349,-0.241566,1.272564,0
532822533423124,0.552382,-0.117208,7.031815,-5.698826,-0.000017,0.000000,0.000000,0.000000,0.000000,0.000000,0.000000,0.000000,-0.000000,-0.000000,0.000000,-0.000000,-0.002848,0.000000,0.000000,-5.447520,-11.387155,3.071299,-1.420021,0.000557,-0.094349,-0.241566,1.272564,0
532822534445840,0.552383,-0.117209,7.031814,-5.698829,-0.000017,0.000002,0.000000,0.000000,0.000000,0.000000,0.000000,0.000000,-0.000000,-0.000000,0.000000,-0.002848,-0.000000,0.000000,0.000000,-5.447442,-11.387116,3.071295,-1.420019,0.000557,-0.094349,-0.241566,1.272564,0
532822535445469,0.552382,-0.117208,7.031816,-5.698828,-0.000017,0.000002,0.000000,0.000000,0.000000,0.000000,0.000000,0.000000,-0.000000,-0.000000,0.000000,-0.000000,-0.000000,0.000000,-0.000000,-5.447602,-11.387197,3.071310,-1.420026,0.000557,-0.094349,-0.241566,1.272564,0
532822536446553,0.552382,-0.117208,7.031815,-5.698830,-0.000015,0.000001,0.000000,0.000000,0.000000,0.000000,0.000000,0.000000,-0.000000,-0.000000,0.000000,-0.000000,-0.000000,0.000000,-0.000000,-5.447580,-11.387175,3.071309,-1.420029,0.000557,-0.094349,-0.241566,1.272564,0
532822537444509,0.552381,-0.117208,7.031815,-5.698829,-0.000016,0.000003,0.000000,0.000000,0.000000,0.000000,0.000000,0.000000,-0.000000,-0.000000,0.000000,-0.000000,-0.000000,0.000000,0.000000,-5.447517,-11.387152,3.071303,-1.420024,0.000557,-0.094349,-0.241566,1.272564,0
532822538447559,0.552384,-0.117209,7.031815,-5.698827,-0.000017,0.000001,0.000000,0.000000,0.000000,0.000000,0.000000,0.000000,0.003169,-0.000000,0.000000,-0.000000,-0.000000,0.000000,-0.000000,-5.447467,-11.387142,3.071298,-1.420020,0.000557,-0.094349,-0.241566,1.272564,0
532822539448376,0.552384,-0.117208,7.031816,-5.698827,-0.000016,0.000001,0.000000,0.000000,0.000000,0.000000,0.000000,0.000000,-0.000000,-0.000000,0.000000,-0.000000,-0.000000,0.000000,0.000000,-5.447543,-11.387178,3.071306,-1.420026,0.000557,-0.094349,-0.241566,1.272564,0
532822540420036,0.552383,-0.117208,7.031815,-5.698827,-0.000018,0.000002,0.000000,0.000000,0.000000,0.000000,0.000000,0.000000,-0.000000,-0.000000,0.000000,-0.000000,-0.000000,0.000000,0.000000,-5.447523,-11.387157,3.071300,-1.420020,0.000557,-0.094349,-0.241566,1.272564,0
532822541442979,0.552382,-0.117209,7.031816,-5.698827,-0.000017,0.000000,0.000000,0.000000,0.000000,0.000000,0.000000,0.000000,-0.000000,-0.000000,0.000000,0.003797,-0.000000,0.000000,0.000000,-5.447484,-11.387159,3.071301,-1.420022,0.000557,-0.094349,-0.241566,1.272564,0
532822542432779,0.552382,-0.117207,7.031814,-5.698828,-0.000018,0.000002,0.000000,0.000000,0.000000,0.000000,0.000000,0.000000,-0.000000,-0.000000,-0.002377,-0.000000,-0.000000,0.000000,-0.000000,-5.447606,-11.387161,3.071302,-1.420021,0.000557,-0.094349,-0.241566,1.272564,0
532822543436586,0.552383,-0.117208,7.031815,-5.698829,-0.000016,0.000003,0.000000,0.000000,0.000000,0.000000,0.000000,0.000000,-0.000000,-0.000000,0.000000,-0.000000,-0.000000,0.002848,0.000000,-5.447534,-11.387169,3.071306,-1.420026,0.000557,-0.094349,-0.241566,1.272564,0
532822544443165,0.552384,-0.117208,7.031815,-5.698826,-0.000019,0.000001,0.000000,0.000000,0.000000,0.000000,0.000000,0.000000,0.002377,-0.000000,0.000000,0.002848,-0.000000,0.000000,-0.000000,-5.447574,-11.387169,3.071301,-1.420018,0.000557,-0.094349,-0.241566,1.272564,0
532822545447566,0.552384,-0.117208,7.031815,-5.698827,-0.000018,0.000002,0.000000,0.000000,0.000000,0.000000,0.000000,0.000000,-0.000000,-0.000000,0.000000,-0.000000,-0.000000,0.000000,-0.000000,-5.447579,-11.387174,3.071304,-1.420021,0.000557,-0.094349,-0.241566,1.272564,0
532822546443314,0.552380,-0.117210,7.031815,-5.698829,-0.000015,0.000001,0.000000,0.000000,0.000000,0.000000,0.000000,0.000000,-0.003169,-0.002377,0.000000,-0.000000,-0.000000,0.000000,-0.000000,-5.447422,-11.387137,3.071300,-1.420025,0.000557,-0.094349,-0.241566,1.272564,0
532822547443377,0.552382,-0.117208,7.031815,-5.698828,-0.000018,0.000001,0.000000,0.000000,0.000000,0.000000,0.000000,0.000000,-0.000000,0.002377,0.000000,-0.000000,-0.002848,0.000000,-0.000000,-5.447567,-11.387161,3.071302,-1.420021,0.000557,-0.094349,-0.241566,1.272564,0
532822548443308,0.552383,-0.117208,7.031815,-5.698828,-0.000015,0.000000,0.000000,0.000000,0.000000,0.000000,0.000000,0.000000,-0.000000,-0.000000,0.000000,-0.000000,0.002848,0.000000,-0.000000,-5.447589,-11.387184,3.071308,-1.420029,0.000557,-0.094349,-0.241566,1.272564,0
532822549454608,0.552382,-0.117208,7.031817,-5.698829,-0.000017,0.000002,0.000000,0.000000,0.000000,0.000000,0.000000,0.000000,-0.000000,-0.000000,0.000000,-0.000000,-0.000000,0.000000,0.000000,-5.447566,-11.387201,3.071312,-1.420027,0.000557,-0.094349,-0.241566,1.272564,0
532822550448080,0.552383,-0.117208,7.031815,-5.698829,-0.000014,0.000000,0.000000,0.000000,0.000000,0.000000,0.000000,0.000000,-0.000000,-0.000000,-0.002377,-0.000000,0.002848,0.000000,-0.000000,-5.447578,-11.387173,3.071308,-1.420030,0.000557,-0.094349,-0.241566,1.272564,0
532822551448039,0.552384,-0.117209,7.031817,-5.698829,-0.000018,0.000001,0.000000,0.000000,0.000000,0.000000,0.000000,0.000000,-0.000000,-0.000000,0.002377,-0.000000,-0.003797,0.000000,-0.000000,-5.447508,-11.387182,3.071308,-1.420023,0.000557,-0.094349,-0.241566,1.272564,0
532822552443261,0.552382,-0.117208,7.031815,-5.698827,-0.000015,0.000001,0.000000,0.000000,0.000000,0.000000,0.000000,0.000000,-0.000000,-0.000000,-0.002377,-0.000000,0.002848,0.000000,-0.000000,-5.447511,-11.387146,3.071300,-1.420025,0.000557,-0.094349,-0.241566,1.272564,0
532822553443202,0.552381,-0.117208,7.031815,-5.698827,-0.000015,-0.000001,0.000000,0.000000,0.000000,0.000000,0.000000,0.000000,-0.000000,-0.000000,0.000000,-0.000000,-0.000000,0.000000,0.000000,-5.447528,-11.387163,3.071303,-1.420026,0.000557,-0.094349,-0.241566,1.272564,0
532822554419411,0.552383,-0.117208,7.031817,-5.698827,-0.000016,0.000001,0.000000,0.000000,0.000000,0.000000,0.000000,0.000000,-0.000000,-0.000000,0.000000,-0.000000,-0.000000,0.000000,0.000000,-5.447617,-11.387212,3.071312,-1.420029,0.000557,-0.094349,-0.241566,1.272564,0
532822555446737,0.552382,-0.117208,7.031815,-5.698828,-0.000014,0.000001,0.000000,0.000000,0.000000,0.000000,0.000000,0.000000,-0.000000,0.002377,0.000000,-0.000000,-0.000000,0.000000,-0.000000,-5.447591,-11.387186,3.071309,-1.420031,0.000557,-0.094349,-0.241566,1.272564,0
532822556444891,0.552384,-0.117208,7.031817,-5.698828,-0.000016,0.000002,0.000000,0.000000,0.000000,0.000000,0.000000,0.000000,-0.000000,-0.000000,0.000000,-0.000000,-0.000000,0.000000,0.000000,-5.447564,-11.387199,3.071311,-1.420028,0.000557,-0.094349,-0.241566,1.272564,0
532822557420195,0.552382,-0.117208,7.031815,-5.698830,-0.000017,0.000000,0.000000,0.000000,0.000000,0.000000,0.000000,0.000000,-0.000000,-0.000000,0.000000,-0.000000,-0.000000,0.000000,0.000000,-5.447576,-11.387171,3.071307,-1.420025,0.000557,-0.094349,-0.241566,1.272564,0
532822558445676,0.552381,-0.117209,7.031815,-5.698831,-0.000015,-0.000001,0.000000,0.000000,0.000000,0.000000,0.000000,0.000000,-0.000000,-0.000000,0.000000,-0.003797,-0.000000,-0.002848,0.000000,-5.447470,-11.387145,3.071304,-1.420027,0.000557,-0.094349,-0.241566,1.272564,0
532822559446014,0.552383,-0.117208,7.031817,-5.698830,-0.000018,0.000002,0.000000,0.000000,0.000000,0.000000,0.000000,0.000000,-0.000000,-0.000000,0.003169,-0.000000,-0.002848,0.002848,0.000000,-5.447625,-11.387220,3.071316,-1.420027,0.000557,-0.094349,-0.241566,1.272564,0
532822560457808,0.552383,-0.117208,7.031816,-5.698827,-0.000018,0.000000,0.000000,0.000000,0.000000,0.000000,0.000000,0.000000,-0.000000,0.002377,0.000000,-0.000000,-0.000000,0.000000,-0.000000,-5.447596,-11.387191,3.071307,-1.420023,0.000557,-0.094349,-0.241566,1.272564,0
532822561420284,0.552383,-0.117208,7.031815,-5.698828,-0.000015,0.000002,0.000000,0.000000,0.000000,0.000000,0.000000,0.000000,-0.000000,-0.000000,0.000000,-0.000000,-0.000000,0.000000,0.000000,-5.447532,-11.387167,3.071305,-1.420027,0.000557,-0.094349,-0.241566,1.272564,0
532822562421718,0.552382,-0.117209,7.031814,-5.698829,-0.000017,0.000004,0.000000,0.000000,0.000000,0.000000,0.000000,0.000000,-0.000000,-0.000000,0.000000,-0.000000,-0.000000,0.000000,0.000000,-5.447442,-11.387116,3.071295,-1.420019,0.000557,-0.094349,-0.241566,1.272564,0
532822563443020,0.552384,-0.117208,7.031816,-5.698828,-0.000015,0.000002,0.000000,0.000000,0.000000,0.000000,0.000000,0.000000,0.003169,-0.000000,0.002377,-0.000000,-0.000000,0.000000,0.000000,-5.447606,-11.387201,3.071312,-1.420030,0.000557,-0.094349,-0.241566,1.272564,0
532822564446503,0.552384,-0.117210,7.031817,-5.698829,-0.000017,0.000001,0.000000,0.000000,0.000000,0.000000,0.000000,0.000000,-0.000000,-0.002377,0.002377,-0.000000,-0.000000,0.000000,0.000000,-5.447452,-11.387167,3.071305,-1.420024,0.000557,-0.094349,-0.241566,1.272564,0
532822565447760,0.552382,-0.117209,7.031815,-5.698827,-0.000016,-0.000003,0.000000,0.000000,0.000000,0.000000,0.000000,0.000000,-0.000000,-0.000000,-0.002377,-0.000000,-0.000000,-0.003797,0.000000,-5.447469,-11.387144,3.071299,-1.420023,0.000557,-0.094349,-0.241566,1.272564,0
532822566447089,0.552381,-0.117210,7.031817,-5.698829,-0.000016,-0.000001,0.000000,0.000000,0.000000,0.000000,0.000000,0.000000,-0.000000,-0.003169,0.000000,-0.000000,-0.002848,-0.004746,-0.000000,-5.447454,-11.387169,3.071306,-1.420026,0.000557,-0.094349,-0.241566,1.272564,0
532822567445514,0.552382,-0.117208,7.031815,-5.698829,-0.000016,0.000001,0.000000,0.000000,0.000000,0.000000,0.000000,0.000000,-0.000000,-0.000000,0.000000,-0.000000,-0.000000,0.000000,-0.000000,-5.447574,-11.387169,3.071306,-1.420026,0.000557,-0.094349,-0.241566,1.272564,0
532822568445866,0.552381,-0.117208,7.031817,-5.698827,-0.000015,0.000001,0.000000,0.000000,0.000000,0.000000,0.000000,0.000000,-0.000000,-0.000000,0.002377,-0.000000,-0.000000,0.000000,0.000000,-5.447562,-11.387197,3.071310,-1.420029,0.000557,-0.094349,-0.241566,1.272564,0
532822569448372,0.552382,-0.117208,7.031816,-5.698827,-0.000017,0.000002,0.000000,0.000000,0.000000,0.000000,0.000000,0.000000,-0.000000,-0.000000,0.000000,-0.000000,-0.000000,0.000000,-0.000000,-5.447598,-11.387193,3.071308,-1.420025,0.000557,-0.094349,-0.241566,1.272564,0
532822570444030,0.552383,-0.117208,7.031815,-5.698828,-0.000015,0.000002,0.000000,0.000000,0.000000,0.000000,0.000000,0.000000,-0.000000,-0.000000,0.000000,-0.000000,-0.000000,0.000000,-0.000000,-5.447589,-11.387184,3.071308,-1.420029,0.000557,-0.094349,-0.241566,1.272564,0
532822571446686,0.552383,-0.117208,7.031815,-5.698828,-0.000014,0.000001,0.000000,0.000000,0.000000,0.000000,0.000000,0.000000,-0.000000,-0.000000,0.000000,-0.000000,-0.000000,0.000000,0.000000,-5.447534,-11.387169,3.071306,-1.420029,0.000557,-0.094349,-0.241566,1.272564,0
532822572446191,0.552384,-0.117208,7.031816,-5.698828,-0.000016,0.000003,0.000000,0.000000,0.000000,0.000000,0.000000,0.000000,-0.000000,-0.000000,0.000000,-0.000000,-0.000000,0.000000,0.000000,-5.447604,-11.387199,3.071311,-1.420028,0.000557,-0.094349,-0.241566,1.272564,0
532822573419877,0.552383,-0.117208,7.031817,-5.698830,-0.000017,0.000001,0.000000,0.000000,0.000000,0.000000,0.000000,0.000000,-0.000000,-0.000000,0.000000,-0.000000,-0.000000,0.000000,0.000000,-5.447627,-11.387222,3.071317,-1.420029,0.000557,-0.094349,-0.241566,1.272564,0
532822574443067,0.552381,-0.117208,7.031816,-5.698829,-0.000014,0.000002,0.000000,0.000000,0.000000,0.000000,0.000000,0.000000,-0.000000,-0.000000,0.000000,-0.000000,0.002848,0.000000,-0.000000,-5.447612,-11.387207,3.071315,-1.420033,0.000557,-0.094349,-0.241566,1.272564,0
532822575419311,0.552382,-0.117208,7.031815,-5.698829,-0.000015,0.000001,0.000000,0.000000,0.000000,0.000000,0.000000,0.000000,-0.000000,0.002377,0.000000,-0.000000,-0.000000,0.000000,0.000000,-5.447593,-11.387188,3.071310,-1.420030,0.000557,-0.094349,-0.241566,1.272564,0
532822576444356,0.552383,-0.117207,7.031817,-5.698827,-0.000017,0.000003,0.000000,0.000000,0.000000,0.000000,0.000000,0.000000,-0.000000,-0.000000,0.000000,-0.000000,-0.002848,0.000000,0.000000,-5.447672,-11.387227,3.071315,-1.420028,0.000557,-0.094349,-0.241566,1.272564,0
532822577443262,0.552383,-0.117208,7.031815,-5.698827,-0.000018,0.000000,0.000000,0.000000,0.000000,0.000000,0.000000,0.000000,-0.000000,-0.000000,0.000000,-0.000000,-0.000000,0.000000,0.000000,-5.447523,-11.387157,3.071300,-1.420020,0.000557,-0.094349,-0.241566,1.272564,0
532822578419767,0.552384,-0.117208,7.031817,-5.698829,-0.000016,0.000000,0.000000,0.000000,0.000000,0.000000,0.000000,0.000000,-0.000000,-0.000000,0.000000,-0.000000,-0.000000,0.000000,-0.000000,-5.447625,-11.387220,3.071316,-1.420030,0.000557,-0.094349,-0.241566,1.272564,0
532822579443451,0.552382,-0.117208,7.031815,-5.698826,-0.000017,0.000001,0.000000,0.000000,0.000000,0.000000,0.000000,0.000000,-0.000000,-0.000000,-0.002377,-0.000000,-0.002848,0.000000,0.000000,-5.447560,-11.387155,3.071299,-1.420021,0.000557,-0.094349,-0.241566,1.272564,0
532822580448275,0.552383,-0.117207,7.031816,-5.698827,-0.000015,0.000001,0.000000,0.000000,0.000000,0.000000,0.000000,0.000000,-0.000000,-0.000000,0.000000,-0.000000,-0.000000,0.000000,0.000000,-5.447659,-11.387214,3.071313,-1.420031,0.000557,-0.094349,-0.241566,1.272564,0
532822581452820,0.552384,-0.117209,7.031816,-5.698827,-0.000015,0.000000,0.000000,0.000000,0.000000,0.000000,0.000000,0.000000,-0.000000,-0.002377,0.000000,-0.000000,-0.002848,-0.002848,-0.000000,-5.447488,-11.387163,3.071303,-1.420026,0.000557,-0.094349,-0.241566,1.272564,0
532822582446896,0.552381,-0.117208,7.031817,-5.698828,-0.000016,0.000002,0.000000,0.000000,0.000000,0.000000,0.000000,0.000000,-0.002377,-0.000000,0.000000,-0.000000,-0.000000,0.000000,0.000000,-5.447564,-11.387199,3.071311,-1.420028,0.000557,-0.094349,-0.241566,1.272564,0
532822583445229,0.552381,-0.117208,7.031816,-5.698828,-0.000019,0.000003,0.000000,0.000000,0.000000,0.000000,0.000000,0.000000,-0.000000,-0.000000,-0.002377,0.002848,-0.002848,0.000000,0.000000,-5.447599,-11.387194,3.071308,-1.420021,0.000557,-0.094349,-0.241566,1.272564,0
532822584446154,0.552382,-0.117208,7.031815,-5.698831,-0.000013,0.000001,0.000000,0.000000,0.000000,0.000000,0.000000,0.000000,-0.000000,-0.000000,0.000000,-0.002848,0.005695,0.000000,-0.000000,-5.447588,-11.387183,3.071313,-1.420034,0.000557,-0.094349,-0.241566,1.272564,0
532822585446095,0.552383,-0.117208,7.031816,-5.698830,-0.000016,0.000003,0.000000,0.000000,0.000000,0.000000,0.000000,0.000000,-0.000000,-0.000000,0.000000,-0.004746,-0.002848,0.000000,-0.000000,-5.447612,-11.387207,3.071315,-1.420030,0.000557,-0.094349,-0.241566,1.272564,0
532822586455522,0.552384,-0.117208,7.031815,-5.698829,-0.000015,0.000003,0.000000,0.000000,0.000000,0.000000,0.000000,0.000000,-0.000000,-0.000000,0.000000,-0.000000,-0.000000,0.000000,-0.000000,-5.447593,-11.387188,3.071310,-1.420030,0.000557,-0.094349,-0.241566,1.272564,0
532822587445073,0.552381,-0.117209,7.031815,-5.698827,-0.000014,0.000001,0.000000,0.000000,0.000000,0.000000,0.000000,0.000000,-0.003169,-0.000000,0.000000,-0.000000,-0.000000,0.000000,-0.000000,-5.447473,-11.387148,3.071301,-1.420027,0.000557,-0.094349,-0.241566,1.272564,0
532822588448044,0.552382,-0.117208,7.031817,-5.698829,-0.000019,0.000001,0.000000,0.000000,0.000000,0.000000,0.000000,0.000000,-0.000000,-0.000000,0.000000,-0.000000,-0.004746,0.000000,0.000000,-5.447563,-11.387198,3.071310,-1.420022,0.000557,-0.094349,-0.241566,1.272564,0
532822589445642,0.552381,-0.117208,7.031815,-5.698830,-0.000017,0.000003,0.000000,0.000000,0.000000,0.000000,0.000000,0.000000,-0.000000,-0.000000,0.000000,-0.000000,-0.000000,0.000000,0.000000,-5.447536,-11.387171,3.071307,-1.420025,0.000557,-0.094349,-0.241566,1.272564,0
532822590445574,0.552381,-0.117208,7.031816,-5.698831,-0.000014,0.000001,0.000000,0.000000,0.000000,0.000000,0.000000,0.000000,-0.000000,-0.000000,0.000000,-0.003797,0.002848,0.000000,0.000000,-5.447563,-11.387198,3.071315,-1.420034,0.000557,-0.094349,-0.241566,1.272564,0
532822591446219,0.552383,-0.117208,7.031816,-5.698828,-0.000015,0.000001,0.000000,0.000000,0.000000,0.000000,0.000000,0.000000,-0.000000,-0.000000,0.000000,-0.000000,-0.000000,0.000000,0.000000,-5.447549,-11.387184,3.071308,-1.420029,0.000557,-0.094349,-0.241566,1.272564,0
532822592445816,0.552384,-0.117208,7.031817,-5.698827,-0.000016,0.000003,0.000000,0.000000,0.000000,0.000000,0.000000,0.000000,-0.000000,0.002377,0.000000,-0.000000,-0.000000,0.000000,0.000000,-5.447617,-11.387212,3.071312,-1.420029,0.000557,-0.094349,-0.241566,1.272564,0
532822593445278,0.552383,-0.117210,7.031816,-5.698827,-0.000016,0.000000,0.000000,0.000000,0.000000,0.000000,0.000000,0.000000,-0.000000,-0.002377,0.000000,-0.000000,-0.000000,-0.002848,0.000000,-5.447429,-11.387144,3.071299,-1.420023,0.000557,-0.094349,-0.241566,1.272564,0
532822594445809,0.552383,-0.117208,7.031816,-5.698827,-0.000015,0.000002,0.000000,0.000000,0.000000,0.000000,0.000000,0.000000,-0.000000,-0.000000,0.000000,-0.000000,-0.000000,0.000000,-0.000000,-5.447545,-11.387180,3.071306,-1.420028,0.000557,-0.094349,-0.241566,1.272564,0
532822595444084,0.552384,-0.117207,7.031815,-5.698828,-0.000019,0.000001,0.000000,0.000000,0.000000,0.000000,0.000000,0.000000,-0.000000,-0.000000,0.000000,-0.000000,-0.003797,0.000000,0.000000,-5.447639,-11.387194,3.071308,-1.420021,0.000557,-0.094349,-0.241566,1.272564,0
532822596450321,0.552384,-0.117209,7.031816,-5.698830,-0.000016,0.000001,0.000000,0.000000,0.000000,0.000000,0.000000,0.000000,-0.000000,-0.002377,0.000000,-0.000000,0.002848,0.000000,-0.000000,-5.447498,-11.387173,3.071308,-1.420027,0.000557,-0.094349,-0.241566,1.272564,0
532822597446317,0.552382,-0.117209,7.031819,-5.698830,-0.000016,0.000001,0.000000,0.000000,0.000000,0.000000,0.000000,0.000000,-0.000000,-0.000000,0.002377,-0.000000,-0.000000,0.000000,-0.000000,-5.447549,-11.387224,3.071318,-1.420031,0.000557,-0.094349,-0.241566,1.272564,0
532822598446545,0.552383,-0.117208,7.031816,-5.698827,-0.000017,0.000001,0.000000,0.000000,0.000000,0.000000,0.000000,0.000000,-0.000000,-0.000000,-0.002377,0.002848,-0.000000,0.000000,-0.000000,-5.447598,-11.387193,3.071308,-1.420025,0.000557,-0.094349,-0.241566,1.272564,0
532822599452496,0.552381,-0.117208,7.031817,-5.698829,-0.000017,0.000000,0.000000,0.000000,0.000000,0.000000,0.000000,0.000000,-0.000000,-0.000000,0.000000,-0.000000,-0.000000,0.000000,0.000000,-5.447566,-11.387201,3.071312,-1.420027,0.000557,-0.094349,-0.241566,1.272564,0
532822600446337,0.552384,-0.117208,7.031817,-5.698830,-0.000017,0.000001,0.000000,0.000000,0.000000,0.000000,0.000000,0.000000,0.002377,-0.000000,0.000000,-0.003797,-0.000000,0.000000,0.000000,-5.447570,-11.387205,3.071314,-1.420028,0.000557,-0.094349,-0.241566,1.272564,0
532822601447310,0.552383,-0.117208,7.031817,-5.698828,-0.000014,0.000004,0.000000,0.000000,0.000000,0.000000,0.000000,0.000000,-0.000000,-0.000000,0.000000,-0.000000,0.002848,0.002848,0.000000,-5.447568,-11.387203,3.071313,-1.420032,0.000557,-0.094349,-0.241566,1.272564,0
532822602447948,0.552384,-0.117206,7.031818,-5.698829,-0.000017,0.000002,0.000000,0.000000,0.000000,0.000000,0.000000,0.000000,-0.000000,-0.000000,0.000000,-0.000000,-0.002848,0.000000,0.000000,-5.447754,-11.387269,3.071325,-1.420033,0.000557,-0.094349,-0.241566,1.272564,0
532822603443095,0.552382,-0.117208,7.031817,-5.698830,-0.000016,0.000000,0.000000,0.000000,0.000000,0.000000,0.000000,0.000000,-0.000000,-0.000000,0.000000,-0.000000,-0.000000,0.000000,-0.000000,-5.447572,-11.387207,3.071315,-1.420030,0.000557,-0.094349,-0.241566,1.272564,0
532822604446324,0.552383,-0.117208,7.031817,-5.698827,-0.000014,0.000002,0.000000,0.000000,0.000000,0.000000,0.000000,0.000000,-0.000000,-0.000000,0.000000,0.002848,-0.000000,0.000000,-0.000000,-5.447621,-11.387216,3.071314,-1.420033,0.000557,-0.094349,-0.241566,1.272564,0
532822605443899,0.552384,-0.117208,7.031817,-5.698829,-0.000017,0.000000,0.000000,0.000000,0.000000,0.000000,0.000000,0.000000,-0.000000,-0.000000,0.000000,-0.000000,-0.002848,0.000000,0.000000,-5.447566,-11.387201,3.071312,-1.420027,0.000557,-0.094349,-0.241566,1.272564,0
532822606443721,0.552383,-0.117208,7.031816,-5.698827,-0.000016,-0.000001,0.000000,0.000000,0.000000,0.000000,0.000000,0.000000,-0.000000,-0.000000,0.000000,-0.000000,-0.000000,0.000000,-0.000000,-5.447600,-11.387195,3.071309,-1.420027,0.000557,-0.094349,-0.241566,1.272564,0
532822607443755,0.552382,-0.117207,7.031817,-5.698827,-0.000018,0.000001,0.000000,0.000000,0.000000,0.000000,0.000000,0.000000,-0.000000,-0.000000,0.000000,-0.000000,-0.000000,0.000000,0.000000,-5.447670,-11.387225,3.071314,-1.420026,0.000557,-0.094349,-0.241566,1.272564,0
532822608443228,0.552384,-0.117208,7.031818,-5.698827,-0.000017,0.000003,0.000000,0.000000,0.000000,0.000000,0.000000,0.000000,0.002377,-0.000000,0.000000,-0.000000,-0.000000,0.000000,0.000000,-5.447575,-11.387210,3.071311,-1.420026,0.000557,-0.094349,-0.241566,1.272564,0
532822609446005,0.552383,-0.117208,7.031816,-5.698827,-0.000018,0.000000,0.000000,0.000000,0.000000,0.000000,0.000000,0.000000,-0.000000,-0.000000,0.000000,-0.000000,-0.000000,-0.002848,-0.000000,-5.447596,-11.387191,3.071307,-1.420023,0.000557,-0.094349,-0.241566,1.272564,0
532822610420185,0.552381,-0.117208,7.031815,-5.698827,-0.000014,0.000001,0.000000,0.000000,0.000000,0.000000,0.000000,0.000000,-0.000000,-0.000000,0.000000,-0.000000,0.003797,0.000000,-0.000000,-5.447587,-11.387182,3.071307,-1.420030,0.000557,-0.094349,-0.241566,1.272564,0
532822611446516,0.552384,-0.117208,7.031816,-5.698829,-0.000015,-0.000001,0.000000,0.000000,0.000000,0.000000,0.000000,0.000000,0.002377,-0.000000,0.000000,-0.000000,-0.000000,0.000000,0.000000,-5.447553,-11.387188,3.071310,-1.420030,0.000557,-0.094349,-0.241566,1.272564,0
532822612446871,0.552382,-0.117209,7.031818,-5.698830,-0.000016,0.000001,0.000000,0.000000,0.000000,0.000000,0.000000,0.000000,-0.000000,-0.000000,0.000000,-0.000000,-0.000000,0.000000,-0.000000,-5.447532,-11.387207,3.071315,-1.420030,0.000557,-0.094349,-0.241566,1.272564,0
532822613446868,0.552383,-0.117208,7.031817,-5.698829,-0.000015,0.000002,0.000000,0.000000,0.000000,0.000000,0.000000,0.000000,-0.000000,-0.000000,0.000000,-0.000000,-0.000000,0.000000,0.000000,-5.447570,-11.387205,3.071314,-1.420031,0.000557,-0.094349,-0.241566,1.272564,0
532822614443252,0.552384,-0.117207,7.031817,-5.698828,-0.000015,0.000000,0.000000,0.000000,0.000000,0.000000,0.000000,0.000000,-0.000000,-0.000000,0.000000,-0.000000,-0.000000,0.000000,0.000000,-5.447680,-11.387235,3.071318,-1.420033,0.000557,-0.094349,-0.241566,1.272564,0
532822615446762,0.552384,-0.117208,7.031815,-5.698829,-0.000019,0.000003,0.000000,0.000000,0.000000,0.000000,0.000000,0.000000,-0.000000,-0.000000,0.000000,-0.000000,-0.003797,0.002848,0.000000,-5.447529,-11.387164,3.071303,-1.420019,0.000557,-0.094349,-0.241566,1.272564,0
532822616445173,0.552383,-0.117208,7.031816,-5.698827,-0.000013,0.000000,0.000000,0.000000,0.000000,0.000000,0.000000,0.000000,-0.000000,-0.000000,0.000000,-0.000000,0.005695,-0.002848,-0.000000,-5.447606,-11.387201,3.071312,-1.420034,0.000557,-0.094349,-0.241566,1.272564,0
532822617451579,0.552383,-0.117208,7.031818,-5.698829,-0.000016,0.000002,0.000000,0.000000,0.000000,0.000000,0.000000,0.000000,-0.000000,-0.000000,0.000000,-0.000000,-0.002848,0.000000,0.000000,-5.447585,-11.387220,3.071316,-1.420030,0.000557,-0.094349,-0.241566,1.272564,0
532822618419354,0.552383,-0.117208,7.031817,-5.698828,-0.000016,0.000001,0.000000,0.000000,0.000000,0.000000,0.000000,0.000000,-0.000000,-0.000000,0.000000,-0.000000,-0.000000,0.000000,0.000000,-5.447621,-11.387216,3.071314,-1.420030,0.000557,-0.094349,-0.241566,1.272564,0
532822619442940,0.552384,-0.117208,7.031817,-5.698828,-0.000017,0.000002,0.000000,0.000000,0.000000,0.000000,0.000000,0.000000,-0.000000,-0.000000,0.000000,-0.000000,-0.000000,0.000000,0.000000,-5.447619,-11.387214,3.071313,-1.420027,0.000557,-0.094349,-0.241566,1.272564,0
532822620419509,0.552383,-0.117208,7.031817,-5.698826,-0.000016,0.000001,0.000000,0.000000,0.000000,0.000000,0.000000,0.000000,-0.000000,-0.000000,0.000000,-0.000000,-0.000000,0.000000,0.000000,-5.447613,-11.387208,3.071310,-1.420028,0.000557,-0.094349,-0.241566,1.272564,0
532822621444965,0.552383,-0.117209,7.031815,-5.698828,-0.000016,0.000002,0.000000,0.000000,0.000000,0.000000,0.000000,0.000000,-0.000000,-0.002377,0.000000,-0.000000,-0.000000,0.003797,0.000000,-5.447473,-11.387148,3.071301,-1.420023,0.000557,-0.094349,-0.241566,1.272564,0
532822622456951,0.552383,-0.117208,7.031818,-5.698829,-0.000017,0.000002,0.000000,0.000000,0.000000,0.000000,0.000000,0.000000,-0.000000,-0.000000,0.000000,-0.000000,-0.000000,0.000000,0.000000,-5.447583,-11.387218,3.071315,-1.420028,0.000557,-0.094349,-0.241566,1.272564,0
532822623420343,0.552383,-0.117208,7.031816,-5.698825,-0.000016,0.000001,0.000000,0.000000,0.000000,0.000000,0.000000,0.000000,-0.000000,-0.000000,0.000000,-0.000000,-0.000000,0.000000,0.000000,-5.447535,-11.387170,3.071302,-1.420024,0.000557,-0.094349,-0.241566,1.272564,0
532822624445593,0.552382,-0.117208,7.031816,-5.698826,-0.000014,0.000000,0.000000,0.000000,0.000000,0.000000,0.000000,0.000000,-0.002377,-0.000000,0.000000,-0.000000,0.002848,-0.002848,-0.000000,-5.447600,-11.387195,3.071309,-1.420031,0.000557,-0.094349,-0.241566,1.272564,0
532822625446085,0.552382,-0.117209,7.031815,-5.698827,-0.000016,0.000004,0.000000,0.000000,0.000000,0.000000,0.000000,0.000000,-0.000000,-0.000000,0.000000,-0.000000,-0.000000,0.003797,0.000000,-5.447469,-11.387144,3.071299,-1.420023,0.000557,-0.094349,-0.241566,1.272564,0
532822626445352,0.552383,-0.117208,7.031815,-5.698829,-0.000017,0.000001,0.000000,0.000000,0.000000,0.000000,0.000000,0.000000,-0.000000,-0.000000,-0.003169,-0.003797,-0.000000,0.000000,-0.000000,-5.447572,-11.387167,3.071305,-1.420024,0.000557,-0.094349,-0.241566,1.272564,0
532822627445606,0.552383,-0.117208,7.031817,-5.698829,-0.000018,0.000001,0.000000,0.000000,0.000000,0.000000,0.000000,0.000000,-0.000000,-0.000000,0.000000,-0.000000,-0.000000,0.000000,0.000000,-5.447564,-11.387199,3.071311,-1.420025,0.000557,-0.094349,-0.241566,1.272564,0
532822628461733,0.552383,-0.117208,7.031816,-5.698829,-0.000016,0.000002,0.000000,0.000000,0.000000,0.000000,0.000000,0.000000,-0.000000,-0.000000,0.000000,-0.000000,-0.000000,0.000000,-0.000000,-5.447608,-11.387203,3.071313,-1.420029,0.000557,-0.094349,-0.241566,1.272564,0
532822629422833,0.552382,-0.117208,7.031815,-5.698831,-0.000017,0.000001,0.000000,0.000000,0.000000,0.000000,0.000000,0.000000,-0.000000,-0.000000,0.000000,-0.000000,-0.000000,0.000000,-0.000000,-5.447523,-11.387158,3.071306,-1.420024,0.000557,-0.094349,-0.241566,1.272564,0
532822630447462,0.552382,-0.117208,7.031816,-5.698828,-0.000016,0.000003,0.000000,0.000000,0.000000,0.000000,0.000000,0.000000,-0.000000,-0.000000,0.000000,0.002848,-0.000000,0.000000,0.000000,-5.447604,-11.387199,3.071311,-1.420028,0.000557,-0.094349,-0.241566,1.272564,0
532822631443940,0.552384,-0.117207,7.031816,-5.698829,-0.000018,0.000001,0.000000,0.000000,0.000000,0.000000,0.000000,0.000000,-0.000000,-0.000000,0.000000,-0.000000,-0.000000,0.000000,0.000000,-5.447661,-11.387216,3.071314,-1.420026,0.000557,-0.094349,-0.241566,1.272564,0
532822632443204,0.552384,-0.117209,7.031818,-5.698831,-0.000016,0.000002,0.000000,0.000000,0.000000,0.000000,0.000000,0.000000,-0.000000,-0.000000,0.000000,-0.000000,-0.000000,0.000000,-0.000000,-5.447536,-11.387211,3.071317,-1.420031,0.000557,-0.094349,-0.241566,1.272564,0
532822633447271,0.552384,-0.117207,7.031816,-5.698828,-0.000016,0.000002,0.000000,0.000000,0.000000,0.000000,0.000000,0.000000,-0.000000,0.002377,0.000000,0.002848,-0.000000,0.000000,0.000000,-5.447661,-11.387216,3.071314,-1.420030,0.000557,-0.094349,-0.241566,1.272564,0
532822634447473,0.552383,-0.117209,7.031816,-5.698830,-0.000016,0.000002,0.000000,0.000000,0.000000,0.000000,0.000000,0.000000,-0.000000,-0.002377,0.000000,-0.000000,-0.000000,0.000000,-0.000000,-5.447498,-11.387173,3.071308,-1.420027,0.000557,-0.094349,-0.241566,1.272564,0
532822635443716,0.552381,-0.117208,7.031817,-5.698831,-0.000014,0.000000,0.000000,0.000000,0.000000,0.000000,0.000000,0.000000,-0.000000,-0.000000,0.000000,-0.002848,-0.000000,0.000000,0.000000,-5.447637,-11.387232,3.071322,-1.420037,0.000557,-0.094349,-0.241566,1.272564,0
532822636447684,0.552382,-0.117209,7.031817,-5.698829,-0.000017,0.000002,0.000000,0.000000,0.000000,0.000000,0.000000,0.000000,-0.000000,-0.000000,0.000000,-0.000000,-0.002848,0.000000,-0.000000,-5.447509,-11.387184,3.071309,-1.420025,0.000557,-0.094349,-0.241566,1.272564,0
532822637443996,0.552384,-0.117208,7.031817,-5.698828,-0.000018,0.000002,0.000000,0.000000,0.000000,0.000000,0.000000,0.000000,-0.000000,-0.000000,0.000000,-0.000000,-0.000000,0.000000,0.000000,-5.447560,-11.387195,3.071309,-1.420024,0.000557,-0.094349,-0.241566,1.272564,0
532822638443165,0.552382,-0.117208,7.031816,-5.698826,-0.000014,0.000001,0.000000,0.000000,0.000000,0.000000,0.000000,0.000000,-0.000000,-0.000000,0.000000,-0.000000,0.003797,0.000000,-0.000000,-5.447543,-11.387178,3.071305,-1.420029,0.000557,-0.094349,-0.241566,1.272564,0
532822639443482,0.552383,-0.117208,7.031817,-5.698826,-0.000018,0.000002,0.000000,0.000000,0.000000,0.000000,0.000000,0.000000,-0.000000,-0.000000,0.000000,-0.000000,-0.003797,0.000000,0.000000,-5.447609,-11.387204,3.071309,-1.420023,0.000557,-0.094349,-0.241566,1.272564,0
532822640443413,0.552381,-0.117208,7.031816,-5.698828,-0.000017,0.000002,0.000000,0.000000,0.000000,0.000000,0.000000,0.000000,-0.000000,-0.000000,0.000000,-0.000000,-0.000000,0.000000,0.000000,-5.447545,-11.387180,3.071307,-1.420024,0.000557,-0.094349,-0.241566,1.272564,0
532822641443198,0.552380,-0.117209,7.031818,-5.698827,-0.000016,0.000004,0.000000,0.000000,0.000000,0.000000,0.000000,0.000000,-0.000000,-0.000000,0.000000,-0.000000,-0.000000,0.000000,-0.000000,-5.447520,-11.387195,3.071309,-1.420027,0.000557,-0.094349,-0.241566,1.272564,0
532822642419808,0.552384,-0.117208,7.031819,-5.698830,-0.000018,0.000003,0.000000,0.000000,0.000000,0.000000,0.000000,0.000000,0.003169,-0.000000,0.000000,-0.002848,-0.000000,0.000000,0.000000,-5.447602,-11.387237,3.071320,-1.420028,0.000557,-0.094349,-0.241566,1.272564,0
532822643442873,0.552381,-0.117209,7.031818,-5.698829,-0.000019,0.000000,0.000000,0.000000,0.000000,0.000000,0.000000,0.000000,-0.002377,-0.000000,0.000000,-0.000000,-0.000000,-0.002848,-0.000000,-5.447523,-11.387198,3.071310,-1.420022,0.000557,-0.094349,-0.241566,1.272564,0
532822644458763,0.552383,-0.117208,7.031817,-5.698827,-0.000018,0.000003,0.000000,0.000000,0.000000,0.000000,0.000000,0.000000,-0.000000,-0.000000,0.000000,-0.000000,-0.000000,0.002848,-0.000000,-5.447613,-11.387208,3.071310,-1.420024,0.000557,-0.094349,-0.241566,1.272564,0
532822645447272,0.552384,-0.117208,7.031818,-5.698827,-0.000019,0.000001,0.000000,0.000000,0.000000,0.000000,0.000000,0.000000,-0.000000,-0.000000,0.000000,-0.000000,-0.003797,-0.003797,0.000000,-5.447572,-11.387206,3.071310,-1.420022,0.000557,-0.094349,-0.241566,1.272564,0
532822646446406,0.552383,-0.117207,7.031816,-5.698827,-0.000016,0.000001,0.000000,0.000000,0.000000,0.000000,0.000000,0.000000,-0.000000,-0.000000,0.000000,-0.000000,-0.000000,0.000000,0.000000,-5.447657,-11.387212,3.071312,-1.420029,0.000557,-0.094349,-0.241566,1.272564,0
532822647445084,0.552381,-0.117208,7.031818,-5.698827,-0.000015,0.000001,0.000000,0.000000,0.000000,0.000000,0.000000,0.000000,-0.000000,-0.000000,0.000000,-0.000000,-0.000000,0.000000,0.000000,-5.447636,-11.387231,3.071316,-1.420032,0.000557,-0.094349,-0.241566,1.272564,0
532822648444530,0.552382,-0.117209,7.031815,-5.698829,-0.000017,0.000000,0.000000,0.000000,0.000000,0.000000,0.000000,0.000000,-0.000000,-0.000000,0.000000,-0.000000,-0.000000,0.000000,0.000000,-5.447475,-11.387150,3.071302,-1.420022,0.000557,-0.094349,-0.241566,1.272564,0
532822649445875,0.552382,-0.117208,7.031816,-5.698827,-0.000018,-0.000001,0.000000,0.000000,0.000000,0.000000,0.000000,0.000000,-0.000000,-0.000000,0.000000,-0.000000,-0.000000,0.000000,-0.000000,-5.447540,-11.387174,3.071304,-1.420021,0.000557,-0.094349,-0.241566,1.272564,0
532822650446328,0.552384,-0.117208,7.031818,-5.698824,-0.000013,0.000002,0.000000,0.000000,0.000000,0.000000,0.000000,0.000000,-0.000000,-0.000000,0.000000,0.002848,0.004746,0.002848,0.000000,-5.447571,-11.387206,3.071309,-1.420033,0.000557,-0.094349,-0.241566,1.272564,0
532822651420260,0.552384,-0.117208,7.031817,-5.698830,-0.000018,-0.000001,0.000000,0.000000,0.000000,0.000000,0.000000,0.000000,-0.000000,-0.000000,0.000000,-0.005695,-0.004746,-0.002848,0.000000,-5.447625,-11.387220,3.071316,-1.420027,0.000557,-0.094349,-0.241566,1.272564,0
532822652443206,0.552383,-0.117207,7.031817,-5.698828,-0.000016,0.000003,0.000000,0.000000,0.000000,0.000000,0.000000,0.000000,-0.000000,-0.000000,0.000000,-0.000000,-0.000000,0.003797,0.000000,-5.447678,-11.387233,3.071317,-1.420031,0.000557,-0.094349,-0.241566,1.272564,0
532822653443236,0.552383,-0.117208,7.031818,-5.698828,-0.000014,0.000002,0.000000,0.000000,0.000000,0.000000,0.000000,0.000000,-0.000000,-0.000000,0.000000,-0.000000,0.003797,0.000000,0.000000,-5.447585,-11.387220,3.071316,-1.420034,0.000557,-0.094349,-0.241566,1.272564,0
532822654419398,0.552382,-0.117208,7.031815,-5.698829,-0.000015,0.000002,0.000000,0.000000,0.000000,0.000000,0.000000,0.000000,-0.000000,-0.000000,-0.002377,-0.000000,-0.000000,0.000000,-0.000000,-5.447593,-11.387188,3.071310,-1.420030,0.000557,-0.094349,-0.241566,1.272564,0
532822655447318,0.552382,-0.117208,7.031818,-5.698828,-0.000015,0.000003,0.000000,0.000000,0.000000,0.000000,0.000000,0.000000,-0.000000,-0.000000,0.002377,-0.000000,-0.000000,0.000000,0.000000,-5.447583,-11.387218,3.071315,-1.420032,0.000557,-0.094349,-0.241566,1.272564,0
532822656445066,0.552381,-0.117208,7.031816,-5.698831,-0.000017,0.000001,0.000000,0.000000,0.000000,0.000000,0.000000,0.000000,-0.000000,-0.000000,0.000000,-0.002848,-0.000000,0.000000,-0.000000,-5.447614,-11.387209,3.071316,-1.420028,0.000557,-0.094349,-0.241566,1.272564,0
532822657419995,0.552383,-0.117208,7.031817,-5.698827,-0.000018,0.000001,0.000000,0.000000,0.000000,0.000000,0.000000,0.000000,-0.000000,-0.000000,0.000000,0.003797,-0.000000,0.000000,0.000000,-5.447556,-11.387191,3.071307,-1.420023,0.000557,-0.094349,-0.241566,1.272564,0
532822658446055,0.552383,-0.117209,7.031817,-5.698829,-0.000015,0.000002,0.000000,0.000000,0.000000,0.000000,0.000000,0.000000,-0.000000,-0.000000,0.000000,-0.000000,-0.000000,0.000000,-0.000000,-5.447513,-11.387188,3.071310,-1.420030,0.000557,-0.094349,-0.241566,1.272564,0
532822659455541,0.552384,-0.117209,7.031818,-5.698827,-0.000017,0.000000,0.000000,0.000000,0.000000,0.000000,0.000000,0.000000,-0.000000,-0.000000,0.000000,-0.000000,-0.000000,0.000000,-0.000000,-5.447518,-11.387193,3.071308,-1.420025,0.000557,-0.094349,-0.241566,1.272564,0
532822660445358,0.552384,-0.117208,7.031817,-5.698828,-0.000019,0.000000,0.000000,0.000000,0.000000,0.000000,0.000000,0.000000,-0.000000,-0.000000,0.000000,-0.000000,-0.004746,-0.002848,0.000000,-5.447559,-11.387194,3.071308,-1.420021,0.000557,-0.094349,-0.241566,1.272564,0
532822661448848,0.552382,-0.117208,7.031817,-5.698827,-0.000017,0.000000,0.000000,0.000000,0.000000,0.000000,0.000000,0.000000,-0.000000,-0.000000,0.000000,0.003797,-0.002848,0.000000,0.000000,-5.447558,-11.387193,3.071308,-1.420025,0.000557,-0.094349,-0.241566,1.272564,0
532822662422735,0.552383,-0.117208,7.031817,-5.698828,-0.000018,0.000000,0.000000,0.000000,0.000000,0.000000,0.000000,0.000000,-0.000000,-0.000000,0.000000,-0.000000,-0.000000,0.000000,0.000000,-5.447617,-11.387212,3.071312,-1.420025,0.000557,-0.094349,-0.241566,1.272564,0
532822663444610,0.552381,-0.117209,7.031818,-5.698828,-0.000014,0.000002,0.000000,0.000000,0.000000,0.000000,0.000000,0.000000,-0.000000,-0.000000,0.000000,-0.000000,0.003797,0.000000,-0.000000,-5.447528,-11.387203,3.071313,-1.420032,0.000557,-0.094349,-0.241566,1.272564,0
532822664419716,0.552382,-0.117208,7.031818,-5.698828,-0.000016,-0.000001,0.000000,0.000000,0.000000,0.000000,0.000000,0.000000,-0.000000,-0.000000,0.000000,-0.000000,-0.000000,-0.002848,-0.000000,-5.447581,-11.387216,3.071314,-1.420030,0.000557,-0.094349,-0.241566,1.272564,0
532822665443929,0.552383,-0.117210,7.031815,-5.698829,-0.000016,0.000001,0.000000,0.000000,0.000000,0.000000,0.000000,0.000000,-0.000000,-0.000000,-0.003169,-0.000000,-0.000000,0.000000,-0.000000,-5.447420,-11.387135,3.071299,-1.420023,0.000557,-0.094349,-0.241566,1.272564,0
532822666443387,0.552384,-0.117210,7.031818,-5.698827,-0.000017,0.000001,0.000000,0.000000,0.000000,0.000000,0.000000,0.000000,-0.000000,-0.000000,0.000000,-0.000000,-0.000000,0.000000,-0.000000,-5.447461,-11.387176,3.071305,-1.420023,0.000557,-0.094349,-0.241566,1.272564,0
532822667443627,0.552383,-0.117208,7.031816,-5.698829,-0.000016,0.000000,0.000000,0.000000,0.000000,0.000000,0.000000,0.000000,-0.000000,0.002377,0.000000,-0.000000,-0.000000,0.000000,0.000000,-5.447608,-11.387203,3.071313,-1.420029,0.000557,-0.094349,-0.241566,1.272564,0
532822668443217,0.552383,-0.117208,7.031819,-5.698828,-0.000017,0.000002,0.000000,0.000000,0.000000,0.000000,0.000000,0.000000,-0.000000,-0.000000,0.002377,-0.000000,-0.002848,0.000000,0.000000,-5.447596,-11.387231,3.071317,-1.420029,0.000557,-0.094349,-0.241566,1.272564,0
532822669443174,0.552381,-0.117208,7.031818,-5.698829,-0.000016,0.000001,0.000000,0.000000,0.000000,0.000000,0.000000,0.000000,-0.000000,-0.000000,0.000000,-0.000000,-0.000000,0.000000,-0.000000,-5.447642,-11.387237,3.071319,-1.420032,0.000557,-0.094349,-0.241566,1.272564,0
532822670443387,0.552383,-0.117208,7.031817,-5.698828,-0.000017,-0.000001,0.000000,0.000000,0.000000,0.000000,0.000000,0.000000,-0.000000,-0.000000,0.000000,-0.000000,-0.000000,0.000000,-0.000000,-5.447619,-11.387214,3.071313,-1.420027,0.000557,-0.094349,-0.241566,1.272564,0
532822671445115,0.552382,-0.117208,7.031819,-5.698828,-0.000015,0.000002,0.000000,0.000000,0.000000,0.000000,0.000000,0.000000,-0.000000,-0.000000,0.000000,-0.000000,-0.000000,0.002848,-0.000000,-5.447657,-11.387252,3.071322,-1.420035,0.000557,-0.094349,-0.241566,1.272564,0
532822672443270,0.552383,-0.117208,7.031817,-5.698829,-0.000015,0.000000,0.000000,0.000000,0.000000,0.000000,0.000000,0.000000,-0.000000,-0.000000,0.000000,-0.000000,-0.000000,0.000000,-0.000000,-5.447570,-11.387205,3.071314,-1.420031,0.000557,-0.094349,-0.241566,1.272564,0
532822673446675,0.552383,-0.117208,7.031818,-5.698826,-0.000016,-0.000001,0.000000,0.000000,0.000000,0.000000,0.000000,0.000000,-0.000000,-0.000000,0.000000,0.002848,-0.000000,0.000000,0.000000,-5.447573,-11.387208,3.071310,-1.420028,0.000557,-0.094349,-0.241566,1.272564,0
532822674447789,0.552380,-0.117208,7.031817,-5.698830,-0.000014,0.000004,0.000000,0.000000,0.000000,0.000000,0.000000,0.000000,-0.002377,-0.000000,0.000000,-0.003797,-0.000000,0.004746,0.000000,-5.447576,-11.387211,3.071316,-1.420034,0.000557,-0.094349,-0.241566,1.272564,0
532822675447574,0.552384,-0.117208,7.031817,-5.698829,-0.000015,0.000001,0.000000,0.000000,0.000000,0.000000,0.000000,0.000000,0.003169,-0.000000,0.000000,-0.000000,-0.000000,-0.002848,0.000000,-5.447570,-11.387205,3.071314,-1.420031,0.000557,-0.094349,-0.241566,1.272564,0
532822676443468,0.552384,-0.117209,7.031817,-5.698827,-0.000017,0.000001,0.000000,0.000000,0.000000,0.000000,0.000000,0.000000,-0.000000,-0.000000,0.000000,-0.000000,-0.000000,0.000000,-0.000000,-5.447501,-11.387176,3.071305,-1.420023,0.000557,-0.094349,-0.241566,1.272564,0
532822677443583,0.552383,-0.117208,7.031815,-5.698830,-0.000015,0.000001,0.000000,0.000000,0.000000,0.000000,0.000000,0.000000,-0.000000,-0.000000,0.000000,-0.002848,-0.000000,0.000000,0.000000,-5.447540,-11.387175,3.071309,-1.420029,0.000557,-0.094349,-0.241566,1.272564,0
532822678419408,0.552382,-0.117209,7.031818,-5.698828,-0.000017,0.000000,0.000000,0.000000,0.000000,0.000000,0.000000,0.000000,-0.000000,-0.000000,0.002377,-0.000000,-0.000000,0.000000,0.000000,-5.447522,-11.387197,3.071310,-1.420026,0.000557,-0.094349,-0.241566,1.272564,0
532822679446704,0.552384,-0.117208,7.031818,-5.698830,-0.000015,0.000000,0.000000,0.000000,0.000000,0.000000,0.000000,0.000000,-0.000000,-0.000000,0.000000,-0.000000,-0.000000,0.000000,0.000000,-5.447648,-11.387243,3.071322,-1.420035,0.000557,-0.094349,-0.241566,1.272564,0
532822680446266,0.552381,-0.117207,7.031817,-5.698827,-0.000014,0.000000,0.000000,0.000000,0.000000,0.000000,0.000000,0.000000,-0.002377,-0.000000,0.000000,0.002848,-0.000000,0.000000,0.000000,-5.447678,-11.387233,3.071317,-1.420035,0.000557,-0.094349,-0.241566,1.272564,0
532822681446806,0.552384,-0.117208,7.031818,-5.698828,-0.000017,0.000002,0.000000,0.000000,0.000000,0.000000,0.000000,0.000000,-0.000000,-0.000000,0.000000,-0.000000,-0.000000,0.000000,-0.000000,-5.447636,-11.387231,3.071317,-1.420029,0.000557,-0.094349,-0.241566,1.272564,0
532822682446201,0.552383,-0.117208,7.031817,-5.698827,-0.000017,0.000001,0.000000,0.000000,0.000000,0.000000,0.000000,0.000000,-0.000000,-0.000000,0.000000,-0.000000,-0.000000,0.000000,0.000000,-5.447558,-11.387193,3.071308,-1.420025,0.000557,-0.094349,-0.241566,1.272564,0
532822683447225,0.552382,-0.117208,7.031817,-5.698829,-0.000016,0.000001,0.000000,0.000000,0.000000,0.000000,0.000000,0.000000,-0.000000,-0.000000,0.000000,-0.000000,-0.000000,0.000000,0.000000,-5.447568,-11.387203,3.071313,-1.420029,0.000557,-0.094349,-0.241566,1.272564,0
532822684446584,0.552384,-0.117208,7.031817,-5.698830,-0.000018,0.000001,0.000000,0.000000,0.000000,0.000000,0.000000,0.000000,-0.000000,-0.000000,0.000000,-0.000000,-0.000000,0.000000,-0.000000,-5.447568,-11.387203,3.071313,-1.420025,0.000557,-0.094349,-0.241566,1.272564,0
532822685446259,0.552383,-0.117208,7.031818,-5.698829,-0.000018,0.000002,0.000000,0.000000,0.000000,0.000000,0.000000,0.000000,-0.000000,-0.000000,0.000000,-0.000000,-0.000000,0.000000,-0.000000,-5.447581,-11.387216,3.071314,-1.420026,0.000557,-0.094349,-0.241566,1.272564,0
532822686419669,0.552383,-0.117208,7.031817,-5.698829,-0.000018,-0.000002,0.000000,0.000000,0.000000,0.000000,0.000000,0.000000,-0.000000,-0.000000,0.000000,-0.000000,-0.000000,-0.003797,0.000000,-5.447564,-11.387199,3.071311,-1.420025,0.000557,-0.094349,-0.241566,1.272564,0
532822687444748,0.552384,-0.117209,7.031818,-5.698828,-0.000015,0.000002,0.000000,0.000000,0.000000,0.000000,0.000000,0.000000,-0.000000,-0.000000,0.000000,-0.000000,0.002848,0.003797,0.000000,-5.447526,-11.387201,3.071312,-1.420030,0.000557,-0.094349,-0.241566,1.272564,0
532822688444360,0.552381,-0.117209,7.031816,-5.698826,-0.000015,0.000000,0.000000,0.000000,0.000000,0.000000,0.000000,0.000000,-0.002377,-0.000000,0.000000,-0.000000,-0.000000,0.000000,-0.000000,-5.447484,-11.387159,3.071301,-1.420025,0.000557,-0.094349,-0.241566,1.272564,0
532822689443838,0.552383,-0.117209,7.031815,-5.698827,-0.000016,0.000001,0.000000,0.000000,0.000000,0.000000,0.000000,0.000000,-0.000000,-0.000000,0.000000,-0.000000,-0.000000,0.000000,-0.000000,-5.447452,-11.387127,3.071296,-1.420021,0.000557,-0.094349,-0.241566,1.272564,0
532822690442946,0.552381,-0.117208,7.031817,-5.698827,-0.000017,0.000002,0.000000,0.000000,0.000000,0.000000,0.000000,0.000000,-0.000000,-0.000000,0.002377,-0.000000,-0.000000,0.000000,0.000000,-5.447615,-11.387210,3.071311,-1.420026,0.000557,-0.094349,-0.241566,1.272564,0
532822691447549,0.552384,-0.117208,7.031817,-5.698831,-0.000014,0.000000,0.000000,0.000000,0.000000,0.000000,0.000000,0.000000,0.002377,-0.000000,0.000000,-0.003797,0.002848,0.000000,0.000000,-5.447580,-11.387215,3.071318,-1.420035,0.000557,-0.094349,-0.241566,1.272564,0
532822692421130,0.552383,-0.117209,7.031817,-5.698829,-0.000016,0.000001,0.000000,0.000000,0.000000,0.000000,0.000000,0.000000,-0.000000,-0.000000,0.000000,-0.000000,-0.000000,0.000000,-0.000000,-5.447511,-11.387186,3.071309,-1.420027,0.000557,-0.094349,-0.241566,1.272564,0
532822693424201,0.552381,-0.117208,7.031820,-5.698827,-0.000019,0.000003,0.000000,0.000000,0.000000,0.000000,0.000000,0.000000,-0.000000,-0.000000,0.003169,-0.000000,-0.000000,0.000000,0.000000,-5.447622,-11.387257,3.071320,-1.420027,0.000557,-0.094349,-0.241566,1.272564,0
532822694450368,0.552381,-0.117208,7.031819,-5.698829,-0.000017,0.000001,0.000000,0.000000,0.000000,0.000000,0.000000,0.000000,-0.000000,-0.000000,0.000000,-0.000000,-0.002848,0.000000,0.000000,-5.447600,-11.387235,3.071319,-1.420030,0.000557,-0.094349,-0.241566,1.272564,0
532822695445961,0.552383,-0.117208,7.031815,-5.698826,-0.000017,0.000002,0.000000,0.000000,0.000000,0.000000,0.000000,0.000000,-0.000000,-0.000000,-0.002377,0.002848,-0.000000,0.000000,0.000000,-5.447520,-11.387155,3.071299,-1.420021,0.000557,-0.094349,-0.241566,1.272564,0
532822696443495,0.552384,-0.117209,7.031818,-5.698830,-0.000017,0.000000,0.000000,0.000000,0.000000,0.000000,0.000000,0.000000,-0.000000,-0.000000,0.000000,-0.003797,-0.000000,0.000000,-0.000000,-5.447530,-11.387205,3.071314,-1.420028,0.000557,-0.094349,-0.241566,1.272564,0
532822697423515,0.552383,-0.117208,7.031816,-5.698831,-0.000018,0.000001,0.000000,0.000000,0.000000,0.000000,0.000000,0.000000,-0.000000,-0.000000,0.000000,-0.000000,-0.000000,0.000000,-0.000000,-5.447612,-11.387207,3.071315,-1.420026,0.000557,-0.094349,-0.241566,1.272564,0
532822698443222,0.552382,-0.117209,7.031818,-5.698830,-0.000015,0.000000,0.000000,0.000000,0.000000,0.000000,0.000000,0.000000,-0.000000,-0.000000,0.000000,-0.000000,0.002848,0.000000,-0.000000,-5.447534,-11.387209,3.071316,-1.420032,0.000557,-0.094349,-0.241566,1.272564,0
532822699442998,0.552382,-0.117208,7.031817,-5.698830,-0.000015,0.000002,0.000000,0.000000,0.000000,0.000000,0.000000,0.000000,-0.000000,-0.000000,0.000000,-0.000000,-0.000000,0.000000,-0.000000,-5.447574,-11.387209,3.071316,-1.420032,0.000557,-0.094349,-0.241566,1.272564,0
532822700442986,0.552382,-0.117208,7.031818,-5.698829,-0.000016,0.000000,0.000000,0.000000,0.000000,0.000000,0.000000,0.000000,-0.000000,-0.000000,0.000000,-0.000000,-0.002848,0.000000,-0.000000,-5.447642,-11.387237,3.071319,-1.420032,0.000557,-0.094349,-0.241566,1.272564,0
532822701443044,0.552384,-0.117209,7.031818,-5.698828,-0.000015,0.000002,0.000000,0.000000,0.000000,0.000000,0.000000,0.000000,-0.000000,-0.000000,0.000000,-0.000000,-0.000000,0.000000,0.000000,-5.447526,-11.387201,3.071312,-1.420030,0.000557,-0.094349,-0.241566,1.272564,0
532822702419349,0.552384,-0.117208,7.031818,-5.698828,-0.000015,0.000000,0.000000,0.000000,0.000000,0.000000,0.000000,0.000000,-0.000000,-0.000000,0.000000,-0.000000,-0.000000,0.000000,0.000000,-5.447583,-11.387218,3.071315,-1.420032,0.000557,-0.094349,-0.241566,1.272564,0
532822703444405,0.552382,-0.117209,7.031817,-5.698829,-0.000014,0.000001,0.000000,0.000000,0.000000,0.000000,0.000000,0.000000,-0.002377,-0.000000,0.000000,-0.000000,-0.000000,0.000000,-0.000000,-5.447515,-11.387190,3.071311,-1.420032,0.000557,-0.094349,-0.241566,1.272564,0
532822704445486,0.552382,-0.117208,7.031818,-5.698829,-0.000017,0.000002,0.000000,0.000000,0.000000,0.000000,0.000000,0.000000,-0.000000,-0.000000,0.000000,-0.000000,-0.002848,0.000000,0.000000,-5.447583,-11.387218,3.071315,-1.420028,0.000557,-0.094349,-0.241566,1.272564,0
532822705419931,0.552381,-0.117208,7.031819,-5.698828,-0.000017,-0.000001,0.000000,0.000000,0.000000,0.000000,0.000000,0.000000,-0.000000,-0.000000,0.000000,-0.000000,-0.000000,0.000000,0.000000,-5.447596,-11.387231,3.071317,-1.420029,0.000557,-0.094349,-0.241566,1.272564,0
532822706443312,0.552383,-0.117208,7.031817,-5.698826,-0.000017,0.000002,0.000000,0.000000,0.000000,0.000000,0.000000,0.000000,-0.000000,-0.000000,0.000000,0.002848,-0.000000,0.000000,0.000000,-5.447554,-11.387189,3.071306,-1.420024,0.000557,-0.094349,-0.241566,1.272564,0
532822707447654,0.552381,-0.117208,7.031817,-5.698832,-0.000018,0.000003,0.000000,0.000000,0.000000,0.000000,0.000000,0.000000,-0.000000,-0.000000,0.000000,-0.002848,-0.003797,0.000000,0.000000,-5.447576,-11.387211,3.071317,-1.420027,0.000557,-0.094349,-0.241566,1.272564,0
532822708443898,0.552383,-0.117209,7.031815,-5.698829,-0.000017,-0.000002,0.000000,0.000000,0.000000,0.000000,0.000000,0.000000,-0.000000,-0.000000,0.000000,-0.000000,-0.000000,-0.003797,0.000000,-5.447459,-11.387133,3.071299,-1.420021,0.000557,-0.094349,-0.241566,1.272564,0
532822709446485,0.552382,-0.117208,7.031816,-5.698830,-0.000014,0.000001,0.000000,0.000000,0.000000,0.000000,0.000000,0.000000,-0.003169,-0.000000,0.000000,-0.002848,-0.000000,0.000000,-0.000000,-5.447616,-11.387211,3.071316,-1.420034,0.000557,-0.094349,-0.241566,1.272564,0
532822710419359,0.552380,-0.117210,7.031817,-5.698828,-0.000017,0.000001,0.000000,0.000000,0.000000,0.000000,0.000000,0.000000,-0.000000,-0.002377,0.000000,-0.000000,-0.002848,0.000000,0.000000,-5.447448,-11.387163,3.071303,-1.420023,0.000557,-0.094349,-0.241566,1.272564,0
532822711454701,0.552383,-0.117209,7.031817,-5.698828,-0.000015,0.000001,0.000000,0.000000,0.000000,0.000000,0.000000,0.000000,0.002377,-0.000000,0.000000,-0.000000,-0.000000,0.000000,-0.000000,-5.447509,-11.387184,3.071308,-1.420029,0.000557,-0.094349,-0.241566,1.272564,0
532822712442663,0.552381,-0.117211,7.031817,-5.698828,-0.000016,0.000001,0.000000,0.000000,0.000000,0.000000,0.000000,0.000000,-0.000000,-0.000000,0.000000,-0.000000,-0.000000,0.000000,0.000000,-5.447393,-11.387148,3.071301,-1.420023,0.000557,-0.094349,-0.241566,1.272564,0
532822713447032,0.552382,-0.117209,7.031818,-5.698830,-0.000018,0.000002,0.000000,0.000000,0.000000,0.000000,0.000000,0.000000,-0.000000,-0.000000,0.000000,-0.000000,-0.002848,0.000000,-0.000000,-5.447528,-11.387203,3.071313,-1.420025,0.000557,-0.094349,-0.241566,1.272564,0
532822714420133,0.552383,-0.117208,7.031816,-5.698825,-0.000013,0.000002,0.000000,0.000000,0.000000,0.000000,0.000000,0.000000,-0.000000,-0.000000,0.000000,0.002848,0.004746,0.002848,0.000000,-5.447541,-11.387176,3.071304,-1.420030,0.000557,-0.094349,-0.241566,1.272564,0
532822715446385,0.552382,-0.117209,7.031818,-5.698828,-0.000015,0.000002,0.000000,0.000000,0.000000,0.000000,0.000000,0.000000,-0.000000,-0.000000,0.000000,-0.000000,-0.000000,0.000000,0.000000,-5.447526,-11.387201,3.071312,-1.420030,0.000557,-0.094349,-0.241566,1.272564,0
532822716420085,0.552383,-0.117209,7.031815,-5.698829,-0.000012,0.000001,0.000000,0.000000,0.000000,0.000000,0.000000,0.000000,-0.000000,-0.000000,-0.002377,-0.000000,0.002848,0.000000,0.000000,-5.447485,-11.387160,3.071306,-1.420033,0.000557,-0.094349,-0.241566,1.272564,0
532822717444243,0.552381,-0.117209,7.031817,-5.698829,-0.000016,0.000002,0.000000,0.000000,0.000000,0.000000,0.000000,0.000000,-0.002377,0.002377,0.000000,-0.000000,-0.000000,0.000000,-0.000000,-5.447511,-11.387186,3.071309,-1.420027,0.000557,-0.094349,-0.241566,1.272564,0
