jieun02-kim/RAON-RT-Revision/App/Indy7/rt_log_results/plotted_csv/DataLog_20260422_235612.csv
timestamp_ns,q0,q1,q2,q3,q4,q5,q_ref0,q_ref1,q_ref2,q_ref3,q_ref4,q_ref5,qd0,qd1,qd2,qd3,qd4,qd5,tau0,tau1,tau2,tau3,tau4,tau5,tcp_x,tcp_y,tcp_z,ctrl_mode
532886734601243,0.552384,-0.117201,7.032496,-5.698850,-0.000016,0.000001,0.000000,0.000000,0.000000,0.000000,0.000000,0.000000,-0.000000,-0.000000,0.000000,-0.000000,-0.000000,0.000000,-0.000000,-5.462746,-11.401982,3.074239,-1.421376,0.000557,-0.094666,-0.241764,1.272381,0
532886735573268,0.552380,-0.117201,7.032495,-5.698852,-0.000017,0.000003,0.000000,0.000000,0.000000,0.000000,0.000000,0.000000,-0.003169,-0.000000,0.000000,-0.000000,-0.000000,0.000000,-0.000000,-5.462735,-11.401971,3.074239,-1.421374,0.000557,-0.094666,-0.241764,1.272381,0
532886736597304,0.552384,-0.117200,7.032497,-5.698850,-0.000019,0.000000,0.000000,0.000000,0.000000,0.000000,0.000000,0.000000,-0.000000,-0.000000,0.000000,-0.000000,-0.000000,-0.002848,0.000000,-5.462815,-11.402010,3.074243,-1.421372,0.000557,-0.094666,-0.241764,1.272381,0
532886737596054,0.552382,-0.117201,7.032495,-5.698852,-0.000017,0.000002,0.000000,0.000000,0.000000,0.000000,0.000000,0.000000,-0.000000,-0.000000,0.000000,-0.000000,-0.000000,0.000000,0.000000,-5.462735,-11.401971,3.074239,-1.421374,0.000557,-0.094666,-0.241764,1.272381,0
532886738595332,0.552384,-0.117201,7.032496,-5.698852,-0.000018,0.000001,0.000000,0.000000,0.000000,0.000000,0.000000,0.000000,-0.000000,-0.000000,0.000000,-0.000000,-0.000000,0.000000,-0.000000,-5.462751,-11.401986,3.074242,-1.421373,0.000557,-0.094666,-0.241764,1.272381,0
532886739595612,0.552383,-0.117202,7.032496,-5.698850,-0.000018,0.000003,0.000000,0.000000,0.000000,0.000000,0.000000,0.000000,-0.000000,-0.000000,0.000000,-0.000000,-0.000000,0.000000,0.000000,-5.462629,-11.401944,3.074231,-1.421369,0.000557,-0.094666,-0.241764,1.272381,0
532886740573633,0.552384,-0.117202,7.032495,-5.698850,-0.000015,0.000000,0.000000,0.000000,0.000000,0.000000,0.000000,0.000000,-0.000000,-0.000000,0.000000,-0.000000,0.002848,-0.002848,-0.000000,-5.462600,-11.401916,3.074227,-1.421372,0.000557,-0.094666,-0.241764,1.272381,0
532886741595067,0.552383,-0.117201,7.032496,-5.698852,-0.000012,0.000001,0.000000,0.000000,0.000000,0.000000,0.000000,0.000000,-0.000000,-0.000000,0.000000,-0.000000,0.002848,0.000000,0.000000,-5.462705,-11.401980,3.074244,-1.421385,0.000557,-0.094666,-0.241764,1.272381,0
532886742596738,0.552383,-0.117200,7.032495,-5.698851,-0.000016,0.000001,0.000000,0.000000,0.000000,0.000000,0.000000,0.000000,-0.000000,-0.000000,0.000000,-0.000000,-0.003797,0.000000,-0.000000,-5.462790,-11.401986,3.074241,-1.421377,0.000557,-0.094666,-0.241764,1.272381,0
532886743600234,0.552381,-0.117202,7.032496,-5.698850,-0.000016,0.000002,0.000000,0.000000,0.000000,0.000000,0.000000,0.000000,-0.002377,-0.002377,0.000000,-0.000000,-0.000000,0.000000,0.000000,-5.462632,-11.401948,3.074233,-1.421373,0.000557,-0.094666,-0.241764,1.272381,0
532886744599434,0.552381,-0.117201,7.032495,-5.698853,-0.000015,0.000001,0.000000,0.000000,0.000000,0.000000,0.000000,0.000000,-0.000000,-0.000000,0.000000,-0.000000,-0.000000,0.000000,0.000000,-5.462747,-11.401982,3.074245,-1.421380,0.000557,-0.094666,-0.241764,1.272381,0
532886745600631,0.552383,-0.117201,7.032496,-5.698851,-0.000017,0.000003,0.000000,0.000000,0.000000,0.000000,0.000000,0.000000,-0.000000,-0.000000,0.000000,0.002848,-0.000000,0.000000,-0.000000,-5.462748,-11.401984,3.074240,-1.421375,0.000557,-0.094666,-0.241764,1.272381,0
532886746599916,0.552383,-0.117201,7.032495,-5.698852,-0.000019,0.000002,0.000000,0.000000,0.000000,0.000000,0.000000,0.000000,-0.000000,-0.000000,0.000000,-0.000000,-0.000000,0.000000,0.000000,-5.462715,-11.401950,3.074234,-1.421368,0.000557,-0.094666,-0.241764,1.272381,0
532886747573999,0.552383,-0.117201,7.032495,-5.698852,-0.000016,0.000000,0.000000,0.000000,0.000000,0.000000,0.000000,0.000000,-0.000000,-0.000000,0.000000,-0.000000,0.002848,0.000000,-0.000000,-5.462680,-11.401956,3.074237,-1.421375,0.000557,-0.094666,-0.241764,1.272381,0
532886748598034,0.552383,-0.117201,7.032496,-5.698853,-0.000017,0.000003,0.000000,0.000000,0.000000,0.000000,0.000000,0.000000,-0.000000,-0.000000,0.000000,-0.000000,-0.000000,0.002848,-0.000000,-5.462756,-11.401992,3.074244,-1.421376,0.000557,-0.094666,-0.241764,1.272381,0
532886749601537,0.552380,-0.117201,7.032497,-5.698850,-0.000019,0.000002,0.000000,0.000000,0.000000,0.000000,0.000000,0.000000,-0.002377,-0.000000,0.000000,0.002848,-0.000000,0.000000,-0.000000,-5.462701,-11.401976,3.074237,-1.421369,0.000557,-0.094666,-0.241764,1.272381,0
532886750582513,0.552383,-0.117201,7.032497,-5.698853,-0.000015,0.000003,0.000000,0.000000,0.000000,0.000000,0.000000,0.000000,0.002377,-0.000000,0.000000,-0.002848,0.003797,0.000000,0.000000,-5.462777,-11.402012,3.074249,-1.421382,0.000557,-0.094666,-0.241764,1.272381,0
532886751582056,0.552380,-0.117201,7.032498,-5.698850,-0.000017,0.000003,0.000000,0.000000,0.000000,0.000000,0.000000,0.000000,-0.002377,-0.000000,0.002377,-0.000000,-0.000000,0.000000,-0.000000,-5.462778,-11.402014,3.074245,-1.421377,0.000557,-0.094666,-0.241764,1.272381,0
532886752575784,0.552382,-0.117200,7.032497,-5.698853,-0.000017,0.000000,0.000000,0.000000,0.000000,0.000000,0.000000,0.000000,-0.000000,-0.000000,0.000000,-0.003797,-0.000000,-0.002848,0.000000,-5.462834,-11.402030,3.074253,-1.421380,0.000557,-0.094666,-0.241764,1.272381,0
532886753602553,0.552382,-0.117201,7.032495,-5.698853,-0.000018,0.000003,0.000000,0.000000,0.000000,0.000000,0.000000,0.000000,-0.000000,-0.000000,0.000000,-0.000000,-0.000000,0.002848,0.000000,-5.462664,-11.401939,3.074233,-1.421370,0.000557,-0.094666,-0.241764,1.272381,0
532886754599694,0.552382,-0.117200,7.032495,-5.698853,-0.000016,0.000003,0.000000,0.000000,0.000000,0.000000,0.000000,0.000000,-0.000000,-0.000000,0.000000,-0.000000,-0.000000,0.000000,-0.000000,-5.462798,-11.401994,3.074245,-1.421379,0.000557,-0.094666,-0.241764,1.272381,0
532886755596536,0.552384,-0.117201,7.032495,-5.698850,-0.000013,0.000003,0.000000,0.000000,0.000000,0.000000,0.000000,0.000000,-0.000000,-0.000000,-0.002377,0.002848,0.002848,0.000000,0.000000,-5.462718,-11.401953,3.074235,-1.421380,0.000557,-0.094666,-0.241764,1.272381,0
532886756611628,0.552382,-0.117202,7.032496,-5.698851,-0.000016,0.000001,0.000000,0.000000,0.000000,0.000000,0.000000,0.000000,-0.000000,-0.000000,0.000000,-0.000000,0.004746,0.000000,-0.000000,-5.462636,-11.401952,3.074235,-1.421374,0.000557,-0.094666,-0.241764,1.272381,0
532886757599167,0.552383,-0.117201,7.032496,-5.698850,-0.000016,0.000004,0.000000,0.000000,0.000000,0.000000,0.000000,0.000000,-0.000000,-0.000000,0.000000,-0.000000,-0.000000,0.002848,0.000000,-5.462746,-11.401982,3.074239,-1.421376,0.000557,-0.094666,-0.241764,1.272381,0
532886758597057,0.552383,-0.117201,7.032496,-5.698851,-0.000015,0.000003,0.000000,0.000000,0.000000,0.000000,0.000000,0.000000,-0.000000,-0.000000,0.000000,-0.000000,-0.000000,0.000000,-0.000000,-5.462695,-11.401970,3.074239,-1.421378,0.000557,-0.094666,-0.241764,1.272381,0
532886759571842,0.552383,-0.117202,7.032497,-5.698850,-0.000017,0.000002,0.000000,0.000000,0.000000,0.000000,0.000000,0.000000,-0.000000,-0.000000,0.000000,-0.000000,-0.000000,0.000000,0.000000,-5.462648,-11.401963,3.074235,-1.421372,0.000557,-0.094666,-0.241764,1.272381,0
532886760596237,0.552383,-0.117201,7.032496,-5.698850,-0.000015,0.000003,0.000000,0.000000,0.000000,0.000000,0.000000,0.000000,-0.000000,-0.000000,0.000000,-0.000000,-0.000000,0.000000,-0.000000,-5.462691,-11.401966,3.074237,-1.421377,0.000557,-0.094666,-0.241764,1.272381,0
532886761586745,0.552383,-0.117201,7.032496,-5.698851,-0.000019,0.000001,0.000000,0.000000,0.000000,0.000000,0.000000,0.000000,-0.000000,-0.000000,0.000000,-0.000000,-0.003797,0.000000,-0.000000,-5.462688,-11.401963,3.074235,-1.421369,0.000557,-0.094666,-0.241764,1.272381,0
532886762598656,0.552382,-0.117201,7.032495,-5.698850,-0.000018,0.000003,0.000000,0.000000,0.000000,0.000000,0.000000,0.000000,-0.000000,-0.000000,0.000000,-0.000000,-0.000000,0.000000,0.000000,-5.462726,-11.401961,3.074234,-1.421370,0.000557,-0.094666,-0.241764,1.272381,0
532886763604036,0.552383,-0.117201,7.032497,-5.698850,-0.000016,0.000003,0.000000,0.000000,0.000000,0.000000,0.000000,0.000000,-0.000000,-0.000000,0.000000,-0.000000,-0.000000,0.000000,-0.000000,-5.462763,-11.401999,3.074243,-1.421378,0.000557,-0.094666,-0.241764,1.272381,0
532886764572328,0.552384,-0.117201,7.032496,-5.698849,-0.000015,0.000003,0.000000,0.000000,0.000000,0.000000,0.000000,0.000000,-0.000000,-0.000000,0.000000,-0.000000,-0.000000,0.000000,0.000000,-5.462744,-11.401979,3.074238,-1.421377,0.000557,-0.094666,-0.241764,1.272381,0
532886765572675,0.552382,-0.117201,7.032495,-5.698853,-0.000017,0.000002,0.000000,0.000000,0.000000,0.000000,0.000000,0.000000,-0.002377,-0.000000,0.000000,-0.003797,-0.000000,0.000000,-0.000000,-5.462683,-11.401958,3.074238,-1.421373,0.000557,-0.094666,-0.241764,1.272381,0
532886766596439,0.552383,-0.117201,7.032495,-5.698853,-0.000018,-0.000001,0.000000,0.000000,0.000000,0.000000,0.000000,0.000000,-0.000000,-0.000000,0.000000,-0.000000,-0.000000,-0.002848,-0.000000,-5.462681,-11.401956,3.074237,-1.421371,0.000557,-0.094666,-0.241764,1.272381,0
532886767611915,0.552382,-0.117201,7.032496,-5.698850,-0.000015,0.000001,0.000000,0.000000,0.000000,0.000000,0.000000,0.000000,-0.000000,-0.000000,0.000000,-0.000000,0.002848,0.000000,-0.000000,-5.462691,-11.401966,3.074237,-1.421377,0.000557,-0.094666,-0.241764,1.272381,0
532886768596680,0.552384,-0.117201,7.032496,-5.698849,-0.000018,0.000002,0.000000,0.000000,0.000000,0.000000,0.000000,0.000000,-0.000000,-0.000000,0.000000,-0.000000,-0.002848,0.000000,0.000000,-5.462739,-11.401974,3.074236,-1.421371,0.000557,-0.094666,-0.241764,1.272381,0
532886769598766,0.552384,-0.117201,7.032497,-5.698850,-0.000016,0.000004,0.000000,0.000000,0.000000,0.000000,0.000000,0.000000,-0.000000,-0.000000,0.000000,-0.000000,-0.000000,0.000000,-0.000000,-5.462763,-11.401999,3.074243,-1.421378,0.000557,-0.094666,-0.241764,1.272381,0
532886770598392,0.552383,-0.117201,7.032496,-5.698852,-0.000016,0.000003,0.000000,0.000000,0.000000,0.000000,0.000000,0.000000,-0.000000,-0.000000,0.000000,-0.000000,-0.000000,0.000000,-0.000000,-5.462754,-11.401990,3.074243,-1.421378,0.000557,-0.094666,-0.241764,1.272381,0
532886771599612,0.552382,-0.117201,7.032496,-5.698852,-0.000017,0.000004,0.000000,0.000000,0.000000,0.000000,0.000000,0.000000,-0.000000,-0.000000,0.000000,-0.000000,-0.000000,0.000000,0.000000,-5.462695,-11.401971,3.074239,-1.421374,0.000557,-0.094666,-0.241764,1.272381,0
532886772572513,0.552382,-0.117201,7.032495,-5.698851,-0.000016,0.000003,0.000000,0.000000,0.000000,0.000000,0.000000,0.000000,-0.000000,-0.000000,0.000000,-0.000000,-0.000000,0.000000,-0.000000,-5.462676,-11.401952,3.074235,-1.421374,0.000557,-0.094666,-0.241764,1.272381,0
532886773602996,0.552383,-0.117201,7.032495,-5.698851,-0.000018,0.000003,0.000000,0.000000,0.000000,0.000000,0.000000,0.000000,-0.000000,-0.000000,0.000000,-0.000000,-0.000000,0.000000,-0.000000,-5.462730,-11.401965,3.074236,-1.421371,0.000557,-0.094666,-0.241764,1.272381,0
532886774599063,0.552383,-0.117201,7.032496,-5.698852,-0.000019,0.000002,0.000000,0.000000,0.000000,0.000000,0.000000,0.000000,-0.000000,-0.000000,0.000000,-0.000000,-0.000000,0.000000,-0.000000,-5.462692,-11.401967,3.074237,-1.421370,0.000557,-0.094666,-0.241764,1.272381,0
532886775612972,0.552381,-0.117201,7.032496,-5.698851,-0.000016,0.000004,0.000000,0.000000,0.000000,0.000000,0.000000,0.000000,-0.000000,-0.000000,0.000000,-0.000000,0.002848,0.000000,-0.000000,-5.462693,-11.401969,3.074238,-1.421375,0.000557,-0.094666,-0.241764,1.272381,0
532886776571806,0.552383,-0.117201,7.032496,-5.698852,-0.000017,0.000001,0.000000,0.000000,0.000000,0.000000,0.000000,0.000000,-0.000000,-0.000000,0.000000,-0.000000,-0.000000,-0.002848,0.000000,-5.462695,-11.401971,3.074239,-1.421374,0.000557,-0.094666,-0.241764,1.272381,0
532886777571995,0.552383,-0.117200,7.032496,-5.698852,-0.000015,0.000003,0.000000,0.000000,0.000000,0.000000,0.000000,0.000000,-0.000000,-0.000000,0.000000,-0.000000,-0.000000,0.000000,-0.000000,-5.462813,-11.402008,3.074248,-1.421382,0.000557,-0.094666,-0.241764,1.272381,0
532886778572717,0.552383,-0.117201,7.032496,-5.698854,-0.000017,0.000002,0.000000,0.000000,0.000000,0.000000,0.000000,0.000000,-0.000000,-0.000000,0.000000,-0.002848,-0.002848,0.000000,0.000000,-5.462764,-11.402000,3.074248,-1.421378,0.000557,-0.094666,-0.241764,1.272381,0
532886779607540,0.552381,-0.117200,7.032498,-5.698851,-0.000018,0.000002,0.000000,0.000000,0.000000,0.000000,0.000000,0.000000,-0.000000,-0.000000,0.000000,-0.000000,-0.000000,0.000000,-0.000000,-5.462837,-11.402033,3.074250,-1.421377,0.000557,-0.094666,-0.241764,1.272381,0
532886780599496,0.552382,-0.117202,7.032498,-5.698851,-0.000017,0.000001,0.000000,0.000000,0.000000,0.000000,0.000000,0.000000,-0.000000,-0.002377,0.000000,-0.000000,-0.000000,0.000000,-0.000000,-5.462668,-11.401984,3.074240,-1.421375,0.000557,-0.094666,-0.241764,1.272381,0
532886781573991,0.552384,-0.117200,7.032497,-5.698852,-0.000017,0.000001,0.000000,0.000000,0.000000,0.000000,0.000000,0.000000,-0.000000,0.002377,0.002377,-0.000000,-0.000000,0.000000,-0.000000,-5.462826,-11.402022,3.074249,-1.421379,0.000557,-0.094666,-0.241764,1.272381,0
532886782578755,0.552383,-0.117201,7.032495,-5.698851,-0.000017,0.000001,0.000000,0.000000,0.000000,0.000000,0.000000,0.000000,-0.000000,-0.000000,0.000000,-0.000000,-0.000000,0.000000,0.000000,-5.462731,-11.401967,3.074237,-1.421373,0.000557,-0.094666,-0.241764,1.272381,0
532886783581072,0.552382,-0.117201,7.032495,-5.698852,-0.000017,0.000002,0.000000,0.000000,0.000000,0.000000,0.000000,0.000000,-0.000000,-0.000000,0.000000,-0.000000,-0.000000,0.000000,0.000000,-5.462735,-11.401971,3.074239,-1.421374,0.000557,-0.094666,-0.241764,1.272381,0
532886784613451,0.552383,-0.117201,7.032495,-5.698854,-0.000017,0.000000,0.000000,0.000000,0.000000,0.000000,0.000000,0.000000,-0.000000,-0.000000,0.000000,-0.002848,-0.000000,0.000000,0.000000,-5.462730,-11.401966,3.074242,-1.421375,0.000557,-0.094666,-0.241764,1.272381,0
532886785603985,0.552384,-0.117201,7.032495,-5.698851,-0.000015,0.000003,0.000000,0.000000,0.000000,0.000000,0.000000,0.000000,-0.000000,-0.000000,0.000000,0.003797,-0.000000,0.002848,-0.000000,-5.462678,-11.401954,3.074236,-1.421376,0.000557,-0.094666,-0.241764,1.272381,0
532886786600984,0.552384,-0.117201,7.032495,-5.698852,-0.000016,0.000003,0.000000,0.000000,0.000000,0.000000,0.000000,0.000000,-0.000000,-0.000000,0.000000,-0.000000,-0.000000,0.000000,-0.000000,-5.462680,-11.401956,3.074237,-1.421375,0.000557,-0.094666,-0.241764,1.272381,0
532886787598556,0.552384,-0.117202,7.032496,-5.698850,-0.000018,0.000000,0.000000,0.000000,0.000000,0.000000,0.000000,0.000000,-0.000000,-0.000000,0.000000,-0.000000,-0.000000,-0.003797,-0.000000,-5.462629,-11.401944,3.074231,-1.421369,0.000557,-0.094666,-0.241764,1.272381,0
532886788597315,0.552384,-0.117201,7.032495,-5.698851,-0.000018,0.000002,0.000000,0.000000,0.000000,0.000000,0.000000,0.000000,-0.000000,-0.000000,0.000000,-0.000000,-0.003797,0.000000,0.000000,-5.462730,-11.401965,3.074236,-1.421371,0.000557,-0.094666,-0.241764,1.272381,0
532886789596318,0.552384,-0.117201,7.032495,-5.698851,-0.000020,0.000001,0.000000,0.000000,0.000000,0.000000,0.000000,0.000000,-0.000000,-0.000000,0.000000,-0.000000,-0.000000,0.000000,0.000000,-5.462726,-11.401961,3.074234,-1.421367,0.000557,-0.094666,-0.241764,1.272381,0
532886790596479,0.552384,-0.117201,7.032495,-5.698853,-0.000017,0.000002,0.000000,0.000000,0.000000,0.000000,0.000000,0.000000,-0.000000,-0.000000,0.000000,-0.002848,0.002848,0.000000,0.000000,-5.462670,-11.401945,3.074236,-1.421373,0.000557,-0.094666,-0.241764,1.272381,0
532886791596904,0.552382,-0.117203,7.032498,-5.698850,-0.000019,0.000003,0.000000,0.000000,0.000000,0.000000,0.000000,0.000000,-0.000000,-0.000000,0.003169,0.003797,-0.000000,0.000000,-0.000000,-5.462604,-11.401959,3.074233,-1.421368,0.000557,-0.094666,-0.241764,1.272381,0
532886792597430,0.552383,-0.117201,7.032496,-5.698851,-0.000017,0.000001,0.000000,0.000000,0.000000,0.000000,0.000000,0.000000,-0.000000,-0.000000,0.000000,-0.000000,-0.000000,0.000000,-0.000000,-5.462692,-11.401967,3.074237,-1.421373,0.000557,-0.094666,-0.241764,1.272381,0
532886793596772,0.552384,-0.117200,7.032495,-5.698850,-0.000018,0.000002,0.000000,0.000000,0.000000,0.000000,0.000000,0.000000,-0.000000,-0.000000,0.000000,-0.000000,-0.000000,0.000000,0.000000,-5.462766,-11.401961,3.074234,-1.421370,0.000557,-0.094666,-0.241764,1.272381,0
532886794600099,0.552382,-0.117202,7.032495,-5.698852,-0.000016,0.000004,0.000000,0.000000,0.000000,0.000000,0.000000,0.000000,-0.002377,-0.002377,0.000000,-0.000000,-0.000000,0.000000,0.000000,-5.462623,-11.401939,3.074233,-1.421373,0.000557,-0.094666,-0.241764,1.272381,0
532886795600535,0.552381,-0.117200,7.032496,-5.698851,-0.000013,0.000000,0.000000,0.000000,0.000000,0.000000,0.000000,0.000000,-0.000000,0.002377,0.000000,-0.000000,0.002848,-0.003797,-0.000000,-5.462813,-11.402008,3.074247,-1.421385,0.000557,-0.094666,-0.241764,1.272381,0
532886796596472,0.552381,-0.117202,7.032496,-5.698852,-0.000016,0.000001,0.000000,0.000000,0.000000,0.000000,0.000000,0.000000,-0.000000,-0.002377,0.000000,-0.000000,-0.002848,0.000000,-0.000000,-5.462640,-11.401956,3.074237,-1.421375,0.000557,-0.094666,-0.241764,1.272381,0
532886797596813,0.552384,-0.117201,7.032495,-5.698851,-0.000020,0.000001,0.000000,0.000000,0.000000,0.000000,0.000000,0.000000,0.002377,-0.000000,0.000000,-0.000000,-0.003797,0.000000,-0.000000,-5.462669,-11.401944,3.074231,-1.421365,0.000557,-0.094666,-0.241764,1.272381,0
532886798595099,0.552383,-0.117201,7.032497,-5.698851,-0.000016,0.000002,0.000000,0.000000,0.000000,0.000000,0.000000,0.000000,-0.000000,-0.000000,0.000000,-0.000000,0.003797,0.000000,0.000000,-5.462710,-11.401986,3.074241,-1.421377,0.000557,-0.094666,-0.241764,1.272381,0
532886799596745,0.552381,-0.117201,7.032496,-5.698851,-0.000015,0.000002,0.000000,0.000000,0.000000,0.000000,0.000000,0.000000,-0.000000,-0.000000,0.000000,-0.000000,-0.000000,0.000000,0.000000,-5.462695,-11.401970,3.074239,-1.421378,0.000557,-0.094666,-0.241764,1.272381,0
532886800598810,0.552383,-0.117202,7.032496,-5.698851,-0.000016,0.000002,0.000000,0.000000,0.000000,0.000000,0.000000,0.000000,-0.000000,-0.000000,0.000000,-0.000000,-0.000000,0.000000,0.000000,-5.462636,-11.401952,3.074235,-1.421374,0.000557,-0.094666,-0.241764,1.272381,0
532886801596283,0.552384,-0.117202,7.032495,-5.698849,-0.000016,0.000000,0.000000,0.000000,0.000000,0.000000,0.000000,0.000000,-0.000000,-0.000000,0.000000,-0.000000,-0.000000,0.000000,0.000000,-5.462595,-11.401910,3.074224,-1.421369,0.000557,-0.094666,-0.241764,1.272381,0
532886802596531,0.552381,-0.117201,7.032495,-5.698851,-0.000016,0.000001,0.000000,0.000000,0.000000,0.000000,0.000000,0.000000,-0.002377,-0.000000,0.000000,-0.000000,-0.000000,0.000000,-0.000000,-5.462676,-11.401952,3.074235,-1.421374,0.000557,-0.094666,-0.241764,1.272381,0
532886803596511,0.552383,-0.117201,7.032495,-5.698849,-0.000017,0.000003,0.000000,0.000000,0.000000,0.000000,0.000000,0.000000,-0.000000,-0.000000,0.000000,-0.000000,-0.000000,0.000000,0.000000,-5.462707,-11.401942,3.074230,-1.421370,0.000557,-0.094666,-0.241764,1.272381,0
532886804597534,0.552384,-0.117202,7.032496,-5.698853,-0.000015,0.000000,0.000000,0.000000,0.000000,0.000000,0.000000,0.000000,-0.000000,-0.000000,0.000000,-0.004746,-0.000000,-0.002848,0.000000,-5.462650,-11.401965,3.074241,-1.421379,0.000557,-0.094666,-0.241764,1.272381,0
532886805600106,0.552381,-0.117201,7.032496,-5.698851,-0.000016,0.000004,0.000000,0.000000,0.000000,0.000000,0.000000,0.000000,-0.003169,-0.000000,0.000000,0.002848,-0.000000,0.003797,0.000000,-5.462750,-11.401986,3.074241,-1.421377,0.000557,-0.094666,-0.241764,1.272381,0
532886806612371,0.552382,-0.117201,7.032497,-5.698850,-0.000018,0.000003,0.000000,0.000000,0.000000,0.000000,0.000000,0.000000,-0.000000,-0.000000,0.000000,-0.000000,-0.000000,0.000000,-0.000000,-5.462703,-11.401978,3.074238,-1.421372,0.000557,-0.094666,-0.241764,1.272381,0
532886807572855,0.552383,-0.117201,7.032495,-5.698852,-0.000016,0.000002,0.000000,0.000000,0.000000,0.000000,0.000000,0.000000,-0.000000,-0.000000,0.000000,-0.000000,-0.000000,0.000000,0.000000,-5.462737,-11.401973,3.074240,-1.421376,0.000557,-0.094666,-0.241764,1.272381,0
532886808572093,0.552384,-0.117200,7.032495,-5.698850,-0.000015,0.000003,0.000000,0.000000,0.000000,0.000000,0.000000,0.000000,-0.000000,-0.000000,0.000000,-0.000000,-0.000000,0.000000,-0.000000,-5.462788,-11.401983,3.074240,-1.421378,0.000557,-0.094666,-0.241764,1.272381,0
532886809571870,0.552384,-0.117201,7.032497,-5.698850,-0.000017,0.000001,0.000000,0.000000,0.000000,0.000000,0.000000,0.000000,-0.000000,-0.000000,0.000000,-0.000000,-0.000000,0.000000,-0.000000,-5.462761,-11.401997,3.074242,-1.421375,0.000557,-0.094666,-0.241764,1.272381,0
532886810605386,0.552383,-0.117202,7.032496,-5.698851,-0.000017,0.000002,0.000000,0.000000,0.000000,0.000000,0.000000,0.000000,-0.000000,-0.003169,0.000000,-0.000000,-0.000000,0.000000,0.000000,-5.462635,-11.401950,3.074234,-1.421372,0.000557,-0.094666,-0.241764,1.272381,0
532886811594428,0.552383,-0.117201,7.032496,-5.698850,-0.000017,0.000004,0.000000,0.000000,0.000000,0.000000,0.000000,0.000000,-0.000000,-0.000000,0.000000,-0.000000,-0.000000,0.000000,0.000000,-5.462744,-11.401980,3.074239,-1.421374,0.000557,-0.094666,-0.241764,1.272381,0
532886812578658,0.552384,-0.117201,7.032496,-5.698853,-0.000016,0.000005,0.000000,0.000000,0.000000,0.000000,0.000000,0.000000,-0.000000,-0.000000,0.000000,-0.000000,-0.000000,0.000000,-0.000000,-5.462701,-11.401977,3.074242,-1.421377,0.000557,-0.094666,-0.241764,1.272381,0
532886813574937,0.552382,-0.117200,7.032496,-5.698851,-0.000016,0.000001,0.000000,0.000000,0.000000,0.000000,0.000000,0.000000,-0.000000,-0.000000,0.000000,-0.000000,-0.000000,0.000000,-0.000000,-5.462807,-11.402002,3.074245,-1.421378,0.000557,-0.094666,-0.241764,1.272381,0
532886814598940,0.552385,-0.117201,7.032495,-5.698853,-0.000017,0.000003,0.000000,0.000000,0.000000,0.000000,0.000000,0.000000,0.003169,-0.000000,0.000000,-0.000000,-0.000000,0.000000,0.000000,-5.462666,-11.401941,3.074234,-1.421372,0.000557,-0.094666,-0.241764,1.272381,0
532886815596870,0.552382,-0.117201,7.032495,-5.698850,-0.000014,0.000003,0.000000,0.000000,0.000000,0.000000,0.000000,0.000000,-0.003169,-0.000000,0.000000,0.002848,0.002848,0.000000,0.000000,-5.462733,-11.401968,3.074238,-1.421379,0.000557,-0.094666,-0.241764,1.272381,0
532886816597703,0.552382,-0.117203,7.032495,-5.698853,-0.000017,0.000001,0.000000,0.000000,0.000000,0.000000,0.000000,0.000000,-0.000000,-0.002377,0.000000,-0.002848,-0.002848,0.000000,0.000000,-5.462569,-11.401924,3.074231,-1.421370,0.000557,-0.094666,-0.241764,1.272381,0
532886817596186,0.552382,-0.117201,7.032498,-5.698852,-0.000017,0.000000,0.000000,0.000000,0.000000,0.000000,0.000000,0.000000,-0.000000,-0.000000,0.002377,-0.000000,-0.000000,0.000000,-0.000000,-5.462729,-11.402005,3.074246,-1.421377,0.000557,-0.094666,-0.241764,1.272381,0
532886818600470,0.552383,-0.117201,7.032496,-5.698850,-0.000018,0.000001,0.000000,0.000000,0.000000,0.000000,0.000000,0.000000,-0.000000,-0.000000,0.000000,-0.000000,-0.000000,0.000000,-0.000000,-5.462686,-11.401961,3.074234,-1.421370,0.000557,-0.094666,-0.241764,1.272381,0
532886819596254,0.552384,-0.117202,7.032495,-5.698851,-0.000018,0.000003,0.000000,0.000000,0.000000,0.000000,0.000000,0.000000,-0.000000,-0.000000,0.000000,-0.000000,-0.000000,0.000000,0.000000,-5.462599,-11.401914,3.074226,-1.421366,0.000557,-0.094666,-0.241764,1.272381,0
532886820589910,0.552384,-0.117201,7.032495,-5.698853,-0.000016,0.000002,0.000000,0.000000,0.000000,0.000000,0.000000,0.000000,-0.000000,-0.000000,0.000000,-0.000000,-0.000000,0.000000,-0.000000,-5.462684,-11.401960,3.074239,-1.421376,0.000557,-0.094666,-0.241764,1.272381,0
532886821571718,0.552382,-0.117201,7.032496,-5.698852,-0.000017,0.000003,0.000000,0.000000,0.000000,0.000000,0.000000,0.000000,-0.000000,-0.000000,0.000000,-0.000000,-0.000000,0.000000,0.000000,-5.462695,-11.401971,3.074239,-1.421374,0.000557,-0.094666,-0.241764,1.272381,0
532886822572241,0.552382,-0.117202,7.032498,-5.698848,-0.000017,0.000003,0.000000,0.000000,0.000000,0.000000,0.000000,0.000000,-0.000000,-0.000000,0.000000,0.003797,-0.000000,0.000000,-0.000000,-5.462657,-11.401972,3.074235,-1.421372,0.000557,-0.094666,-0.241764,1.272381,0
532886823596277,0.552382,-0.117201,7.032496,-5.698851,-0.000017,0.000004,0.000000,0.000000,0.000000,0.000000,0.000000,0.000000,-0.000000,-0.000000,0.000000,-0.002848,-0.000000,0.000000,-0.000000,-5.462692,-11.401967,3.074237,-1.421373,0.000557,-0.094666,-0.241764,1.272381,0
532886824571865,0.552383,-0.117199,7.032497,-5.698850,-0.000015,0.000003,0.000000,0.000000,0.000000,0.000000,0.000000,0.000000,-0.000000,0.002377,0.000000,-0.000000,-0.000000,0.000000,-0.000000,-5.462879,-11.402034,3.074250,-1.421383,0.000557,-0.094666,-0.241764,1.272381,0
532886825571944,0.552384,-0.117202,7.032495,-5.698853,-0.000013,0.000003,0.000000,0.000000,0.000000,0.000000,0.000000,0.000000,-0.000000,-0.003169,0.000000,-0.002848,-0.000000,0.000000,-0.000000,-5.462633,-11.401948,3.074238,-1.421381,0.000557,-0.094666,-0.241764,1.272381,0
532886826571617,0.552381,-0.117201,7.032496,-5.698852,-0.000019,0.000005,0.000000,0.000000,0.000000,0.000000,0.000000,0.000000,-0.003169,-0.000000,0.000000,-0.000000,-0.005695,0.000000,-0.000000,-5.462749,-11.401984,3.074241,-1.421371,0.000557,-0.094666,-0.241764,1.272381,0
532886827572054,0.552384,-0.117201,7.032496,-5.698853,-0.000016,0.000000,0.000000,0.000000,0.000000,0.000000,0.000000,0.000000,0.002377,-0.000000,0.000000,-0.002848,0.002848,-0.004746,-0.000000,-5.462701,-11.401977,3.074242,-1.421377,0.000557,-0.094666,-0.241764,1.272381,0
532886828573682,0.552384,-0.117201,7.032495,-5.698850,-0.000019,0.000002,0.000000,0.000000,0.000000,0.000000,0.000000,0.000000,-0.000000,-0.000000,0.000000,-0.000000,-0.002848,0.000000,-0.000000,-5.462724,-11.401959,3.074233,-1.421368,0.000557,-0.094666,-0.241764,1.272381,0
532886829571695,0.552383,-0.117201,7.032495,-5.698853,-0.000017,0.000002,0.000000,0.000000,0.000000,0.000000,0.000000,0.000000,-0.000000,-0.000000,0.000000,-0.002848,-0.000000,0.000000,-0.000000,-5.462683,-11.401958,3.074238,-1.421373,0.000557,-0.094666,-0.241764,1.272381,0
532886830571473,0.552383,-0.117202,7.032496,-5.698849,-0.000017,0.000002,0.000000,0.000000,0.000000,0.000000,0.000000,0.000000,-0.000000,-0.000000,0.000000,0.002848,-0.000000,0.000000,-0.000000,-5.462627,-11.401942,3.074230,-1.421370,0.000557,-0.094666,-0.241764,1.272381,0
532886831571695,0.552382,-0.117201,7.032495,-5.698851,-0.000018,0.000000,0.000000,0.000000,0.000000,0.000000,0.000000,0.000000,-0.000000,-0.000000,0.000000,-0.000000,-0.000000,0.000000,-0.000000,-5.462673,-11.401948,3.074233,-1.421369,0.000557,-0.094666,-0.241764,1.272381,0
532886832571784,0.552382,-0.117201,7.032496,-5.698852,-0.000015,0.000001,0.000000,0.000000,0.000000,0.000000,0.000000,0.000000,-0.000000,-0.000000,0.000000,-0.000000,0.002848,0.000000,0.000000,-5.462699,-11.401974,3.074241,-1.421378,0.000557,-0.094666,-0.241764,1.272381,0
532886833599858,0.552384,-0.117202,7.032495,-5.698852,-0.000014,0.000001,0.000000,0.000000,0.000000,0.000000,0.000000,0.000000,-0.000000,-0.000000,0.000000,-0.000000,-0.000000,0.000000,0.000000,-5.462627,-11.401942,3.074235,-1.421378,0.000557,-0.094666,-0.241764,1.272381,0
532886834609564,0.552380,-0.117202,7.032495,-5.698853,-0.000017,0.000002,0.000000,0.000000,0.000000,0.000000,0.000000,0.000000,-0.003169,-0.000000,0.000000,-0.000000,-0.002848,0.000000,-0.000000,-5.462626,-11.401941,3.074234,-1.421372,0.000557,-0.094666,-0.241764,1.272381,0
532886835599364,0.552383,-0.117201,7.032496,-5.698852,-0.000018,0.000002,0.000000,0.000000,0.000000,0.000000,0.000000,0.000000,-0.000000,-0.000000,0.000000,-0.000000,-0.000000,0.000000,0.000000,-5.462751,-11.401986,3.074242,-1.421373,0.000557,-0.094666,-0.241764,1.272381,0
532886836600008,0.552381,-0.117201,7.032496,-5.698851,-0.000014,0.000002,0.000000,0.000000,0.000000,0.000000,0.000000,0.000000,-0.000000,-0.000000,0.000000,-0.000000,0.003797,0.000000,-0.000000,-5.462697,-11.401972,3.074240,-1.421380,0.000557,-0.094666,-0.241764,1.272381,0
532886837598127,0.552383,-0.117200,7.032496,-5.698848,-0.000017,0.000002,0.000000,0.000000,0.000000,0.000000,0.000000,0.000000,-0.000000,-0.000000,0.000000,0.002848,-0.002848,0.000000,0.000000,-5.462793,-11.401989,3.074238,-1.421374,0.000557,-0.094666,-0.241764,1.272381,0
532886838599458,0.552384,-0.117201,7.032498,-5.698852,-0.000018,0.000001,0.000000,0.000000,0.000000,0.000000,0.000000,0.000000,-0.000000,-0.000000,0.000000,-0.003797,-0.000000,0.000000,-0.000000,-5.462728,-11.402003,3.074245,-1.421375,0.000557,-0.094666,-0.241764,1.272381,0
532886839607020,0.552382,-0.117202,7.032497,-5.698851,-0.000018,0.000001,0.000000,0.000000,0.000000,0.000000,0.000000,0.000000,-0.000000,-0.000000,0.000000,-0.000000,-0.000000,0.000000,-0.000000,-5.462650,-11.401965,3.074236,-1.421371,0.000557,-0.094666,-0.241764,1.272381,0
532886840600076,0.552382,-0.117201,7.032495,-5.698852,-0.000015,0.000004,0.000000,0.000000,0.000000,0.000000,0.000000,0.000000,-0.000000,-0.000000,0.000000,-0.000000,0.002848,0.002848,-0.000000,-5.462682,-11.401957,3.074238,-1.421377,0.000557,-0.094666,-0.241764,1.272381,0
532886841596160,0.552381,-0.117201,7.032496,-5.698852,-0.000016,0.000002,0.000000,0.000000,0.000000,0.000000,0.000000,0.000000,-0.000000,-0.000000,0.000000,-0.000000,-0.000000,0.000000,-0.000000,-5.462754,-11.401990,3.074243,-1.421378,0.000557,-0.094666,-0.241764,1.272381,0
532886842597215,0.552383,-0.117201,7.032496,-5.698851,-0.000016,0.000002,0.000000,0.000000,0.000000,0.000000,0.000000,0.000000,-0.000000,-0.000000,0.000000,-0.000000,-0.000000,0.000000,-0.000000,-5.462693,-11.401969,3.074238,-1.421375,0.000557,-0.094666,-0.241764,1.272381,0
532886843572551,0.552384,-0.117201,7.032496,-5.698851,-0.000015,0.000001,0.000000,0.000000,0.000000,0.000000,0.000000,0.000000,-0.000000,-0.000000,0.000000,-0.000000,-0.000000,0.000000,0.000000,-5.462752,-11.401987,3.074242,-1.421379,0.000557,-0.094666,-0.241764,1.272381,0
532886844579444,0.552383,-0.117202,7.032496,-5.698851,-0.000018,0.000003,0.000000,0.000000,0.000000,0.000000,0.000000,0.000000,-0.000000,-0.000000,0.000000,-0.000000,-0.002848,0.000000,-0.000000,-5.462633,-11.401948,3.074233,-1.421369,0.000557,-0.094666,-0.241764,1.272381,0
532886845602517,0.552384,-0.117201,7.032496,-5.698851,-0.000017,0.000001,0.000000,0.000000,0.000000,0.000000,0.000000,0.000000,-0.000000,-0.000000,0.000000,-0.000000,-0.000000,0.000000,-0.000000,-5.462748,-11.401984,3.074240,-1.421375,0.000557,-0.094666,-0.241764,1.272381,0
532886846602287,0.552382,-0.117202,7.032496,-5.698853,-0.000018,0.000003,0.000000,0.000000,0.000000,0.000000,0.000000,0.000000,-0.000000,-0.000000,0.000000,-0.000000,-0.000000,0.000000,-0.000000,-5.462641,-11.401956,3.074237,-1.421371,0.000557,-0.094666,-0.241764,1.272381,0
532886847600392,0.552382,-0.117201,7.032495,-5.698848,-0.000017,0.000003,0.000000,0.000000,0.000000,0.000000,0.000000,0.000000,-0.000000,-0.000000,0.000000,0.002848,-0.000000,0.000000,-0.000000,-5.462663,-11.401938,3.074228,-1.421369,0.000557,-0.094666,-0.241764,1.272381,0
532886848596753,0.552383,-0.117201,7.032495,-5.698851,-0.000017,0.000000,0.000000,0.000000,0.000000,0.000000,0.000000,0.000000,-0.000000,-0.000000,0.002377,-0.000000,-0.000000,-0.003797,-0.000000,-5.462675,-11.401950,3.074234,-1.421372,0.000557,-0.094666,-0.241764,1.272381,0
532886849598852,0.552382,-0.117200,7.032498,-5.698853,-0.000016,0.000000,0.000000,0.000000,0.000000,0.000000,0.000000,0.000000,-0.000000,-0.000000,0.002377,-0.000000,0.005695,0.000000,-0.000000,-5.462849,-11.402044,3.074255,-1.421383,0.000557,-0.094666,-0.241764,1.272381,0
532886850600126,0.552381,-0.117201,7.032497,-5.698853,-0.000017,0.000000,0.000000,0.000000,0.000000,0.000000,0.000000,0.000000,-0.000000,-0.000000,0.000000,-0.000000,-0.000000,0.000000,-0.000000,-5.462716,-11.401992,3.074244,-1.421376,0.000557,-0.094666,-0.241764,1.272381,0
532886851596271,0.552384,-0.117201,7.032496,-5.698851,-0.000015,0.000003,0.000000,0.000000,0.000000,0.000000,0.000000,0.000000,0.002377,-0.000000,0.000000,-0.000000,-0.000000,0.002848,-0.000000,-5.462695,-11.401970,3.074239,-1.421378,0.000557,-0.094666,-0.241764,1.272381,0
532886852596259,0.552382,-0.117203,7.032495,-5.698851,-0.000014,0.000001,0.000000,0.000000,0.000000,0.000000,0.000000,0.000000,-0.000000,-0.000000,0.000000,-0.000000,-0.000000,0.000000,0.000000,-5.462566,-11.401921,3.074230,-1.421375,0.000557,-0.094666,-0.241764,1.272381,0
532886853595836,0.552383,-0.117201,7.032495,-5.698852,-0.000016,0.000001,0.000000,0.000000,0.000000,0.000000,0.000000,0.000000,-0.000000,-0.000000,0.000000,-0.000000,-0.000000,0.000000,-0.000000,-5.462680,-11.401956,3.074237,-1.421375,0.000557,-0.094666,-0.241764,1.272381,0
532886854599542,0.552384,-0.117200,7.032496,-5.698851,-0.000017,0.000002,0.000000,0.000000,0.000000,0.000000,0.000000,0.000000,-0.000000,-0.000000,0.000000,-0.000000,-0.000000,0.000000,-0.000000,-5.462805,-11.402001,3.074244,-1.421376,0.000557,-0.094666,-0.241764,1.272381,0
532886855596584,0.552382,-0.117202,7.032496,-5.698851,-0.000017,0.000004,0.000000,0.000000,0.000000,0.000000,0.000000,0.000000,-0.000000,-0.002377,0.000000,-0.000000,-0.000000,0.000000,0.000000,-5.462635,-11.401950,3.074234,-1.421372,0.000557,-0.094666,-0.241764,1.272381,0
532886856599494,0.552383,-0.117200,7.032495,-5.698852,-0.000019,0.000001,0.000000,0.000000,0.000000,0.000000,0.000000,0.000000,-0.000000,0.002377,0.000000,-0.000000,-0.000000,-0.002848,-0.000000,-5.462772,-11.401967,3.074237,-1.421370,0.000557,-0.094666,-0.241764,1.272381,0
532886857597248,0.552382,-0.117201,7.032497,-5.698849,-0.000017,0.000002,0.000000,0.000000,0.000000,0.000000,0.000000,0.000000,-0.000000,-0.000000,0.002377,0.002848,-0.000000,0.000000,-0.000000,-5.462700,-11.401976,3.074237,-1.421373,0.000557,-0.094666,-0.241764,1.272381,0
532886858598746,0.552384,-0.117203,7.032495,-5.698852,-0.000017,0.000000,0.000000,0.000000,0.000000,0.000000,0.000000,0.000000,0.002377,-0.000000,0.000000,-0.002848,-0.000000,0.000000,0.000000,-5.462565,-11.401920,3.074229,-1.421369,0.000557,-0.094666,-0.241764,1.272381,0
532886859598182,0.552382,-0.117201,7.032496,-5.698850,-0.000018,0.000002,0.000000,0.000000,0.000000,0.000000,0.000000,0.000000,-0.002377,-0.000000,0.000000,-0.000000,-0.000000,0.000000,-0.000000,-5.462686,-11.401961,3.074234,-1.421370,0.000557,-0.094666,-0.241764,1.272381,0
532886860600217,0.552383,-0.117201,7.032495,-5.698850,-0.000016,0.000002,0.000000,0.000000,0.000000,0.000000,0.000000,0.000000,-0.000000,-0.000000,0.000000,-0.000000,-0.000000,0.000000,0.000000,-5.462729,-11.401965,3.074236,-1.421374,0.000557,-0.094666,-0.241764,1.272381,0
532886861599387,0.552383,-0.117201,7.032497,-5.698850,-0.000020,0.000002,0.000000,0.000000,0.000000,0.000000,0.000000,0.000000,-0.000000,-0.000000,0.000000,-0.000000,-0.003797,0.000000,-0.000000,-5.462699,-11.401974,3.074236,-1.421367,0.000557,-0.094666,-0.241764,1.272381,0
532886862597470,0.552384,-0.117201,7.032496,-5.698850,-0.000017,0.000003,0.000000,0.000000,0.000000,0.000000,0.000000,0.000000,-0.000000,-0.000000,0.000000,-0.000000,0.002848,0.000000,0.000000,-5.462688,-11.401963,3.074235,-1.421372,0.000557,-0.094666,-0.241764,1.272381,0
532886863596558,0.552384,-0.117201,7.032497,-5.698851,-0.000018,0.000003,0.000000,0.000000,0.000000,0.000000,0.000000,0.000000,-0.000000,-0.000000,0.000000,-0.000000,-0.000000,0.000000,-0.000000,-5.462707,-11.401982,3.074240,-1.421372,0.000557,-0.094666,-0.241764,1.272381,0
532886864596795,0.552384,-0.117201,7.032496,-5.698853,-0.000016,0.000002,0.000000,0.000000,0.000000,0.000000,0.000000,0.000000,-0.000000,-0.000000,0.000000,-0.000000,-0.000000,0.000000,-0.000000,-5.462701,-11.401977,3.074242,-1.421377,0.000557,-0.094666,-0.241764,1.272381,0
532886865598805,0.552381,-0.117200,7.032495,-5.698853,-0.000015,0.000003,0.000000,0.000000,0.000000,0.000000,0.000000,0.000000,-0.002377,-0.000000,0.000000,-0.000000,-0.000000,0.000000,-0.000000,-5.462800,-11.401995,3.074246,-1.421381,0.000557,-0.094666,-0.241764,1.272381,0
532886866600783,0.552384,-0.117201,7.032496,-5.698852,-0.000017,0.000002,0.000000,0.000000,0.000000,0.000000,0.000000,0.000000,0.002377,-0.000000,0.000000,-0.000000,-0.000000,0.000000,-0.000000,-5.462695,-11.401971,3.074239,-1.421374,0.000557,-0.094666,-0.241764,1.272381,0
532886867600731,0.552382,-0.117200,7.032495,-5.698852,-0.000016,0.000002,0.000000,0.000000,0.000000,0.000000,0.000000,0.000000,-0.000000,-0.000000,0.000000,-0.000000,-0.000000,0.000000,0.000000,-5.462794,-11.401990,3.074243,-1.421378,0.000557,-0.094666,-0.241764,1.272381,0
532886868597900,0.552384,-0.117202,7.032497,-5.698850,-0.000019,0.000003,0.000000,0.000000,0.000000,0.000000,0.000000,0.000000,-0.000000,-0.002377,0.000000,-0.000000,-0.002848,0.000000,-0.000000,-5.462644,-11.401959,3.074233,-1.421368,0.000557,-0.094666,-0.241764,1.272381,0
532886869572975,0.552381,-0.117201,7.032495,-5.698852,-0.000017,0.000004,0.000000,0.000000,0.000000,0.000000,0.000000,0.000000,-0.002377,-0.000000,0.000000,-0.000000,-0.000000,0.000000,-0.000000,-5.462679,-11.401954,3.074236,-1.421373,0.000557,-0.094666,-0.241764,1.272381,0
532886870598622,0.552384,-0.117201,7.032497,-5.698851,-0.000018,0.000002,0.000000,0.000000,0.000000,0.000000,0.000000,0.000000,0.002377,-0.000000,0.000000,-0.000000,-0.000000,0.000000,-0.000000,-5.462707,-11.401982,3.074240,-1.421372,0.000557,-0.094666,-0.241764,1.272381,0
532886871599282,0.552382,-0.117201,7.032496,-5.698848,-0.000017,0.000001,0.000000,0.000000,0.000000,0.000000,0.000000,0.000000,-0.000000,-0.000000,0.000000,0.002848,-0.000000,0.000000,0.000000,-5.462736,-11.401972,3.074235,-1.421372,0.000557,-0.094666,-0.241764,1.272381,0
532886872600386,0.552383,-0.117201,7.032496,-5.698851,-0.000017,0.000000,0.000000,0.000000,0.000000,0.000000,0.000000,0.000000,-0.000000,-0.000000,0.000000,-0.002848,-0.000000,0.000000,-0.000000,-5.462748,-11.401984,3.074240,-1.421375,0.000557,-0.094666,-0.241764,1.272381,0
532886873600159,0.552384,-0.117201,7.032496,-5.698851,-0.000017,-0.000001,0.000000,0.000000,0.000000,0.000000,0.000000,0.000000,-0.000000,-0.000000,0.000000,-0.000000,-0.000000,0.000000,-0.000000,-5.462692,-11.401967,3.074237,-1.421373,0.000557,-0.094666,-0.241764,1.272381,0
532886874596767,0.552385,-0.117202,7.032495,-5.698852,-0.000016,0.000004,0.000000,0.000000,0.000000,0.000000,0.000000,0.000000,-0.000000,-0.000000,0.000000,-0.000000,-0.000000,0.004746,-0.000000,-5.462607,-11.401922,3.074230,-1.421372,0.000557,-0.094666,-0.241764,1.272381,0
532886875595959,0.552383,-0.117202,7.032495,-5.698850,-0.000017,0.000002,0.000000,0.000000,0.000000,0.000000,0.000000,0.000000,-0.002377,-0.000000,0.000000,-0.000000,-0.000000,0.000000,-0.000000,-5.462614,-11.401929,3.074229,-1.421369,0.000557,-0.094666,-0.241764,1.272381,0
532886876610791,0.552383,-0.117201,7.032495,-5.698851,-0.000016,0.000002,0.000000,0.000000,0.000000,0.000000,0.000000,0.000000,-0.000000,-0.000000,0.000000,-0.000000,-0.000000,0.000000,-0.000000,-5.462676,-11.401952,3.074235,-1.421374,0.000557,-0.094666,-0.241764,1.272381,0
532886877600295,0.552384,-0.117201,7.032497,-5.698851,-0.000016,0.000001,0.000000,0.000000,0.000000,0.000000,0.000000,0.000000,-0.000000,-0.000000,0.000000,-0.000000,-0.000000,0.000000,-0.000000,-5.462767,-11.402002,3.074245,-1.421378,0.000557,-0.094666,-0.241764,1.272381,0
532886878600773,0.552383,-0.117200,7.032496,-5.698850,-0.000017,0.000002,0.000000,0.000000,0.000000,0.000000,0.000000,0.000000,-0.000000,-0.000000,0.000000,-0.000000,-0.000000,0.000000,-0.000000,-5.462801,-11.401997,3.074242,-1.421375,0.000557,-0.094666,-0.241764,1.272381,0
532886879598922,0.552384,-0.117202,7.032496,-5.698848,-0.000016,0.000004,0.000000,0.000000,0.000000,0.000000,0.000000,0.000000,-0.000000,-0.000000,0.000000,-0.000000,-0.000000,0.000000,-0.000000,-5.462624,-11.401940,3.074229,-1.421371,0.000557,-0.094666,-0.241764,1.272381,0
532886880598925,0.552384,-0.117201,7.032496,-5.698850,-0.000016,0.000003,0.000000,0.000000,0.000000,0.000000,0.000000,0.000000,-0.000000,-0.000000,0.000000,-0.000000,-0.000000,0.000000,-0.000000,-5.462689,-11.401965,3.074236,-1.421374,0.000557,-0.094666,-0.241764,1.272381,0
532886881572410,0.552383,-0.117201,7.032497,-5.698850,-0.000017,0.000004,0.000000,0.000000,0.000000,0.000000,0.000000,0.000000,-0.000000,-0.000000,0.000000,-0.000000,-0.000000,0.000000,-0.000000,-5.462761,-11.401997,3.074242,-1.421375,0.000557,-0.094666,-0.241764,1.272381,0
532886882572630,0.552383,-0.117200,7.032495,-5.698851,-0.000019,-0.000001,0.000000,0.000000,0.000000,0.000000,0.000000,0.000000,-0.000000,-0.000000,0.000000,-0.000000,-0.000000,-0.004746,-0.000000,-5.462785,-11.401980,3.074239,-1.421370,0.000557,-0.094666,-0.241764,1.272381,0
532886883596070,0.552383,-0.117201,7.032497,-5.698851,-0.000016,0.000004,0.000000,0.000000,0.000000,0.000000,0.000000,0.000000,-0.000000,-0.000000,0.000000,-0.000000,0.002848,0.004746,-0.000000,-5.462767,-11.402002,3.074245,-1.421378,0.000557,-0.094666,-0.241764,1.272381,0
532886884596317,0.552383,-0.117201,7.032495,-5.698851,-0.000017,0.000004,0.000000,0.000000,0.000000,0.000000,0.000000,0.000000,-0.000000,-0.000000,0.000000,-0.000000,-0.000000,0.000000,0.000000,-5.462658,-11.401933,3.074231,-1.421370,0.000557,-0.094666,-0.241764,1.272381,0
532886885596910,0.552383,-0.117200,7.032498,-5.698853,-0.000018,0.000003,0.000000,0.000000,0.000000,0.000000,0.000000,0.000000,-0.000000,-0.000000,0.000000,-0.000000,-0.000000,0.000000,-0.000000,-5.462845,-11.402041,3.074253,-1.421379,0.000557,-0.094666,-0.241764,1.272381,0
532886886596246,0.552383,-0.117201,7.032496,-5.698852,-0.000016,0.000002,0.000000,0.000000,0.000000,0.000000,0.000000,0.000000,-0.000000,-0.000000,0.000000,-0.000000,-0.000000,0.000000,0.000000,-5.462697,-11.401973,3.074240,-1.421376,0.000557,-0.094666,-0.241764,1.272381,0
532886887595881,0.552385,-0.117201,7.032496,-5.698853,-0.000012,0.000003,0.000000,0.000000,0.000000,0.000000,0.000000,0.000000,0.002377,-0.000000,0.000000,-0.000000,0.003797,0.000000,-0.000000,-5.462713,-11.401988,3.074247,-1.421387,0.000557,-0.094666,-0.241764,1.272381,0
532886888589662,0.552383,-0.117201,7.032496,-5.698850,-0.000017,0.000000,0.000000,0.000000,0.000000,0.000000,0.000000,0.000000,-0.002377,-0.000000,0.000000,0.003797,-0.004746,-0.002848,0.000000,-5.462688,-11.401963,3.074235,-1.421372,0.000557,-0.094666,-0.241764,1.272381,0
532886889598710,0.552381,-0.117201,7.032495,-5.698853,-0.000017,0.000003,0.000000,0.000000,0.000000,0.000000,0.000000,0.000000,-0.000000,-0.000000,0.000000,-0.002848,-0.000000,0.002848,0.000000,-5.462722,-11.401958,3.074238,-1.421373,0.000557,-0.094666,-0.241764,1.272381,0
532886890572961,0.552384,-0.117201,7.032496,-5.698851,-0.000015,0.000001,0.000000,0.000000,0.000000,0.000000,0.000000,0.000000,0.003169,-0.000000,0.000000,-0.000000,-0.000000,0.000000,0.000000,-5.462695,-11.401970,3.074239,-1.421378,0.000557,-0.094666,-0.241764,1.272381,0
532886891597652,0.552382,-0.117201,7.032496,-5.698852,-0.000017,0.000002,0.000000,0.000000,0.000000,0.000000,0.000000,0.000000,-0.002377,-0.000000,0.000000,-0.000000,-0.000000,0.000000,-0.000000,-5.462695,-11.401971,3.074239,-1.421374,0.000557,-0.094666,-0.241764,1.272381,0
532886892605354,0.552382,-0.117201,7.032496,-5.698851,-0.000018,0.000003,0.000000,0.000000,0.000000,0.000000,0.000000,0.000000,-0.000000,-0.000000,0.000000,-0.000000,-0.000000,0.000000,-0.000000,-5.462690,-11.401965,3.074236,-1.421371,0.000557,-0.094666,-0.241764,1.272381,0
532886893571779,0.552383,-0.117201,7.032495,-5.698852,-0.000020,0.000001,0.000000,0.000000,0.000000,0.000000,0.000000,0.000000,-0.000000,-0.000000,0.000000,-0.000000,-0.000000,0.000000,-0.000000,-5.462673,-11.401948,3.074233,-1.421366,0.000557,-0.094666,-0.241764,1.272381,0
532886894573009,0.552382,-0.117200,7.032496,-5.698851,-0.000017,0.000000,0.000000,0.000000,0.000000,0.000000,0.000000,0.000000,-0.000000,-0.000000,0.000000,-0.000000,0.002848,0.000000,0.000000,-5.462805,-11.402001,3.074244,-1.421376,0.000557,-0.094666,-0.241764,1.272381,0
532886895598876,0.552384,-0.117201,7.032495,-5.698853,-0.000017,0.000004,0.000000,0.000000,0.000000,0.000000,0.000000,0.000000,-0.000000,-0.000000,0.000000,-0.000000,-0.000000,0.003797,0.000000,-5.462739,-11.401975,3.074241,-1.421375,0.000557,-0.094666,-0.241764,1.272381,0
532886896596552,0.552382,-0.117201,7.032496,-5.698853,-0.000015,0.000001,0.000000,0.000000,0.000000,0.000000,0.000000,0.000000,-0.000000,-0.000000,0.000000,-0.000000,-0.000000,-0.002848,0.000000,-5.462760,-11.401995,3.074246,-1.421381,0.000557,-0.094666,-0.241764,1.272381,0
532886897596083,0.552384,-0.117201,7.032496,-5.698850,-0.000016,0.000001,0.000000,0.000000,0.000000,0.000000,0.000000,0.000000,-0.000000,-0.000000,0.000000,-0.000000,-0.000000,0.000000,-0.000000,-5.462689,-11.401965,3.074236,-1.421374,0.000557,-0.094666,-0.241764,1.272381,0
532886898596383,0.552384,-0.117200,7.032497,-5.698852,-0.000016,0.000002,0.000000,0.000000,0.000000,0.000000,0.000000,0.000000,-0.000000,-0.000000,0.000000,-0.000000,-0.000000,0.000000,0.000000,-5.462828,-11.402023,3.074250,-1.421381,0.000557,-0.094666,-0.241764,1.272381,0
532886899598564,0.552381,-0.117201,7.032496,-5.698853,-0.000018,0.000002,0.000000,0.000000,0.000000,0.000000,0.000000,0.000000,-0.002377,-0.000000,0.000000,-0.000000,-0.000000,0.000000,-0.000000,-5.462702,-11.401977,3.074242,-1.421374,0.000557,-0.094666,-0.241764,1.272381,0
532886900599498,0.552384,-0.117202,7.032497,-5.698852,-0.000016,0.000002,0.000000,0.000000,0.000000,0.000000,0.000000,0.000000,0.002377,-0.000000,0.000000,-0.000000,-0.000000,0.000000,0.000000,-5.462657,-11.401973,3.074240,-1.421376,0.000557,-0.094666,-0.241764,1.272381,0
532886901596138,0.552384,-0.117201,7.032495,-5.698849,-0.000017,0.000003,0.000000,0.000000,0.000000,0.000000,0.000000,0.000000,-0.000000,-0.000000,-0.002377,0.002848,-0.000000,0.000000,-0.000000,-5.462650,-11.401925,3.074227,-1.421368,0.000557,-0.094666,-0.241764,1.272381,0
532886902598987,0.552382,-0.117201,7.032495,-5.698853,-0.000018,0.000001,0.000000,0.000000,0.000000,0.000000,0.000000,0.000000,-0.000000,-0.000000,0.000000,-0.004746,-0.000000,0.000000,0.000000,-5.462725,-11.401960,3.074239,-1.421372,0.000557,-0.094666,-0.241764,1.272381,0
532886903598209,0.552384,-0.117201,7.032495,-5.698852,-0.000017,0.000000,0.000000,0.000000,0.000000,0.000000,0.000000,0.000000,-0.000000,-0.000000,0.000000,-0.000000,-0.000000,0.000000,0.000000,-5.462735,-11.401971,3.074239,-1.421374,0.000557,-0.094666,-0.241764,1.272381,0
532886904599608,0.552382,-0.117201,7.032497,-5.698851,-0.000016,0.000003,0.000000,0.000000,0.000000,0.000000,0.000000,0.000000,-0.000000,-0.000000,0.000000,-0.000000,-0.000000,0.002848,-0.000000,-5.462767,-11.402002,3.074245,-1.421378,0.000557,-0.094666,-0.241764,1.272381,0
532886905598736,0.552380,-0.117201,7.032496,-5.698853,-0.000016,0.000003,0.000000,0.000000,0.000000,0.000000,0.000000,0.000000,-0.000000,-0.000000,0.000000,-0.002848,-0.000000,0.000000,-0.000000,-5.462705,-11.401981,3.074244,-1.421378,0.000557,-0.094666,-0.241764,1.272381,0
532886906598629,0.552384,-0.117201,7.032495,-5.698850,-0.000017,0.000001,0.000000,0.000000,0.000000,0.000000,0.000000,0.000000,0.003169,-0.000000,0.000000,0.003797,-0.000000,0.000000,0.000000,-5.462671,-11.401946,3.074232,-1.421371,0.000557,-0.094666,-0.241764,1.272381,0
532886907597792,0.552382,-0.117201,7.032495,-5.698853,-0.000019,0.000003,0.000000,0.000000,0.000000,0.000000,0.000000,0.000000,-0.000000,-0.000000,0.000000,-0.002848,-0.000000,0.000000,0.000000,-5.462736,-11.401971,3.074239,-1.421371,0.000557,-0.094666,-0.241764,1.272381,0
532886908601353,0.552383,-0.117200,7.032495,-5.698850,-0.000019,0.000002,0.000000,0.000000,0.000000,0.000000,0.000000,0.000000,-0.000000,-0.000000,0.000000,0.002848,-0.000000,0.000000,-0.000000,-5.462781,-11.401976,3.074237,-1.421369,0.000557,-0.094666,-0.241764,1.272381,0
532886909579604,0.552382,-0.117201,7.032497,-5.698850,-0.000016,0.000003,0.000000,0.000000,0.000000,0.000000,0.000000,0.000000,-0.000000,-0.000000,0.000000,-0.000000,0.002848,0.000000,-0.000000,-5.462706,-11.401982,3.074239,-1.421376,0.000557,-0.094666,-0.241764,1.272381,0
532886910599231,0.552383,-0.117201,7.032497,-5.698851,-0.000016,0.000001,0.000000,0.000000,0.000000,0.000000,0.000000,0.000000,-0.000000,-0.000000,0.000000,-0.000000,-0.000000,0.000000,-0.000000,-5.462710,-11.401986,3.074241,-1.421377,0.000557,-0.094666,-0.241764,1.272381,0
532886911601227,0.552384,-0.117201,7.032497,-5.698852,-0.000019,0.000002,0.000000,0.000000,0.000000,0.000000,0.000000,0.000000,-0.000000,-0.000000,0.000000,-0.000000,-0.002848,0.000000,-0.000000,-5.462709,-11.401984,3.074241,-1.421371,0.000557,-0.094666,-0.241764,1.272381,0
532886912571924,0.552382,-0.117201,7.032497,-5.698851,-0.000015,0.000002,0.000000,0.000000,0.000000,0.000000,0.000000,0.000000,-0.002377,-0.000000,0.000000,-0.000000,0.003797,0.000000,0.000000,-5.462712,-11.401987,3.074242,-1.421379,0.000557,-0.094666,-0.241764,1.272381,0
532886913598873,0.552382,-0.117200,7.032496,-5.698853,-0.000015,0.000003,0.000000,0.000000,0.000000,0.000000,0.000000,0.000000,-0.000000,-0.000000,0.000000,-0.000000,-0.000000,0.002848,0.000000,-5.462817,-11.402012,3.074249,-1.421382,0.000557,-0.094666,-0.241764,1.272381,0
532886914597903,0.552382,-0.117201,7.032495,-5.698850,-0.000018,0.000004,0.000000,0.000000,0.000000,0.000000,0.000000,0.000000,-0.000000,-0.000000,0.000000,0.002848,-0.000000,0.000000,0.000000,-5.462652,-11.401927,3.074228,-1.421367,0.000557,-0.094666,-0.241764,1.272381,0
532886915599808,0.552384,-0.117201,7.032497,-5.698852,-0.000016,0.000002,0.000000,0.000000,0.000000,0.000000,0.000000,0.000000,-0.000000,-0.000000,0.002377,-0.000000,-0.000000,0.000000,-0.000000,-5.462771,-11.402006,3.074247,-1.421379,0.000557,-0.094666,-0.241764,1.272381,0
532886916600231,0.552383,-0.117201,7.032497,-5.698853,-0.000016,0.000001,0.000000,0.000000,0.000000,0.000000,0.000000,0.000000,-0.000000,-0.000000,0.000000,-0.000000,-0.000000,0.000000,0.000000,-5.462775,-11.402010,3.074249,-1.421380,0.000557,-0.094666,-0.241764,1.272381,0
532886917598050,0.552384,-0.117202,7.032495,-5.698851,-0.000019,0.000001,0.000000,0.000000,0.000000,0.000000,0.000000,0.000000,-0.000000,-0.000000,0.000000,-0.000000,-0.002848,0.000000,0.000000,-5.462614,-11.401929,3.074229,-1.421366,0.000557,-0.094666,-0.241764,1.272381,0
532886918596783,0.552382,-0.117201,7.032496,-5.698853,-0.000015,0.000001,0.000000,0.000000,0.000000,0.000000,0.000000,0.000000,-0.000000,-0.000000,0.000000,-0.002848,0.003797,0.000000,-0.000000,-5.462764,-11.401999,3.074248,-1.421382,0.000557,-0.094666,-0.241764,1.272381,0
532886919598674,0.552383,-0.117202,7.032496,-5.698851,-0.000016,0.000001,0.000000,0.000000,0.000000,0.000000,0.000000,0.000000,-0.000000,-0.000000,0.000000,0.002848,-0.000000,0.000000,-0.000000,-5.462636,-11.401952,3.074235,-1.421374,0.000557,-0.094666,-0.241764,1.272381,0
532886920596416,0.552384,-0.117201,7.032496,-5.698852,-0.000015,0.000002,0.000000,0.000000,0.000000,0.000000,0.000000,0.000000,-0.000000,-0.000000,0.000000,-0.000000,-0.000000,0.000000,-0.000000,-5.462699,-11.401974,3.074241,-1.421378,0.000557,-0.094666,-0.241764,1.272381,0
532886921596097,0.552384,-0.117201,7.032495,-5.698849,-0.000018,0.000001,0.000000,0.000000,0.000000,0.000000,0.000000,0.000000,-0.000000,-0.000000,0.000000,0.002848,-0.002848,0.000000,0.000000,-5.462648,-11.401923,3.074226,-1.421366,0.000557,-0.094666,-0.241764,1.272381,0
532886922571683,0.552380,-0.117203,7.032495,-5.698852,-0.000017,0.000003,0.000000,0.000000,0.000000,0.000000,0.000000,0.000000,-0.003169,-0.000000,0.000000,-0.002848,-0.000000,0.000000,0.000000,-5.462565,-11.401920,3.074229,-1.421369,0.000557,-0.094666,-0.241764,1.272381,0
532886923597152,0.552384,-0.117201,7.032495,-5.698852,-0.000016,0.000002,0.000000,0.000000,0.000000,0.000000,0.000000,0.000000,0.003169,0.002377,0.000000,-0.000000,-0.000000,0.000000,0.000000,-5.462737,-11.401973,3.074240,-1.421376,0.000557,-0.094666,-0.241764,1.272381,0
532886924596562,0.552384,-0.117201,7.032497,-5.698850,-0.000017,0.000002,0.000000,0.000000,0.000000,0.000000,0.000000,0.000000,-0.000000,-0.000000,0.000000,-0.000000,-0.000000,0.000000,-0.000000,-5.462704,-11.401980,3.074239,-1.421374,0.000557,-0.094666,-0.241764,1.272381,0
532886925608129,0.552382,-0.117201,7.032497,-5.698851,-0.000017,0.000002,0.000000,0.000000,0.000000,0.000000,0.000000,0.000000,-0.000000,-0.000000,0.000000,-0.000000,-0.000000,0.000000,0.000000,-5.462765,-11.402001,3.074244,-1.421376,0.000557,-0.094666,-0.241764,1.272381,0
532886926596155,0.552383,-0.117201,7.032497,-5.698850,-0.000017,0.000003,0.000000,0.000000,0.000000,0.000000,0.000000,0.000000,-0.000000,-0.000000,0.000000,-0.000000,-0.000000,0.000000,-0.000000,-5.462704,-11.401980,3.074239,-1.421374,0.000557,-0.094666,-0.241764,1.272381,0
532886927596250,0.552383,-0.117201,7.032497,-5.698847,-0.000018,0.000004,0.000000,0.000000,0.000000,0.000000,0.000000,0.000000,-0.000000,-0.000000,0.000000,0.002848,-0.000000,0.000000,-0.000000,-5.462691,-11.401966,3.074232,-1.421369,0.000557,-0.094666,-0.241764,1.272381,0
532886928596494,0.552382,-0.117199,7.032496,-5.698851,-0.000017,0.000002,0.000000,0.000000,0.000000,0.000000,0.000000,0.000000,-0.000000,0.002377,0.000000,-0.003797,-0.000000,0.000000,0.000000,-5.462862,-11.402018,3.074247,-1.421378,0.000557,-0.094666,-0.241764,1.272381,0
532886929596509,0.552381,-0.117200,7.032498,-5.698852,-0.000015,0.000003,0.000000,0.000000,0.000000,0.000000,0.000000,0.000000,-0.000000,-0.000000,0.000000,-0.000000,-0.000000,0.000000,-0.000000,-5.462847,-11.402042,3.074254,-1.421385,0.000557,-0.094666,-0.241764,1.272381,0
532886930571889,0.552381,-0.117201,7.032495,-5.698852,-0.000015,0.000002,0.000000,0.000000,0.000000,0.000000,0.000000,0.000000,-0.000000,-0.000000,-0.003169,-0.000000,-0.000000,0.000000,0.000000,-5.462722,-11.401957,3.074238,-1.421377,0.000557,-0.094666,-0.241764,1.272381,0
532886931571497,0.552381,-0.117202,7.032497,-5.698848,-0.000017,0.000003,0.000000,0.000000,0.000000,0.000000,0.000000,0.000000,-0.000000,-0.000000,0.002377,0.003797,-0.000000,0.000000,0.000000,-5.462640,-11.401955,3.074231,-1.421370,0.000557,-0.094666,-0.241764,1.272381,0
532886932571565,0.552383,-0.117201,7.032495,-5.698853,-0.000018,0.000001,0.000000,0.000000,0.000000,0.000000,0.000000,0.000000,-0.000000,-0.000000,0.000000,-0.004746,-0.000000,0.000000,-0.000000,-5.462738,-11.401973,3.074240,-1.421373,0.000557,-0.094666,-0.241764,1.272381,0
532886933572021,0.552383,-0.117200,7.032496,-5.698851,-0.000017,0.000001,0.000000,0.000000,0.000000,0.000000,0.000000,0.000000,-0.000000,-0.000000,0.000000,-0.000000,-0.000000,0.000000,-0.000000,-5.462805,-11.402001,3.074244,-1.421376,0.000557,-0.094666,-0.241764,1.272381,0
532886934571977,0.552383,-0.117201,7.032496,-5.698852,-0.000017,0.000002,0.000000,0.000000,0.000000,0.000000,0.000000,0.000000,-0.000000,-0.000000,0.000000,-0.000000,-0.000000,0.000000,-0.000000,-5.462695,-11.401971,3.074239,-1.421374,0.000557,-0.094666,-0.241764,1.272381,0
532886935571943,0.552383,-0.117201,7.032496,-5.698852,-0.000016,0.000000,0.000000,0.000000,0.000000,0.000000,0.000000,0.000000,-0.000000,-0.000000,0.000000,-0.000000,-0.000000,0.000000,-0.000000,-5.462697,-11.401973,3.074240,-1.421376,0.000557,-0.094666,-0.241764,1.272381,0
532886936572050,0.552381,-0.117201,7.032497,-5.698852,-0.000017,0.000003,0.000000,0.000000,0.000000,0.000000,0.000000,0.000000,-0.000000,-0.000000,0.000000,-0.000000,-0.000000,0.002848,-0.000000,-5.462712,-11.401988,3.074242,-1.421376,0.000557,-0.094666,-0.241764,1.272381,0
532886937571733,0.552382,-0.117201,7.032496,-5.698853,-0.000018,0.000003,0.000000,0.000000,0.000000,0.000000,0.000000,0.000000,-0.000000,-0.000000,0.000000,-0.000000,-0.000000,0.000000,-0.000000,-5.462755,-11.401990,3.074243,-1.421374,0.000557,-0.094666,-0.241764,1.272381,0
532886938571597,0.552384,-0.117201,7.032497,-5.698852,-0.000016,0.000000,0.000000,0.000000,0.000000,0.000000,0.000000,0.000000,0.002377,-0.000000,0.000000,-0.000000,-0.000000,-0.002848,-0.000000,-5.462714,-11.401990,3.074243,-1.421378,0.000557,-0.094666,-0.241764,1.272381,0
532886939571770,0.552383,-0.117200,7.032496,-5.698852,-0.000013,0.000002,0.000000,0.000000,0.000000,0.000000,0.000000,0.000000,-0.000000,-0.000000,0.000000,-0.000000,0.002848,0.000000,-0.000000,-5.462817,-11.402012,3.074249,-1.421386,0.000557,-0.094666,-0.241764,1.272381,0
532886940572301,0.552383,-0.117200,7.032497,-5.698851,-0.000015,0.000002,0.000000,0.000000,0.000000,0.000000,0.000000,0.000000,-0.000000,-0.000000,0.000000,-0.000000,-0.000000,0.000000,0.000000,-5.462826,-11.402021,3.074249,-1.421382,0.000557,-0.094666,-0.241764,1.272381,0
532886941573536,0.552384,-0.117202,7.032497,-5.698851,-0.000015,0.000002,0.000000,0.000000,0.000000,0.000000,0.000000,0.000000,-0.000000,-0.002377,0.000000,-0.000000,-0.000000,0.000000,0.000000,-5.462655,-11.401970,3.074239,-1.421378,0.000557,-0.094666,-0.241764,1.272381,0
532886942573080,0.552382,-0.117201,7.032497,-5.698852,-0.000017,0.000002,0.000000,0.000000,0.000000,0.000000,0.000000,0.000000,-0.000000,-0.000000,0.000000,-0.000000,-0.000000,0.000000,-0.000000,-5.462769,-11.402005,3.074246,-1.421377,0.000557,-0.094666,-0.241764,1.272381,0
532886943588633,0.552383,-0.117200,7.032496,-5.698852,-0.000019,0.000003,0.000000,0.000000,0.000000,0.000000,0.000000,0.000000,-0.000000,-0.000000,0.000000,-0.000000,-0.000000,0.000000,0.000000,-5.462806,-11.402001,3.074244,-1.421373,0.000557,-0.094666,-0.241764,1.272381,0
532886944606100,0.552382,-0.117201,7.032498,-5.698850,-0.000016,0.000002,0.000000,0.000000,0.000000,0.000000,0.000000,0.000000,-0.000000,-0.000000,0.000000,-0.000000,0.002848,0.000000,0.000000,-5.462780,-11.402015,3.074246,-1.421379,0.000557,-0.094666,-0.241764,1.272381,0
532886945604629,0.552383,-0.117203,7.032497,-5.698851,-0.000016,0.000004,0.000000,0.000000,0.000000,0.000000,0.000000,0.000000,-0.000000,-0.002377,0.000000,-0.000000,-0.000000,0.000000,-0.000000,-5.462596,-11.401952,3.074235,-1.421374,0.000557,-0.094666,-0.241764,1.272381,0
532886946600088,0.552384,-0.117203,7.032497,-5.698853,-0.000016,0.000004,0.000000,0.000000,0.000000,0.000000,0.000000,0.000000,-0.000000,-0.000000,0.000000,-0.000000,-0.000000,0.000000,-0.000000,-5.462604,-11.401960,3.074239,-1.421376,0.000557,-0.094666,-0.241764,1.272381,0
532886947598502,0.552383,-0.117201,7.032495,-5.698851,-0.000016,0.000002,0.000000,0.000000,0.000000,0.000000,0.000000,0.000000,-0.000000,-0.000000,0.000000,-0.000000,-0.000000,0.000000,-0.000000,-5.462733,-11.401969,3.074238,-1.421375,0.000557,-0.094666,-0.241764,1.272381,0
532886948611078,0.552384,-0.117201,7.032495,-5.698852,-0.000018,0.000001,0.000000,0.000000,0.000000,0.000000,0.000000,0.000000,-0.000000,0.002377,0.000000,-0.000000,-0.000000,0.000000,-0.000000,-5.462734,-11.401969,3.074238,-1.421372,0.000557,-0.094666,-0.241764,1.272381,0
532886949600166,0.552384,-0.117202,7.032497,-5.698853,-0.000015,0.000002,0.000000,0.000000,0.000000,0.000000,0.000000,0.000000,-0.000000,-0.000000,0.000000,-0.000000,0.002848,0.000000,-0.000000,-5.462667,-11.401982,3.074245,-1.421380,0.000557,-0.094666,-0.241764,1.272381,0
532886950598300,0.552382,-0.117202,7.032495,-5.698852,-0.000013,0.000003,0.000000,0.000000,0.000000,0.000000,0.000000,0.000000,-0.000000,-0.000000,0.000000,-0.000000,-0.000000,0.000000,0.000000,-5.462629,-11.401944,3.074236,-1.421380,0.000557,-0.094666,-0.241764,1.272381,0
532886951608845,0.552381,-0.117200,7.032497,-5.698852,-0.000018,0.000001,0.000000,0.000000,0.000000,0.000000,0.000000,0.000000,-0.000000,0.002377,0.000000,-0.000000,-0.002848,0.000000,0.000000,-5.462824,-11.402020,3.074248,-1.421376,0.000557,-0.094666,-0.241764,1.272381,0
532886952597074,0.552383,-0.117200,7.032497,-5.698851,-0.000018,0.000001,0.000000,0.000000,0.000000,0.000000,0.000000,0.000000,-0.000000,-0.000000,0.000000,-0.000000,-0.003797,0.000000,0.000000,-5.462820,-11.402016,3.074246,-1.421376,0.000557,-0.094666,-0.241764,1.272381,0
532886953571886,0.552382,-0.117201,7.032495,-5.698852,-0.000017,0.000003,0.000000,0.000000,0.000000,0.000000,0.000000,0.000000,-0.000000,-0.000000,-0.002377,-0.000000,-0.000000,0.000000,0.000000,-5.462719,-11.401954,3.074236,-1.421373,0.000557,-0.094666,-0.241764,1.272381,0
532886954597992,0.552382,-0.117201,7.032498,-5.698850,-0.000016,0.000000,0.000000,0.000000,0.000000,0.000000,0.000000,0.000000,-0.000000,-0.000000,0.003169,-0.000000,-0.000000,-0.002848,0.000000,-5.462723,-11.401999,3.074243,-1.421378,0.000557,-0.094666,-0.241764,1.272381,0
532886955599705,0.552383,-0.117201,7.032495,-5.698852,-0.000016,0.000001,0.000000,0.000000,0.000000,0.000000,0.000000,0.000000,-0.000000,-0.000000,-0.002377,-0.000000,-0.000000,0.000000,-0.000000,-5.462680,-11.401956,3.074237,-1.421375,0.000557,-0.094666,-0.241764,1.272381,0
532886956598969,0.552382,-0.117201,7.032498,-5.698852,-0.000017,0.000004,0.000000,0.000000,0.000000,0.000000,0.000000,0.000000,-0.000000,-0.000000,0.000000,-0.000000,-0.000000,0.002848,-0.000000,-5.462786,-11.402022,3.074249,-1.421379,0.000557,-0.094666,-0.241764,1.272381,0
532886957598978,0.552383,-0.117201,7.032498,-5.698853,-0.000017,0.000004,0.000000,0.000000,0.000000,0.000000,0.000000,0.000000,-0.000000,-0.000000,0.003169,-0.000000,-0.000000,0.000000,-0.000000,-5.462790,-11.402026,3.074251,-1.421380,0.000557,-0.094666,-0.241764,1.272381,0
532886958599229,0.552384,-0.117200,7.032496,-5.698849,-0.000019,0.000002,0.000000,0.000000,0.000000,0.000000,0.000000,0.000000,-0.000000,-0.000000,0.000000,0.003797,-0.000000,0.000000,-0.000000,-5.462794,-11.401989,3.074238,-1.421370,0.000557,-0.094666,-0.241764,1.272381,0
532886959600694,0.552381,-0.117202,7.032495,-5.698852,-0.000016,0.000001,0.000000,0.000000,0.000000,0.000000,0.000000,0.000000,-0.002377,-0.002377,0.000000,-0.002848,0.002848,0.000000,-0.000000,-5.462607,-11.401922,3.074230,-1.421372,0.000557,-0.094666,-0.241764,1.272381,0
532886960596221,0.552383,-0.117202,7.032497,-5.698852,-0.000017,0.000003,0.000000,0.000000,0.000000,0.000000,0.000000,0.000000,-0.000000,-0.000000,0.002377,-0.000000,-0.000000,0.000000,0.000000,-5.462656,-11.401971,3.074239,-1.421374,0.000557,-0.094666,-0.241764,1.272381,0
532886961599145,0.552383,-0.117202,7.032495,-5.698852,-0.000019,0.000003,0.000000,0.000000,0.000000,0.000000,0.000000,0.000000,-0.000000,-0.000000,0.000000,-0.000000,-0.000000,0.000000,0.000000,-5.462618,-11.401933,3.074231,-1.421367,0.000557,-0.094666,-0.241764,1.272381,0
532886962595993,0.552382,-0.117201,7.032496,-5.698851,-0.000016,0.000001,0.000000,0.000000,0.000000,0.000000,0.000000,0.000000,-0.000000,-0.000000,0.000000,-0.000000,0.002848,0.000000,-0.000000,-5.462693,-11.401969,3.074238,-1.421375,0.000557,-0.094666,-0.241764,1.272381,0
532886963596071,0.552383,-0.117202,7.032495,-5.698852,-0.000016,0.000001,0.000000,0.000000,0.000000,0.000000,0.000000,0.000000,-0.000000,-0.000000,0.000000,-0.000000,-0.000000,0.000000,-0.000000,-5.462607,-11.401922,3.074230,-1.421372,0.000557,-0.094666,-0.241764,1.272381,0
532886964598793,0.552381,-0.117202,7.032495,-5.698852,-0.000018,0.000004,0.000000,0.000000,0.000000,0.000000,0.000000,0.000000,-0.000000,-0.000000,0.000000,-0.000000,-0.000000,0.002848,-0.000000,-5.462603,-11.401918,3.074228,-1.421367,0.000557,-0.094666,-0.241764,1.272381,0
532886965598155,0.552383,-0.117201,7.032497,-5.698853,-0.000021,0.000002,0.000000,0.000000,0.000000,0.000000,0.000000,0.000000,-0.000000,-0.000000,0.002377,-0.000000,-0.002848,0.000000,-0.000000,-5.462709,-11.401984,3.074241,-1.421368,0.000557,-0.094666,-0.241764,1.272381,0
532886966600404,0.552383,-0.117201,7.032497,-5.698851,-0.000015,0.000005,0.000000,0.000000,0.000000,0.000000,0.000000,0.000000,-0.000000,-0.000000,0.000000,-0.000000,0.005695,0.002848,-0.000000,-5.462712,-11.401987,3.074242,-1.421379,0.000557,-0.094666,-0.241764,1.272381,0
532886967572702,0.552384,-0.117201,7.032497,-5.698851,-0.000016,0.000003,0.000000,0.000000,0.000000,0.000000,0.000000,0.000000,-0.000000,-0.000000,0.000000,-0.000000,-0.000000,0.000000,-0.000000,-5.462767,-11.402002,3.074245,-1.421378,0.000557,-0.094666,-0.241764,1.272381,0
532886968598917,0.552384,-0.117202,7.032497,-5.698852,-0.000017,0.000001,0.000000,0.000000,0.000000,0.000000,0.000000,0.000000,-0.000000,-0.000000,0.000000,-0.000000,-0.000000,0.000000,0.000000,-5.462656,-11.401971,3.074239,-1.421374,0.000557,-0.094666,-0.241764,1.272381,0
532886969571990,0.552383,-0.117202,7.032498,-5.698851,-0.000016,0.000000,0.000000,0.000000,0.000000,0.000000,0.000000,0.000000,-0.000000,-0.000000,0.000000,-0.000000,-0.000000,0.000000,-0.000000,-5.462670,-11.401986,3.074241,-1.421377,0.000557,-0.094666,-0.241764,1.272381,0
532886970598005,0.552383,-0.117201,7.032496,-5.698851,-0.000018,0.000002,0.000000,0.000000,0.000000,0.000000,0.000000,0.000000,-0.000000,-0.000000,0.000000,-0.000000,-0.000000,0.000000,-0.000000,-5.462690,-11.401965,3.074236,-1.421371,0.000557,-0.094666,-0.241764,1.272381,0
532886971599636,0.552382,-0.117201,7.032495,-5.698848,-0.000017,0.000000,0.000000,0.000000,0.000000,0.000000,0.000000,0.000000,-0.000000,-0.000000,0.000000,-0.000000,-0.002848,0.000000,-0.000000,-5.462663,-11.401938,3.074228,-1.421369,0.000557,-0.094666,-0.241764,1.272381,0
532886972597005,0.552382,-0.117201,7.032495,-5.698851,-0.000016,0.000003,0.000000,0.000000,0.000000,0.000000,0.000000,0.000000,-0.000000,-0.000000,0.000000,-0.000000,-0.000000,0.002848,-0.000000,-5.462733,-11.401969,3.074238,-1.421375,0.000557,-0.094666,-0.241764,1.272381,0
532886973574514,0.552383,-0.117201,7.032497,-5.698851,-0.000017,0.000002,0.000000,0.000000,0.000000,0.000000,0.000000,0.000000,-0.000000,-0.000000,0.000000,-0.000000,-0.000000,0.000000,-0.000000,-5.462708,-11.401984,3.074240,-1.421375,0.000557,-0.094666,-0.241764,1.272381,0
532886974573827,0.552384,-0.117201,7.032497,-5.698853,-0.000014,0.000001,0.000000,0.000000,0.000000,0.000000,0.000000,0.000000,-0.000000,-0.000000,0.000000,-0.000000,0.002848,0.000000,-0.000000,-5.462722,-11.401997,3.074247,-1.421383,0.000557,-0.094666,-0.241764,1.272381,0
532886975577354,0.552380,-0.117201,7.032496,-5.698851,-0.000018,0.000004,0.000000,0.000000,0.000000,0.000000,0.000000,0.000000,-0.003169,-0.000000,0.000000,-0.000000,-0.003797,0.002848,0.000000,-5.462747,-11.401982,3.074240,-1.421372,0.000557,-0.094666,-0.241764,1.272381,0
532886976598006,0.552382,-0.117201,7.032495,-5.698849,-0.000017,0.000002,0.000000,0.000000,0.000000,0.000000,0.000000,0.000000,-0.000000,-0.000000,0.000000,-0.000000,-0.000000,0.000000,0.000000,-5.462667,-11.401942,3.074230,-1.421370,0.000557,-0.094666,-0.241764,1.272381,0
532886977596529,0.552380,-0.117200,7.032496,-5.698851,-0.000017,0.000002,0.000000,0.000000,0.000000,0.000000,0.000000,0.000000,-0.000000,-0.000000,0.000000,-0.000000,-0.000000,0.000000,-0.000000,-5.462805,-11.402001,3.074244,-1.421376,0.000557,-0.094666,-0.241764,1.272381,0
532886978572176,0.552383,-0.117201,7.032496,-5.698850,-0.000017,0.000002,0.000000,0.000000,0.000000,0.000000,0.000000,0.000000,0.002377,-0.000000,0.000000,-0.000000,-0.000000,0.000000,-0.000000,-5.462744,-11.401980,3.074239,-1.421374,0.000557,-0.094666,-0.241764,1.272381,0
532886979599017,0.552383,-0.117201,7.032495,-5.698852,-0.000016,0.000002,0.000000,0.000000,0.000000,0.000000,0.000000,0.000000,-0.000000,-0.000000,0.000000,-0.000000,-0.000000,0.000000,-0.000000,-5.462680,-11.401956,3.074237,-1.421375,0.000557,-0.094666,-0.241764,1.272381,0
532886980572233,0.552382,-0.117202,7.032496,-5.698850,-0.000018,0.000003,0.000000,0.000000,0.000000,0.000000,0.000000,0.000000,-0.000000,-0.000000,0.000000,-0.000000,-0.000000,0.000000,0.000000,-5.462629,-11.401944,3.074231,-1.421369,0.000557,-0.094666,-0.241764,1.272381,0
532886981601469,0.552383,-0.117200,7.032497,-5.698852,-0.000019,0.000002,0.000000,0.000000,0.000000,0.000000,0.000000,0.000000,-0.000000,0.002377,0.000000,-0.000000,-0.000000,0.000000,0.000000,-5.462823,-11.402018,3.074247,-1.421374,0.000557,-0.094666,-0.241764,1.272381,0
532886982599295,0.552381,-0.117202,7.032497,-5.698849,-0.000015,0.000004,0.000000,0.000000,0.000000,0.000000,0.000000,0.000000,-0.000000,-0.002377,0.000000,0.002848,0.003797,0.000000,0.000000,-5.462647,-11.401962,3.074235,-1.421376,0.000557,-0.094666,-0.241764,1.272381,0
532886983597752,0.552382,-0.117201,7.032498,-5.698853,-0.000015,0.000001,0.000000,0.000000,0.000000,0.000000,0.000000,0.000000,-0.000000,-0.000000,0.002377,-0.004746,-0.000000,-0.002848,-0.000000,-5.462815,-11.402050,3.074258,-1.421386,0.000557,-0.094666,-0.241764,1.272381,0
532886984596195,0.552383,-0.117201,7.032497,-5.698850,-0.000017,0.000004,0.000000,0.000000,0.000000,0.000000,0.000000,0.000000,-0.000000,-0.000000,0.000000,0.003797,-0.000000,0.002848,-0.000000,-5.462704,-11.401980,3.074239,-1.421374,0.000557,-0.094666,-0.241764,1.272381,0
532886985571900,0.552384,-0.117201,7.032495,-5.698850,-0.000018,0.000002,0.000000,0.000000,0.000000,0.000000,0.000000,0.000000,-0.000000,-0.000000,0.000000,-0.000000,-0.000000,0.000000,-0.000000,-5.462669,-11.401944,3.074231,-1.421369,0.000557,-0.094666,-0.241764,1.272381,0
532886986596378,0.552383,-0.117201,7.032497,-5.698850,-0.000015,0.000001,0.000000,0.000000,0.000000,0.000000,0.000000,0.000000,-0.000000,-0.000000,0.000000,-0.000000,0.002848,0.000000,0.000000,-5.462765,-11.402000,3.074244,-1.421380,0.000557,-0.094666,-0.241764,1.272381,0
532886987600382,0.552383,-0.117201,7.032496,-5.698853,-0.000015,0.000001,0.000000,0.000000,0.000000,0.000000,0.000000,0.000000,-0.000000,-0.000000,0.000000,-0.002848,-0.000000,0.000000,0.000000,-5.462760,-11.401995,3.074246,-1.421381,0.000557,-0.094666,-0.241764,1.272381,0
532886988600870,0.552383,-0.117201,7.032495,-5.698853,-0.000016,0.000001,0.000000,0.000000,0.000000,0.000000,0.000000,0.000000,-0.000000,-0.000000,0.000000,-0.000000,-0.000000,0.000000,-0.000000,-5.462684,-11.401960,3.074239,-1.421376,0.000557,-0.094666,-0.241764,1.272381,0
532886989599458,0.552384,-0.117201,7.032497,-5.698851,-0.000018,0.000000,0.000000,0.000000,0.000000,0.000000,0.000000,0.000000,-0.000000,-0.000000,0.000000,-0.000000,-0.000000,0.000000,-0.000000,-5.462764,-11.401999,3.074243,-1.421374,0.000557,-0.094666,-0.241764,1.272381,0
532886990572332,0.552382,-0.117202,7.032495,-5.698852,-0.000018,0.000002,0.000000,0.000000,0.000000,0.000000,0.000000,0.000000,-0.000000,-0.000000,0.000000,-0.000000,-0.000000,0.000000,-0.000000,-5.462620,-11.401935,3.074232,-1.421369,0.000557,-0.094666,-0.241764,1.272381,0
532886991572706,0.552384,-0.117201,7.032495,-5.698851,-0.000020,0.000004,0.000000,0.000000,0.000000,0.000000,0.000000,0.000000,-0.000000,-0.000000,0.000000,-0.000000,-0.000000,0.000000,-0.000000,-5.462669,-11.401944,3.074231,-1.421365,0.000557,-0.094666,-0.241764,1.272381,0
532886992596771,0.552383,-0.117201,7.032496,-5.698851,-0.000018,0.000003,0.000000,0.000000,0.000000,0.000000,0.000000,0.000000,-0.000000,-0.000000,0.000000,-0.000000,-0.000000,0.000000,0.000000,-5.462747,-11.401982,3.074240,-1.421372,0.000557,-0.094666,-0.241764,1.272381,0
532886993599770,0.552382,-0.117201,7.032498,-5.698853,-0.000017,0.000002,0.000000,0.000000,0.000000,0.000000,0.000000,0.000000,-0.000000,-0.000000,0.000000,-0.000000,-0.000000,0.000000,0.000000,-5.462790,-11.402026,3.074251,-1.421380,0.000557,-0.094666,-0.241764,1.272381,0
532886994598774,0.552382,-0.117201,7.032495,-5.698851,-0.000018,0.000001,0.000000,0.000000,0.000000,0.000000,0.000000,0.000000,-0.000000,-0.000000,-0.002377,-0.000000,-0.000000,0.000000,-0.000000,-5.462730,-11.401965,3.074236,-1.421371,0.000557,-0.094666,-0.241764,1.272381,0
532886995571684,0.552384,-0.117203,7.032497,-5.698851,-0.000017,0.000002,0.000000,0.000000,0.000000,0.000000,0.000000,0.000000,-0.000000,-0.002377,0.000000,-0.000000,-0.000000,0.000000,-0.000000,-5.462595,-11.401950,3.074234,-1.421372,0.000557,-0.094666,-0.241764,1.272381,0
532886996571664,0.552382,-0.117201,7.032496,-5.698851,-0.000014,0.000004,0.000000,0.000000,0.000000,0.000000,0.000000,0.000000,-0.000000,-0.000000,0.000000,-0.000000,0.002848,0.000000,-0.000000,-5.462697,-11.401972,3.074240,-1.421380,0.000557,-0.094666,-0.241764,1.272381,0
532886997571727,0.552384,-0.117202,7.032497,-5.698851,-0.000019,0.000001,0.000000,0.000000,0.000000,0.000000,0.000000,0.000000,0.002377,-0.000000,0.000000,-0.000000,-0.004746,-0.002848,0.000000,-5.462648,-11.401963,3.074235,-1.421369,0.000557,-0.094666,-0.241764,1.272381,0
532886998572357,0.552384,-0.117201,7.032497,-5.698849,-0.000017,-0.000001,0.000000,0.000000,0.000000,0.000000,0.000000,0.000000,-0.000000,-0.000000,0.000000,-0.000000,-0.000000,0.000000,-0.000000,-5.462700,-11.401976,3.074237,-1.421373,0.000557,-0.094666,-0.241764,1.272381,0
532886999572480,0.552383,-0.117201,7.032495,-5.698850,-0.000019,0.000000,0.000000,0.000000,0.000000,0.000000,0.000000,0.000000,-0.000000,-0.000000,0.000000,-0.000000,-0.000000,0.000000,0.000000,-5.462724,-11.401959,3.074233,-1.421368,0.000557,-0.094666,-0.241764,1.272381,0
532887000597048,0.552383,-0.117201,7.032498,-5.698851,-0.000016,0.000002,0.000000,0.000000,0.000000,0.000000,0.000000,0.000000,-0.000000,-0.000000,0.002377,-0.000000,0.002848,0.000000,-0.000000,-5.462727,-11.402002,3.074245,-1.421378,0.000557,-0.094666,-0.241764,1.272381,0
532887001571767,0.552381,-0.117200,7.032495,-5.698853,-0.000015,0.000004,0.000000,0.000000,0.000000,0.000000,0.000000,0.000000,-0.000000,-0.000000,-0.002377,-0.003797,-0.000000,0.000000,-0.000000,-5.462800,-11.401995,3.074246,-1.421381,0.000557,-0.094666,-0.241764,1.272381,0
532887002599686,0.552383,-0.117201,7.032496,-5.698848,-0.000016,0.000002,0.000000,0.000000,0.000000,0.000000,0.000000,0.000000,-0.000000,-0.000000,0.000000,0.004746,-0.000000,0.000000,0.000000,-5.462738,-11.401974,3.074236,-1.421374,0.000557,-0.094666,-0.241764,1.272381,0
532887003599940,0.552383,-0.117202,7.032498,-5.698850,-0.000019,0.000001,0.000000,0.000000,0.000000,0.000000,0.000000,0.000000,-0.000000,-0.000000,0.000000,-0.000000,-0.002848,0.000000,0.000000,-5.462661,-11.401976,3.074237,-1.421369,0.000557,-0.094666,-0.241764,1.272381,0
532887004596189,0.552383,-0.117202,7.032497,-5.698852,-0.000016,0.000003,0.000000,0.000000,0.000000,0.000000,0.000000,0.000000,-0.000000,-0.000000,0.000000,-0.000000,0.002848,0.000000,0.000000,-5.462657,-11.401973,3.074240,-1.421376,0.000557,-0.094666,-0.241764,1.272381,0
532887005600890,0.552382,-0.117201,7.032497,-5.698853,-0.000014,0.000004,0.000000,0.000000,0.000000,0.000000,0.000000,0.000000,-0.000000,-0.000000,0.000000,-0.000000,-0.000000,0.000000,-0.000000,-5.462783,-11.402018,3.074252,-1.421385,0.000557,-0.094666,-0.241764,1.272381,0
532887006599724,0.552383,-0.117202,7.032494,-5.698853,-0.000019,0.000005,0.000000,0.000000,0.000000,0.000000,0.000000,0.000000,-0.000000,-0.000000,-0.003169,-0.000000,-0.004746,0.000000,-0.000000,-5.462588,-11.401903,3.074226,-1.421364,0.000557,-0.094666,-0.241764,1.272381,0
532887007601092,0.552382,-0.117201,7.032495,-5.698852,-0.000018,0.000004,0.000000,0.000000,0.000000,0.000000,0.000000,0.000000,-0.000000,-0.000000,0.000000,-0.000000,-0.000000,0.000000,0.000000,-5.462734,-11.401969,3.074238,-1.421372,0.000557,-0.094666,-0.241764,1.272381,0
532887008597758,0.552383,-0.117202,7.032497,-5.698852,-0.000016,0.000001,0.000000,0.000000,0.000000,0.000000,0.000000,0.000000,-0.000000,-0.000000,0.000000,-0.000000,-0.000000,-0.002848,0.000000,-5.462657,-11.401973,3.074240,-1.421376,0.000557,-0.094666,-0.241764,1.272381,0
532887009596307,0.552380,-0.117201,7.032495,-5.698851,-0.000017,0.000000,0.000000,0.000000,0.000000,0.000000,0.000000,0.000000,-0.002377,-0.000000,0.000000,-0.000000,-0.000000,0.000000,-0.000000,-5.462731,-11.401967,3.074237,-1.421373,0.000557,-0.094666,-0.241764,1.272381,0
532887010595427,0.552384,-0.117201,7.032495,-5.698851,-0.000017,0.000003,0.000000,0.000000,0.000000,0.000000,0.000000,0.000000,0.003169,-0.000000,0.000000,-0.000000,-0.000000,0.002848,0.000000,-5.462731,-11.401967,3.074237,-1.421373,0.000557,-0.094666,-0.241764,1.272381,0
532887011590227,0.552383,-0.117201,7.032496,-5.698851,-0.000018,0.000003,0.000000,0.000000,0.000000,0.000000,0.000000,0.000000,-0.000000,-0.000000,0.000000,-0.000000,-0.000000,0.000000,0.000000,-5.462747,-11.401982,3.074240,-1.421372,0.000557,-0.094666,-0.241764,1.272381,0
532887012572317,0.552384,-0.117201,7.032495,-5.698850,-0.000016,0.000003,0.000000,0.000000,0.000000,0.000000,0.000000,0.000000,-0.000000,-0.000000,0.000000,-0.000000,-0.000000,0.000000,-0.000000,-5.462672,-11.401948,3.074233,-1.421373,0.000557,-0.094666,-0.241764,1.272381,0
532887013597963,0.552382,-0.117201,7.032498,-5.698850,-0.000016,0.000005,0.000000,0.000000,0.000000,0.000000,0.000000,0.000000,-0.002377,-0.000000,0.002377,-0.000000,-0.000000,0.000000,0.000000,-5.462723,-11.401999,3.074243,-1.421378,0.000557,-0.094666,-0.241764,1.272381,0
532887014599139,0.552384,-0.117201,7.032496,-5.698849,-0.000016,0.000003,0.000000,0.000000,0.000000,0.000000,0.000000,0.000000,-0.000000,-0.000000,0.000000,-0.000000,-0.000000,0.000000,-0.000000,-5.462685,-11.401961,3.074234,-1.421374,0.000557,-0.094666,-0.241764,1.272381,0
532887015600982,0.552381,-0.117201,7.032496,-5.698851,-0.000015,0.000003,0.000000,0.000000,0.000000,0.000000,0.000000,0.000000,-0.002377,-0.000000,0.000000,-0.000000,-0.000000,0.000000,0.000000,-5.462752,-11.401987,3.074242,-1.421379,0.000557,-0.094666,-0.241764,1.272381,0
532887016602966,0.552384,-0.117201,7.032496,-5.698850,-0.000020,0.000004,0.000000,0.000000,0.000000,0.000000,0.000000,0.000000,0.002377,-0.000000,0.000000,-0.000000,-0.004746,0.000000,-0.000000,-5.462682,-11.401957,3.074233,-1.421366,0.000557,-0.094666,-0.241764,1.272381,0
532887017599510,0.552383,-0.117201,7.032496,-5.698850,-0.000016,0.000001,0.000000,0.000000,0.000000,0.000000,0.000000,0.000000,-0.000000,-0.000000,0.000000,-0.000000,0.003797,-0.002848,-0.000000,-5.462689,-11.401965,3.074236,-1.421374,0.000557,-0.094666,-0.241764,1.272381,0
532887018597338,0.552384,-0.117203,7.032497,-5.698853,-0.000020,0.000000,0.000000,0.000000,0.000000,0.000000,0.000000,0.000000,-0.000000,-0.000000,0.000000,-0.002848,-0.003797,0.000000,0.000000,-5.462597,-11.401952,3.074235,-1.421367,0.000557,-0.094666,-0.241764,1.272381,0
532887019599471,0.552382,-0.117201,7.032495,-5.698852,-0.000018,0.000003,0.000000,0.000000,0.000000,0.000000,0.000000,0.000000,-0.000000,-0.000000,0.000000,-0.000000,-0.000000,0.002848,-0.000000,-5.462677,-11.401952,3.074235,-1.421370,0.000557,-0.094666,-0.241764,1.272381,0
532887020595975,0.552382,-0.117201,7.032497,-5.698851,-0.000016,0.000004,0.000000,0.000000,0.000000,0.000000,0.000000,0.000000,-0.000000,-0.000000,0.000000,-0.000000,-0.000000,0.000000,-0.000000,-5.462767,-11.402002,3.074245,-1.421378,0.000557,-0.094666,-0.241764,1.272381,0
532887021596255,0.552382,-0.117202,7.032495,-5.698849,-0.000016,0.000002,0.000000,0.000000,0.000000,0.000000,0.000000,0.000000,-0.000000,-0.000000,0.000000,-0.000000,-0.000000,0.000000,-0.000000,-5.462612,-11.401927,3.074228,-1.421371,0.000557,-0.094666,-0.241764,1.272381,0
532887022601587,0.552383,-0.117202,7.032498,-5.698847,-0.000018,0.000003,0.000000,0.000000,0.000000,0.000000,0.000000,0.000000,-0.000000,-0.000000,0.002377,-0.000000,-0.000000,0.000000,-0.000000,-5.462651,-11.401966,3.074232,-1.421369,0.000557,-0.094666,-0.241764,1.272381,0
532887023598794,0.552382,-0.117201,7.032498,-5.698851,-0.000016,0.000002,0.000000,0.000000,0.000000,0.000000,0.000000,0.000000,-0.000000,-0.000000,0.000000,-0.003797,-0.000000,0.000000,0.000000,-5.462784,-11.402019,3.074248,-1.421380,0.000557,-0.094666,-0.241764,1.272381,0
532887024598423,0.552383,-0.117200,7.032496,-5.698851,-0.000017,0.000004,0.000000,0.000000,0.000000,0.000000,0.000000,0.000000,-0.000000,-0.000000,0.000000,-0.000000,-0.000000,0.000000,-0.000000,-5.462805,-11.402001,3.074244,-1.421376,0.000557,-0.094666,-0.241764,1.272381,0
532887025571947,0.552384,-0.117201,7.032497,-5.698850,-0.000016,0.000002,0.000000,0.000000,0.000000,0.000000,0.000000,0.000000,-0.000000,-0.000000,0.000000,-0.000000,-0.000000,0.000000,-0.000000,-5.462763,-11.401999,3.074243,-1.421378,0.000557,-0.094666,-0.241764,1.272381,0
532887026597603,0.552382,-0.117201,7.032497,-5.698853,-0.000017,0.000003,0.000000,0.000000,0.000000,0.000000,0.000000,0.000000,-0.000000,-0.000000,0.000000,-0.003797,-0.000000,0.000000,-0.000000,-5.462777,-11.402013,3.074250,-1.421379,0.000557,-0.094666,-0.241764,1.272381,0
532887027598211,0.552383,-0.117201,7.032496,-5.698853,-0.000014,0.000002,0.000000,0.000000,0.000000,0.000000,0.000000,0.000000,-0.000000,-0.000000,0.000000,-0.000000,0.002848,0.000000,0.000000,-5.462705,-11.401980,3.074244,-1.421382,0.000557,-0.094666,-0.241764,1.272381,0
532887028598866,0.552384,-0.117201,7.032497,-5.698853,-0.000015,0.000002,0.000000,0.000000,0.000000,0.000000,0.000000,0.000000,-0.000000,-0.000000,0.000000,-0.000000,-0.000000,0.000000,0.000000,-5.462720,-11.401995,3.074246,-1.421381,0.000557,-0.094666,-0.241764,1.272381,0
532887029599953,0.552384,-0.117201,7.032495,-5.698852,-0.000016,0.000002,0.000000,0.000000,0.000000,0.000000,0.000000,0.000000,-0.000000,-0.000000,0.000000,-0.000000,-0.000000,0.000000,0.000000,-5.462720,-11.401956,3.074237,-1.421375,0.000557,-0.094666,-0.241764,1.272381,0
532887030597850,0.552382,-0.117201,7.032496,-5.698852,-0.000018,0.000001,0.000000,0.000000,0.000000,0.000000,0.000000,0.000000,-0.000000,-0.000000,0.000000,-0.000000,-0.000000,0.000000,-0.000000,-5.462751,-11.401986,3.074242,-1.421373,0.000557,-0.094666,-0.241764,1.272381,0
532887031596460,0.552380,-0.117201,7.032497,-5.698852,-0.000020,0.000003,0.000000,0.000000,0.000000,0.000000,0.000000,0.000000,-0.000000,-0.000000,0.000000,-0.000000,-0.000000,0.000000,-0.000000,-5.462707,-11.401982,3.074240,-1.421369,0.000557,-0.094666,-0.241764,1.272381,0
532887032596700,0.552382,-0.117201,7.032497,-5.698850,-0.000018,0.000002,0.000000,0.000000,0.000000,0.000000,0.000000,0.000000,-0.000000,-0.000000,0.000000,-0.000000,-0.000000,0.000000,-0.000000,-5.462703,-11.401978,3.074238,-1.421372,0.000557,-0.094666,-0.241764,1.272381,0
532887033593201,0.552383,-0.117201,7.032497,-5.698849,-0.000016,0.000003,0.000000,0.000000,0.000000,0.000000,0.000000,0.000000,-0.000000,-0.000000,0.000000,-0.000000,-0.000000,0.000000,-0.000000,-5.462759,-11.401995,3.074241,-1.421377,0.000557,-0.094666,-0.241764,1.272381,0
532887034597395,0.552382,-0.117201,7.032497,-5.698850,-0.000017,0.000004,0.000000,0.000000,0.000000,0.000000,0.000000,0.000000,-0.000000,-0.000000,0.000000,-0.000000,-0.000000,0.000000,-0.000000,-5.462761,-11.401997,3.074242,-1.421375,0.000557,-0.094666,-0.241764,1.272381,0
532887035597290,0.552382,-0.117201,7.032498,-5.698852,-0.000017,0.000003,0.000000,0.000000,0.000000,0.000000,0.000000,0.000000,-0.000000,-0.000000,0.000000,-0.000000,-0.000000,0.000000,0.000000,-5.462786,-11.402022,3.074249,-1.421379,0.000557,-0.094666,-0.241764,1.272381,0
532887036598589,0.552384,-0.117202,7.032498,-5.698850,-0.000017,0.000000,0.000000,0.000000,0.000000,0.000000,0.000000,0.000000,-0.000000,-0.000000,0.000000,-0.000000,-0.000000,-0.002848,-0.000000,-5.462665,-11.401980,3.074239,-1.421374,0.000557,-0.094666,-0.241764,1.272381,0
532887037601459,0.552383,-0.117201,7.032498,-5.698851,-0.000016,0.000004,0.000000,0.000000,0.000000,0.000000,0.000000,0.000000,-0.000000,-0.000000,0.000000,-0.000000,-0.000000,0.003797,0.000000,-5.462784,-11.402019,3.074248,-1.421380,0.000557,-0.094666,-0.241764,1.272381,0
532887038603052,0.552383,-0.117201,7.032498,-5.698852,-0.000018,0.000003,0.000000,0.000000,0.000000,0.000000,0.000000,0.000000,-0.000000,-0.000000,0.000000,-0.000000,-0.000000,0.000000,0.000000,-5.462784,-11.402020,3.074248,-1.421376,0.000557,-0.094666,-0.241764,1.272381,0
532887039601987,0.552384,-0.117201,7.032497,-5.698853,-0.000018,0.000001,0.000000,0.000000,0.000000,0.000000,0.000000,0.000000,-0.000000,-0.000000,0.000000,-0.000000,-0.000000,0.000000,-0.000000,-5.462775,-11.402011,3.074249,-1.421377,0.000557,-0.094666,-0.241764,1.272381,0
532887040596627,0.552384,-0.117201,7.032496,-5.698850,-0.000017,0.000001,0.000000,0.000000,0.000000,0.000000,0.000000,0.000000,-0.000000,-0.000000,0.000000,0.003797,-0.000000,0.000000,0.000000,-5.462688,-11.401963,3.074235,-1.421372,0.000557,-0.094666,-0.241764,1.272381,0
532887041599980,0.552382,-0.117202,7.032496,-5.698853,-0.000015,0.000004,0.000000,0.000000,0.000000,0.000000,0.000000,0.000000,-0.000000,-0.000000,0.000000,-0.002848,0.002848,0.000000,-0.000000,-5.462646,-11.401961,3.074239,-1.421378,0.000557,-0.094666,-0.241764,1.272381,0
532887042595676,0.552383,-0.117203,7.032495,-5.698851,-0.000018,-0.000001,0.000000,0.000000,0.000000,0.000000,0.000000,0.000000,-0.000000,-0.000000,0.000000,-0.000000,-0.002848,-0.004746,0.000000,-5.462542,-11.401897,3.074223,-1.421365,0.000557,-0.094666,-0.241764,1.272381,0
532887043597300,0.552383,-0.117198,7.032497,-5.698851,-0.000018,0.000004,0.000000,0.000000,0.000000,0.000000,0.000000,0.000000,-0.000000,0.004754,0.002377,-0.000000,-0.000000,0.004746,-0.000000,-5.462934,-11.402050,3.074253,-1.421379,0.000557,-0.094666,-0.241764,1.272381,0
532887044598768,0.552384,-0.117201,7.032495,-5.698852,-0.000018,0.000004,0.000000,0.000000,0.000000,0.000000,0.000000,0.000000,-0.000000,-0.002377,0.000000,-0.000000,-0.000000,0.000000,0.000000,-5.462734,-11.401969,3.074238,-1.421372,0.000557,-0.094666,-0.241764,1.272381,0
532887045596861,0.552381,-0.117201,7.032496,-5.698850,-0.000017,0.000003,0.000000,0.000000,0.000000,0.000000,0.000000,0.000000,-0.002377,-0.000000,0.000000,-0.000000,-0.000000,0.000000,0.000000,-5.462688,-11.401963,3.074235,-1.421372,0.000557,-0.094666,-0.241764,1.272381,0
532887046595636,0.552383,-0.117202,7.032497,-5.698851,-0.000017,0.000001,0.000000,0.000000,0.000000,0.000000,0.000000,0.000000,-0.000000,-0.000000,0.000000,-0.000000,-0.000000,0.000000,0.000000,-5.462652,-11.401967,3.074237,-1.421373,0.000557,-0.094666,-0.241764,1.272381,0
532887047595874,0.552385,-0.117201,7.032495,-5.698852,-0.000018,0.000002,0.000000,0.000000,0.000000,0.000000,0.000000,0.000000,0.002377,-0.000000,0.000000,-0.000000,-0.000000,0.000000,0.000000,-5.462734,-11.401969,3.074238,-1.421372,0.000557,-0.094666,-0.241764,1.272381,0
532887048571927,0.552385,-0.117202,7.032497,-5.698849,-0.000017,0.000003,0.000000,0.000000,0.000000,0.000000,0.000000,0.000000,-0.000000,-0.000000,0.000000,0.002848,-0.000000,0.000000,0.000000,-5.462644,-11.401959,3.074233,-1.421371,0.000557,-0.094666,-0.241764,1.272381,0
532887049572139,0.552383,-0.117202,7.032497,-5.698852,-0.000017,0.000001,0.000000,0.000000,0.000000,0.000000,0.000000,0.000000,-0.002377,-0.000000,0.000000,-0.002848,-0.000000,0.000000,0.000000,-5.462656,-11.401971,3.074239,-1.421374,0.000557,-0.094666,-0.241764,1.272381,0
532887050571642,0.552381,-0.117201,7.032497,-5.698853,-0.000015,0.000002,0.000000,0.000000,0.000000,0.000000,0.000000,0.000000,-0.000000,-0.000000,0.000000,-0.000000,-0.000000,0.000000,0.000000,-5.462777,-11.402012,3.074249,-1.421382,0.000557,-0.094666,-0.241764,1.272381,0
532887051598905,0.552382,-0.117201,7.032496,-5.698849,-0.000016,0.000002,0.000000,0.000000,0.000000,0.000000,0.000000,0.000000,-0.000000,-0.000000,0.000000,0.003797,-0.000000,0.000000,0.000000,-5.462685,-11.401961,3.074234,-1.421374,0.000557,-0.094666,-0.241764,1.272381,0
532887052571646,0.552384,-0.117201,7.032495,-5.698851,-0.000017,0.000004,0.000000,0.000000,0.000000,0.000000,0.000000,0.000000,-0.000000,-0.000000,0.000000,-0.000000,-0.000000,0.000000,-0.000000,-5.462675,-11.401950,3.074234,-1.421372,0.000557,-0.094666,-0.241764,1.272381,0
532887053571776,0.552382,-0.117200,7.032495,-5.698851,-0.000020,0.000004,0.000000,0.000000,0.000000,0.000000,0.000000,0.000000,-0.000000,-0.000000,0.000000,-0.000000,-0.002848,0.000000,-0.000000,-5.462766,-11.401961,3.074234,-1.421367,0.000557,-0.094666,-0.241764,1.272381,0
532887054571577,0.552383,-0.117201,7.032497,-5.698850,-0.000017,0.000001,0.000000,0.000000,0.000000,0.000000,0.000000,0.000000,-0.000000,-0.000000,0.000000,-0.000000,0.002848,-0.002848,-0.000000,-5.462704,-11.401980,3.074239,-1.421374,0.000557,-0.094666,-0.241764,1.272381,0
532887055597951,0.552380,-0.117201,7.032495,-5.698853,-0.000016,0.000002,0.000000,0.000000,0.000000,0.000000,0.000000,0.000000,-0.000000,-0.000000,0.000000,-0.002848,-0.000000,0.000000,-0.000000,-5.462741,-11.401977,3.074242,-1.421377,0.000557,-0.094666,-0.241764,1.272381,0
532887056571460,0.552383,-0.117200,7.032497,-5.698853,-0.000015,0.000003,0.000000,0.000000,0.000000,0.000000,0.000000,0.000000,-0.000000,-0.000000,0.000000,-0.000000,-0.000000,0.000000,0.000000,-5.462838,-11.402033,3.074255,-1.421385,0.000557,-0.094666,-0.241764,1.272381,0
532887057571945,0.552382,-0.117201,7.032497,-5.698852,-0.000019,0.000004,0.000000,0.000000,0.000000,0.000000,0.000000,0.000000,-0.000000,-0.000000,0.000000,-0.000000,-0.003797,0.000000,-0.000000,-5.462709,-11.401984,3.074241,-1.421371,0.000557,-0.094666,-0.241764,1.272381,0
532887058571595,0.552384,-0.117203,7.032497,-5.698852,-0.000018,0.000004,0.000000,0.000000,0.000000,0.000000,0.000000,0.000000,-0.000000,-0.000000,0.000000,-0.000000,-0.000000,0.000000,0.000000,-5.462597,-11.401952,3.074235,-1.421370,0.000557,-0.094666,-0.241764,1.272381,0
532887059571805,0.552380,-0.117201,7.032498,-5.698853,-0.000019,0.000001,0.000000,0.000000,0.000000,0.000000,0.000000,0.000000,-0.002377,0.002377,0.000000,-0.002848,-0.000000,-0.002848,-0.000000,-5.462808,-11.402043,3.074254,-1.421378,0.000557,-0.094666,-0.241764,1.272381,0
532887060571771,0.552383,-0.117201,7.032497,-5.698850,-0.000018,0.000003,0.000000,0.000000,0.000000,0.000000,0.000000,0.000000,0.002377,-0.000000,0.000000,0.003797,-0.000000,0.000000,-0.000000,-5.462760,-11.401995,3.074241,-1.421373,0.000557,-0.094666,-0.241764,1.272381,0
532887061578458,0.552384,-0.117202,7.032496,-5.698851,-0.000017,0.000001,0.000000,0.000000,0.000000,0.000000,0.000000,0.000000,-0.000000,-0.000000,0.000000,-0.000000,-0.000000,0.000000,0.000000,-5.462635,-11.401950,3.074234,-1.421372,0.000557,-0.094666,-0.241764,1.272381,0
532887062591204,0.552384,-0.117201,7.032496,-5.698852,-0.000017,0.000000,0.000000,0.000000,0.000000,0.000000,0.000000,0.000000,-0.000000,-0.000000,0.000000,-0.000000,-0.000000,0.000000,0.000000,-5.462695,-11.401971,3.074239,-1.421374,0.000557,-0.094666,-0.241764,1.272381,0
532887063603127,0.552383,-0.117202,7.032496,-5.698849,-0.000017,0.000002,0.000000,0.000000,0.000000,0.000000,0.000000,0.000000,-0.000000,-0.000000,0.000000,0.002848,-0.000000,0.000000,-0.000000,-5.462627,-11.401942,3.074230,-1.421370,0.000557,-0.094666,-0.241764,1.272381,0
532887064611434,0.552382,-0.117201,7.032495,-5.698852,-0.000017,0.000000,0.000000,0.000000,0.000000,0.000000,0.000000,0.000000,-0.000000,-0.000000,0.000000,-0.000000,-0.000000,0.000000,0.000000,-5.462662,-11.401937,3.074232,-1.421371,0.000557,-0.094666,-0.241764,1.272381,0
532887065595637,0.552383,-0.117201,7.032498,-5.698850,-0.000017,0.000002,0.000000,0.000000,0.000000,0.000000,0.000000,0.000000,-0.000000,-0.000000,0.000000,-0.000000,-0.000000,0.000000,-0.000000,-5.462778,-11.402014,3.074245,-1.421377,0.000557,-0.094666,-0.241764,1.272381,0
532887066604934,0.552384,-0.117201,7.032495,-5.698853,-0.000015,0.000001,0.000000,0.000000,0.000000,0.000000,0.000000,0.000000,-0.000000,-0.000000,-0.003169,-0.002848,-0.000000,0.000000,0.000000,-5.462669,-11.401945,3.074236,-1.421376,0.000557,-0.094666,-0.241764,1.272381,0
532887067595943,0.552382,-0.117201,7.032495,-5.698853,-0.000017,0.000002,0.000000,0.000000,0.000000,0.000000,0.000000,0.000000,-0.000000,-0.000000,0.000000,-0.000000,-0.000000,0.000000,0.000000,-5.462739,-11.401975,3.074241,-1.421375,0.000557,-0.094666,-0.241764,1.272381,0
532887068598049,0.552382,-0.117201,7.032495,-5.698850,-0.000016,0.000002,0.000000,0.000000,0.000000,0.000000,0.000000,0.000000,-0.000000,-0.000000,0.000000,0.002848,-0.000000,0.000000,0.000000,-5.462672,-11.401948,3.074233,-1.421373,0.000557,-0.094666,-0.241764,1.272381,0
532887069599668,0.552384,-0.117201,7.032496,-5.698851,-0.000017,0.000002,0.000000,0.000000,0.000000,0.000000,0.000000,0.000000,0.002377,-0.000000,0.000000,-0.000000,-0.000000,0.000000,-0.000000,-5.462748,-11.401984,3.074240,-1.421375,0.000557,-0.094666,-0.241764,1.272381,0
532887070601933,0.552383,-0.117201,7.032496,-5.698850,-0.000016,0.000002,0.000000,0.000000,0.000000,0.000000,0.000000,0.000000,-0.000000,-0.000000,0.000000,-0.000000,-0.000000,0.000000,-0.000000,-5.462689,-11.401965,3.074236,-1.421374,0.000557,-0.094666,-0.241764,1.272381,0
532887071599004,0.552383,-0.117202,7.032495,-5.698852,-0.000017,0.000004,0.000000,0.000000,0.000000,0.000000,0.000000,0.000000,-0.000000,-0.000000,0.000000,-0.000000,-0.000000,0.000000,0.000000,-5.462622,-11.401937,3.074232,-1.421371,0.000557,-0.094666,-0.241764,1.272381,0
532887072599852,0.552383,-0.117201,7.032496,-5.698851,-0.000018,0.000002,0.000000,0.000000,0.000000,0.000000,0.000000,0.000000,-0.000000,-0.000000,0.000000,-0.000000,-0.000000,0.000000,0.000000,-5.462747,-11.401982,3.074240,-1.421372,0.000557,-0.094666,-0.241764,1.272381,0
532887073600288,0.552384,-0.117202,7.032497,-5.698851,-0.000015,0.000003,0.000000,0.000000,0.000000,0.000000,0.000000,0.000000,-0.000000,-0.000000,0.000000,-0.000000,0.002848,0.000000,-0.000000,-5.462655,-11.401970,3.074239,-1.421378,0.000557,-0.094666,-0.241764,1.272381,0
532887074596083,0.552384,-0.117201,7.032498,-5.698852,-0.000018,0.000001,0.000000,0.000000,0.000000,0.000000,0.000000,0.000000,-0.000000,-0.000000,0.000000,-0.000000,-0.002848,0.000000,0.000000,-5.462784,-11.402020,3.074248,-1.421376,0.000557,-0.094666,-0.241764,1.272381,0
532887075596328,0.552382,-0.117201,7.032495,-5.698851,-0.000015,0.000002,0.000000,0.000000,0.000000,0.000000,0.000000,0.000000,-0.002377,-0.000000,-0.002377,-0.000000,0.002848,0.000000,-0.000000,-5.462678,-11.401954,3.074236,-1.421376,0.000557,-0.094666,-0.241764,1.272381,0
532887076608596,0.552384,-0.117201,7.032497,-5.698852,-0.000016,0.000003,0.000000,0.000000,0.000000,0.000000,0.000000,0.000000,0.002377,-0.000000,0.000000,-0.000000,-0.000000,0.000000,-0.000000,-5.462771,-11.402006,3.074247,-1.421379,0.000557,-0.094666,-0.241764,1.272381,0
532887077571468,0.552382,-0.117202,7.032496,-5.698851,-0.000017,0.000005,0.000000,0.000000,0.000000,0.000000,0.000000,0.000000,-0.002377,-0.000000,0.000000,-0.000000,-0.000000,0.000000,-0.000000,-5.462635,-11.401950,3.074234,-1.421372,0.000557,-0.094666,-0.241764,1.272381,0
532887078598255,0.552384,-0.117202,7.032495,-5.698853,-0.000016,0.000003,0.000000,0.000000,0.000000,0.000000,0.000000,0.000000,-0.000000,-0.000000,0.000000,-0.000000,-0.000000,0.000000,-0.000000,-5.462627,-11.401943,3.074235,-1.421374,0.000557,-0.094666,-0.241764,1.272381,0
532887079597535,0.552384,-0.117201,7.032497,-5.698852,-0.000014,0.000004,0.000000,0.000000,0.000000,0.000000,0.000000,0.000000,-0.000000,-0.000000,0.000000,-0.000000,0.003797,0.000000,-0.000000,-5.462718,-11.401993,3.074245,-1.421382,0.000557,-0.094666,-0.241764,1.272381,0
532887080597004,0.552384,-0.117201,7.032496,-5.698851,-0.000017,0.000001,0.000000,0.000000,0.000000,0.000000,0.000000,0.000000,-0.000000,-0.000000,0.000000,-0.000000,-0.000000,-0.002848,-0.000000,-5.462748,-11.401984,3.074240,-1.421375,0.000557,-0.094666,-0.241764,1.272381,0
532887081599798,0.552382,-0.117201,7.032497,-5.698851,-0.000015,0.000003,0.000000,0.000000,0.000000,0.000000,0.000000,0.000000,-0.000000,-0.000000,0.000000,-0.000000,-0.000000,0.000000,0.000000,-5.462769,-11.402004,3.074246,-1.421381,0.000557,-0.094666,-0.241764,1.272381,0
532887082598577,0.552384,-0.117201,7.032496,-5.698851,-0.000017,0.000001,0.000000,0.000000,0.000000,0.000000,0.000000,0.000000,-0.000000,-0.000000,0.000000,-0.000000,-0.000000,0.000000,-0.000000,-5.462748,-11.401984,3.074240,-1.421375,0.000557,-0.094666,-0.241764,1.272381,0
532887083572596,0.552384,-0.117201,7.032496,-5.698850,-0.000018,0.000002,0.000000,0.000000,0.000000,0.000000,0.000000,0.000000,-0.000000,-0.000000,0.000000,-0.000000,-0.000000,0.000000,0.000000,-5.462743,-11.401978,3.074238,-1.421372,0.000557,-0.094666,-0.241764,1.272381,0
532887084571934,0.552384,-0.117201,7.032497,-5.698850,-0.000018,0.000003,0.000000,0.000000,0.000000,0.000000,0.000000,0.000000,-0.000000,-0.000000,0.000000,-0.000000,-0.000000,0.000000,-0.000000,-5.462703,-11.401978,3.074238,-1.421372,0.000557,-0.094666,-0.241764,1.272381,0
532887085596126,0.552383,-0.117201,7.032497,-5.698851,-0.000014,0.000001,0.000000,0.000000,0.000000,0.000000,0.000000,0.000000,-0.000000,-0.000000,0.000000,-0.000000,0.003797,0.000000,0.000000,-5.462714,-11.401989,3.074243,-1.421381,0.000557,-0.094666,-0.241764,1.272381,0
532887086572530,0.552381,-0.117201,7.032495,-5.698850,-0.000018,0.000001,0.000000,0.000000,0.000000,0.000000,0.000000,0.000000,-0.000000,-0.000000,0.000000,-0.000000,-0.003797,0.000000,0.000000,-5.462652,-11.401927,3.074228,-1.421367,0.000557,-0.094666,-0.241764,1.272381,0
532887087572476,0.552383,-0.117202,7.032497,-5.698853,-0.000017,0.000002,0.000000,0.000000,0.000000,0.000000,0.000000,0.000000,-0.000000,-0.000000,0.002377,-0.000000,-0.000000,0.000000,0.000000,-5.462660,-11.401975,3.074241,-1.421375,0.000557,-0.094666,-0.241764,1.272381,0
532887088598946,0.552384,-0.117200,7.032497,-5.698851,-0.000018,0.000003,0.000000,0.000000,0.000000,0.000000,0.000000,0.000000,-0.000000,0.002377,0.000000,-0.000000,-0.000000,0.000000,0.000000,-5.462820,-11.402016,3.074246,-1.421376,0.000557,-0.094666,-0.241764,1.272381,0
532887089586396,0.552383,-0.117202,7.032497,-5.698849,-0.000015,0.000003,0.000000,0.000000,0.000000,0.000000,0.000000,0.000000,-0.000000,-0.002377,0.000000,0.002848,0.002848,0.000000,0.000000,-5.462647,-11.401962,3.074235,-1.421376,0.000557,-0.094666,-0.241764,1.272381,0
532887090600143,0.552382,-0.117201,7.032496,-5.698853,-0.000016,0.000001,0.000000,0.000000,0.000000,0.000000,0.000000,0.000000,-0.000000,-0.000000,0.000000,-0.004746,-0.000000,0.000000,-0.000000,-5.462762,-11.401998,3.074247,-1.421380,0.000557,-0.094666,-0.241764,1.272381,0
532887091597900,0.552384,-0.117200,7.032496,-5.698853,-0.000019,0.000003,0.000000,0.000000,0.000000,0.000000,0.000000,0.000000,-0.000000,-0.000000,0.000000,-0.000000,-0.002848,0.000000,-0.000000,-5.462810,-11.402005,3.074246,-1.421374,0.000557,-0.094666,-0.241764,1.272381,0
532887092597627,0.552382,-0.117201,7.032498,-5.698849,-0.000016,0.000003,0.000000,0.000000,0.000000,0.000000,0.000000,0.000000,-0.000000,-0.000000,0.000000,0.003797,0.002848,0.000000,0.000000,-5.462776,-11.402011,3.074244,-1.421378,0.000557,-0.094666,-0.241764,1.272381,0
532887093597314,0.552384,-0.117201,7.032496,-5.698849,-0.000014,0.000003,0.000000,0.000000,0.000000,0.000000,0.000000,0.000000,-0.000000,-0.000000,0.000000,-0.000000,-0.000000,0.000000,-0.000000,-5.462689,-11.401964,3.074236,-1.421378,0.000557,-0.094666,-0.241764,1.272381,0
532887094572006,0.552381,-0.117201,7.032496,-5.698849,-0.000018,0.000002,0.000000,0.000000,0.000000,0.000000,0.000000,0.000000,-0.002377,-0.000000,0.000000,-0.000000,-0.003797,0.000000,-0.000000,-5.462682,-11.401957,3.074232,-1.421369,0.000557,-0.094666,-0.241764,1.272381,0
532887095599890,0.552384,-0.117201,7.032497,-5.698850,-0.000017,0.000001,0.000000,0.000000,0.000000,0.000000,0.000000,0.000000,0.003169,-0.000000,0.000000,-0.000000,-0.000000,0.000000,-0.000000,-5.462704,-11.401980,3.074239,-1.421374,0.000557,-0.094666,-0.241764,1.272381,0
532887096596035,0.552382,-0.117202,7.032496,-5.698853,-0.000018,0.000002,0.000000,0.000000,0.000000,0.000000,0.000000,0.000000,-0.002377,-0.000000,0.000000,-0.002848,-0.000000,0.000000,-0.000000,-5.462641,-11.401956,3.074237,-1.421371,0.000557,-0.094666,-0.241764,1.272381,0
