jieun02-kim/RAON-RT-Revision/App/Indy7/rt_log_results/plotted_csv/DataLog_20260423_011822.csv
timestamp_ns,q0,q1,q2,q3,q4,q5,q_ref0,q_ref1,q_ref2,q_ref3,q_ref4,q_ref5,qd0,qd1,qd2,qd3,qd4,qd5,tau0,tau1,tau2,tau3,tau4,tau5,tcp_x,tcp_y,tcp_z,ctrl_mode
537816183905930,-3.568698,1.230354,5.460606,-0.917458,-0.151440,0.000002,0.000000,0.000000,0.000000,0.000000,0.000000,0.000000,0.003169,-0.000000,0.000000,-0.000000,-0.000000,0.000000,0.000000,-60.342778,-13.458656,1.595802,-0.292236,0.000271,0.756540,-0.188253,0.928633,0
537816184905665,-3.568698,1.230356,5.460607,-0.917457,-0.151440,0.000000,0.000000,0.000000,0.000000,0.000000,0.000000,0.000000,-0.000000,-0.000000,0.000000,-0.000000,-0.002848,0.000000,-0.000000,-60.342848,-13.458699,1.595813,-0.292241,0.000271,0.756540,-0.188253,0.928633,0
537816185904285,-3.568699,1.230355,5.460608,-0.917458,-0.151438,-0.000002,0.000000,0.000000,0.000000,0.000000,0.000000,0.000000,-0.000000,-0.000000,0.000000,-0.000000,-0.000000,0.000000,0.000000,-60.342842,-13.458706,1.595810,-0.292245,0.000271,0.756540,-0.188253,0.928633,0
537816186905318,-3.568699,1.230355,5.460609,-0.917458,-0.151440,0.000001,0.000000,0.000000,0.000000,0.000000,0.000000,0.000000,-0.000000,-0.000000,0.000000,-0.000000,-0.000000,0.002848,-0.000000,-60.342854,-13.458718,1.595814,-0.292241,0.000271,0.756540,-0.188253,0.928633,0
537816187880540,-3.568698,1.230356,5.460606,-0.917458,-0.151439,-0.000002,0.000000,0.000000,0.000000,0.000000,0.000000,0.000000,-0.000000,-0.000000,-0.002377,-0.000000,-0.000000,-0.002848,-0.000000,-60.342838,-13.458689,1.595807,-0.292241,0.000271,0.756540,-0.188253,0.928633,0
537816188904165,-3.568697,1.230355,5.460606,-0.917457,-0.151439,0.000001,0.000000,0.000000,0.000000,0.000000,0.000000,0.000000,-0.000000,-0.000000,0.000000,-0.000000,-0.000000,0.002848,-0.000000,-60.342805,-13.458670,1.595806,-0.292241,0.000271,0.756540,-0.188253,0.928633,0
537816189903110,-3.568698,1.230355,5.460607,-0.917459,-0.151438,0.000001,0.000000,0.000000,0.000000,0.000000,0.000000,0.000000,-0.000000,-0.000000,0.000000,-0.000000,-0.000000,0.000000,0.000000,-60.342830,-13.458694,1.595805,-0.292243,0.000271,0.756540,-0.188253,0.928633,0
537816190879798,-3.568696,1.230355,5.460606,-0.917460,-0.151442,-0.000002,0.000000,0.000000,0.000000,0.000000,0.000000,0.000000,-0.000000,-0.000000,0.000000,-0.000000,-0.003797,-0.002848,0.000000,-60.342811,-13.458675,1.595804,-0.292230,0.000271,0.756540,-0.188253,0.928633,0
537816191879656,-3.568699,1.230354,5.460606,-0.917459,-0.151440,0.000003,0.000000,0.000000,0.000000,0.000000,0.000000,0.000000,-0.003169,-0.000000,0.000000,-0.000000,-0.000000,0.000000,0.000000,-60.342782,-13.458660,1.595801,-0.292235,0.000271,0.756540,-0.188253,0.928633,0
537816192880703,-3.568697,1.230356,5.460608,-0.917459,-0.151439,0.000002,0.000000,0.000000,0.000000,0.000000,0.000000,0.000000,-0.000000,0.002377,0.000000,-0.000000,-0.000000,0.000000,0.000000,-60.342901,-13.458739,1.595815,-0.292245,0.000271,0.756540,-0.188253,0.928633,0
537816193880021,-3.568697,1.230354,5.460606,-0.917459,-0.151439,-0.000002,0.000000,0.000000,0.000000,0.000000,0.000000,0.000000,-0.000000,-0.000000,0.000000,-0.000000,-0.000000,-0.003797,0.000000,-60.342784,-13.458661,1.595800,-0.292238,0.000271,0.756540,-0.188253,0.928633,0
537816194919225,-3.568698,1.230356,5.460606,-0.917458,-0.151440,0.000000,0.000000,0.000000,0.000000,0.000000,0.000000,0.000000,-0.000000,-0.000000,0.000000,-0.000000,-0.000000,0.000000,0.000000,-60.342820,-13.458672,1.595805,-0.292237,0.000271,0.756540,-0.188253,0.928633,0
537816195907512,-3.568699,1.230356,5.460607,-0.917460,-0.151442,0.000001,0.000000,0.000000,0.000000,0.000000,0.000000,0.000000,-0.000000,-0.000000,0.000000,-0.000000,-0.000000,0.000000,0.000000,-60.342855,-13.458706,1.595810,-0.292233,0.000271,0.756540,-0.188253,0.928633,0
537816196905165,-3.568698,1.230354,5.460609,-0.917459,-0.151439,-0.000001,0.000000,0.000000,0.000000,0.000000,0.000000,0.000000,-0.000000,-0.000000,0.000000,-0.000000,0.002848,0.000000,0.000000,-60.342830,-13.458708,1.595809,-0.292242,0.000271,0.756540,-0.188253,0.928633,0
537816197903834,-3.568699,1.230354,5.460606,-0.917457,-0.151441,0.000000,0.000000,0.000000,0.000000,0.000000,0.000000,0.000000,-0.000000,-0.000000,-0.002377,-0.000000,-0.000000,0.000000,0.000000,-60.342773,-13.458651,1.595805,-0.292234,0.000271,0.756540,-0.188253,0.928633,0
537816198907486,-3.568699,1.230356,5.460607,-0.917458,-0.151440,0.000001,0.000000,0.000000,0.000000,0.000000,0.000000,0.000000,-0.000000,-0.000000,0.000000,-0.000000,-0.000000,0.000000,-0.000000,-60.342851,-13.458703,1.595811,-0.292240,0.000271,0.756540,-0.188253,0.928633,0
537816199903085,-3.568698,1.230355,5.460606,-0.917456,-0.151441,0.000002,0.000000,0.000000,0.000000,0.000000,0.000000,0.000000,-0.000000,-0.000000,0.000000,-0.000000,-0.000000,0.000000,-0.000000,-60.342798,-13.458663,1.595810,-0.292236,0.000271,0.756540,-0.188253,0.928633,0
537816200903957,-3.568699,1.230354,5.460608,-0.917458,-0.151439,-0.000001,0.000000,0.000000,0.000000,0.000000,0.000000,0.000000,-0.000000,-0.000000,0.000000,-0.000000,-0.000000,-0.002848,0.000000,-60.342811,-13.458689,1.595807,-0.292241,0.000271,0.756540,-0.188253,0.928633,0
537816201907636,-3.568699,1.230354,5.460607,-0.917458,-0.151437,0.000000,0.000000,0.000000,0.000000,0.000000,0.000000,0.000000,-0.000000,-0.000000,0.000000,-0.000000,-0.000000,0.000000,-0.000000,-60.342799,-13.458677,1.595803,-0.292245,0.000271,0.756540,-0.188253,0.928633,0
537816202880069,-3.568699,1.230355,5.460607,-0.917459,-0.151441,0.000000,0.000000,0.000000,0.000000,0.000000,0.000000,0.000000,-0.000000,-0.000000,0.000000,-0.000000,-0.003797,0.000000,0.000000,-60.342825,-13.458689,1.595807,-0.292235,0.000271,0.756540,-0.188253,0.928633,0
537816203906289,-3.568700,1.230355,5.460609,-0.917460,-0.151439,0.000001,0.000000,0.000000,0.000000,0.000000,0.000000,0.000000,-0.000000,-0.000000,0.000000,-0.000000,-0.000000,0.000000,-0.000000,-60.342863,-13.458727,1.595810,-0.292242,0.000271,0.756540,-0.188253,0.928633,0
537816204906405,-3.568698,1.230355,5.460608,-0.917461,-0.151440,0.000000,0.000000,0.000000,0.000000,0.000000,0.000000,0.000000,0.002377,-0.000000,0.000000,-0.000000,-0.000000,0.000000,0.000000,-60.342849,-13.458713,1.595806,-0.292238,0.000271,0.756540,-0.188253,0.928633,0
537816205881162,-3.568699,1.230355,5.460607,-0.917461,-0.151442,-0.000001,0.000000,0.000000,0.000000,0.000000,0.000000,0.000000,-0.000000,-0.000000,0.000000,-0.000000,-0.000000,0.000000,0.000000,-60.342830,-13.458694,1.595805,-0.292231,0.000271,0.756540,-0.188253,0.928633,0
537816206880122,-3.568697,1.230352,5.460606,-0.917458,-0.151443,-0.000002,0.000000,0.000000,0.000000,0.000000,0.000000,0.000000,-0.000000,-0.000000,0.000000,0.002848,-0.000000,0.000000,0.000000,-60.342700,-13.458604,1.595796,-0.292224,0.000271,0.756540,-0.188253,0.928633,0
537816207879547,-3.568698,1.230353,5.460606,-0.917458,-0.151439,-0.000002,0.000000,0.000000,0.000000,0.000000,0.000000,0.000000,-0.000000,-0.000000,0.000000,-0.000000,0.003797,0.000000,0.000000,-60.342751,-13.458642,1.595799,-0.292237,0.000271,0.756540,-0.188253,0.928633,0
537816208907908,-3.568697,1.230356,5.460607,-0.917458,-0.151441,0.000000,0.000000,0.000000,0.000000,0.000000,0.000000,0.000000,-0.000000,-0.000000,0.000000,-0.000000,-0.000000,0.000000,0.000000,-60.342850,-13.458701,1.595812,-0.292237,0.000271,0.756540,-0.188253,0.928633,0
537816209907422,-3.568698,1.230356,5.460609,-0.917461,-0.151440,-0.000001,0.000000,0.000000,0.000000,0.000000,0.000000,0.000000,-0.000000,-0.000000,0.000000,-0.002848,-0.000000,0.000000,-0.000000,-60.342893,-13.458744,1.595812,-0.292240,0.000271,0.756540,-0.188253,0.928633,0
537816210911621,-3.568697,1.230354,5.460609,-0.917459,-0.151438,-0.000001,0.000000,0.000000,0.000000,0.000000,0.000000,0.000000,-0.000000,-0.000000,0.000000,-0.000000,-0.000000,0.000000,0.000000,-60.342832,-13.458710,1.595808,-0.292244,0.000271,0.756540,-0.188253,0.928633,0
537816211883800,-3.568698,1.230356,5.460607,-0.917457,-0.151438,0.000004,0.000000,0.000000,0.000000,0.000000,0.000000,0.000000,-0.000000,-0.000000,0.000000,-0.000000,-0.000000,0.003797,0.000000,-60.342851,-13.458703,1.595811,-0.292246,0.000271,0.756540,-0.188253,0.928633,0
537816212909967,-3.568698,1.230354,5.460608,-0.917458,-0.151442,0.000000,0.000000,0.000000,0.000000,0.000000,0.000000,0.000000,-0.000000,-0.000000,0.000000,-0.000000,-0.003797,-0.003797,0.000000,-60.342806,-13.458684,1.595810,-0.292233,0.000271,0.756540,-0.188253,0.928633,0
537816213883292,-3.568699,1.230354,5.460606,-0.917460,-0.151441,0.000001,0.000000,0.000000,0.000000,0.000000,0.000000,0.000000,-0.000000,-0.000000,-0.002377,-0.000000,-0.000000,0.000000,0.000000,-60.342784,-13.458661,1.595800,-0.292232,0.000271,0.756540,-0.188253,0.928633,0
537816214881919,-3.568699,1.230354,5.460607,-0.917462,-0.151442,0.000001,0.000000,0.000000,0.000000,0.000000,0.000000,0.000000,-0.000000,-0.000000,0.000000,-0.003797,-0.002848,0.000000,0.000000,-60.342805,-13.458682,1.595800,-0.292229,0.000271,0.756540,-0.188253,0.928633,0
537816215909492,-3.568698,1.230355,5.460608,-0.917460,-0.151441,0.000000,0.000000,0.000000,0.000000,0.000000,0.000000,0.000000,-0.000000,-0.000000,0.000000,-0.000000,-0.000000,0.000000,0.000000,-60.342844,-13.458708,1.595809,-0.292236,0.000271,0.756540,-0.188253,0.928633,0
537816216910775,-3.568699,1.230354,5.460609,-0.917457,-0.151441,0.000002,0.000000,0.000000,0.000000,0.000000,0.000000,0.000000,-0.000000,-0.000000,0.000000,0.002848,-0.000000,0.000000,0.000000,-60.342820,-13.458698,1.595814,-0.292238,0.000271,0.756540,-0.188253,0.928633,0
537816217906438,-3.568698,1.230354,5.460606,-0.917460,-0.151440,0.000000,0.000000,0.000000,0.000000,0.000000,0.000000,0.000000,-0.000000,-0.000000,-0.002377,-0.002848,-0.000000,0.000000,0.000000,-60.342785,-13.458663,1.595799,-0.292234,0.000271,0.756540,-0.188253,0.928633,0
537816218907730,-3.568699,1.230354,5.460606,-0.917456,-0.151438,0.000001,0.000000,0.000000,0.000000,0.000000,0.000000,0.000000,-0.000000,-0.000000,0.000000,0.003797,-0.000000,0.000000,0.000000,-60.342775,-13.458652,1.595804,-0.292243,0.000271,0.756540,-0.188253,0.928633,0
537816219880004,-3.568698,1.230355,5.460607,-0.917462,-0.151440,-0.000001,0.000000,0.000000,0.000000,0.000000,0.000000,0.000000,-0.000000,-0.000000,0.000000,-0.005695,-0.000000,0.000000,0.000000,-60.342837,-13.458701,1.595801,-0.292235,0.000271,0.756540,-0.188253,0.928633,0
537816220880293,-3.568699,1.230355,5.460607,-0.917458,-0.151437,0.000003,0.000000,0.000000,0.000000,0.000000,0.000000,0.000000,-0.000000,-0.000000,0.000000,0.003797,-0.000000,0.003797,-0.000000,-60.342828,-13.458692,1.595806,-0.292246,0.000271,0.756540,-0.188253,0.928633,0
537816221880827,-3.568699,1.230355,5.460606,-0.917460,-0.151440,0.000002,0.000000,0.000000,0.000000,0.000000,0.000000,0.000000,-0.000000,-0.000000,0.000000,-0.000000,-0.002848,0.000000,0.000000,-60.342799,-13.458663,1.595799,-0.292234,0.000271,0.756540,-0.188253,0.928633,0
537816222905904,-3.568698,1.230354,5.460606,-0.917456,-0.151441,0.000000,0.000000,0.000000,0.000000,0.000000,0.000000,0.000000,-0.000000,-0.000000,0.000000,0.003797,-0.000000,0.000000,0.000000,-60.342770,-13.458647,1.595807,-0.292235,0.000271,0.756540,-0.188253,0.928633,0
537816223906851,-3.568699,1.230355,5.460606,-0.917458,-0.151440,0.000001,0.000000,0.000000,0.000000,0.000000,0.000000,0.000000,-0.000000,-0.000000,0.000000,-0.000000,-0.000000,0.000000,0.000000,-60.342807,-13.458672,1.595805,-0.292237,0.000271,0.756540,-0.188253,0.928633,0
537816224907275,-3.568699,1.230353,5.460606,-0.917458,-0.151439,0.000002,0.000000,0.000000,0.000000,0.000000,0.000000,0.000000,-0.000000,-0.000000,0.000000,-0.000000,-0.000000,0.000000,0.000000,-60.342736,-13.458627,1.595796,-0.292236,0.000271,0.756540,-0.188253,0.928633,0
537816225907396,-3.568699,1.230354,5.460607,-0.917459,-0.151440,-0.000002,0.000000,0.000000,0.000000,0.000000,0.000000,0.000000,-0.000000,-0.000000,0.000000,-0.000000,-0.000000,0.000000,0.000000,-60.342797,-13.458675,1.595804,-0.292236,0.000271,0.756540,-0.188253,0.928633,0
537816226919961,-3.568699,1.230356,5.460607,-0.917460,-0.151441,0.000001,0.000000,0.000000,0.000000,0.000000,0.000000,0.000000,-0.000000,0.002377,0.000000,-0.000000,-0.000000,0.002848,0.000000,-60.342886,-13.458724,1.595812,-0.292237,0.000271,0.756540,-0.188253,0.928633,0
537816227906133,-3.568697,1.230355,5.460607,-0.917459,-0.151442,0.000001,0.000000,0.000000,0.000000,0.000000,0.000000,0.000000,0.002377,-0.000000,0.000000,-0.000000,-0.002848,0.000000,0.000000,-60.342823,-13.458687,1.595808,-0.292233,0.000271,0.756540,-0.188253,0.928633,0
537816228906256,-3.568699,1.230355,5.460607,-0.917460,-0.151441,0.000001,0.000000,0.000000,0.000000,0.000000,0.000000,0.000000,-0.000000,-0.000000,0.000000,-0.000000,-0.000000,0.000000,0.000000,-60.342828,-13.458693,1.595806,-0.292234,0.000271,0.756540,-0.188253,0.928633,0
537816229905840,-3.568700,1.230353,5.460608,-0.917456,-0.151439,0.000002,0.000000,0.000000,0.000000,0.000000,0.000000,0.000000,-0.003169,-0.000000,0.000000,0.003797,-0.000000,0.000000,-0.000000,-60.342775,-13.458666,1.595808,-0.292242,0.000271,0.756540,-0.188253,0.928633,0
537816230904550,-3.568698,1.230355,5.460606,-0.917460,-0.151440,0.000000,0.000000,0.000000,0.000000,0.000000,0.000000,0.000000,-0.000000,-0.000000,-0.002377,-0.000000,-0.000000,0.000000,0.000000,-60.342814,-13.458679,1.595802,-0.292236,0.000271,0.756540,-0.188253,0.928633,0
537816231879534,-3.568699,1.230355,5.460606,-0.917458,-0.151439,0.000001,0.000000,0.000000,0.000000,0.000000,0.000000,0.000000,-0.000000,-0.000000,0.000000,-0.000000,-0.000000,0.000000,0.000000,-60.342809,-13.458673,1.595805,-0.292240,0.000271,0.756540,-0.188253,0.928633,0
537816232906432,-3.568697,1.230353,5.460606,-0.917457,-0.151443,0.000000,0.000000,0.000000,0.000000,0.000000,0.000000,0.000000,0.002377,-0.000000,0.000000,-0.000000,-0.003797,0.000000,0.000000,-60.342741,-13.458632,1.595804,-0.292228,0.000271,0.756540,-0.188253,0.928633,0
537816233904856,-3.568699,1.230353,5.460607,-0.917459,-0.151443,0.000001,0.000000,0.000000,0.000000,0.000000,0.000000,0.000000,-0.000000,-0.000000,0.000000,-0.000000,-0.000000,0.000000,0.000000,-60.342764,-13.458655,1.595803,-0.292227,0.000271,0.756540,-0.188253,0.928633,0
537816234880980,-3.568699,1.230353,5.460609,-0.917458,-0.151440,0.000001,0.000000,0.000000,0.000000,0.000000,0.000000,0.000000,-0.000000,-0.000000,0.000000,-0.000000,0.002848,0.000000,0.000000,-60.342796,-13.458687,1.595808,-0.292239,0.000271,0.756540,-0.188253,0.928633,0
537816235879716,-3.568699,1.230355,5.460607,-0.917457,-0.151438,0.000002,0.000000,0.000000,0.000000,0.000000,0.000000,0.000000,-0.000000,-0.000000,0.000000,-0.000000,-0.000000,0.000000,0.000000,-60.342823,-13.458687,1.595808,-0.292245,0.000271,0.756540,-0.188253,0.928633,0
537816236880011,-3.568698,1.230355,5.460605,-0.917458,-0.151437,0.000001,0.000000,0.000000,0.000000,0.000000,0.000000,0.000000,-0.000000,-0.000000,-0.002377,-0.000000,-0.000000,0.000000,0.000000,-60.342781,-13.458645,1.595797,-0.292242,0.000271,0.756540,-0.188253,0.928633,0
537816237905299,-3.568697,1.230355,5.460608,-0.917458,-0.151441,0.000001,0.000000,0.000000,0.000000,0.000000,0.000000,0.000000,0.002377,-0.000000,0.003169,-0.000000,-0.003797,0.000000,0.000000,-60.342837,-13.458701,1.595812,-0.292237,0.000271,0.756540,-0.188253,0.928633,0
537816238880696,-3.568698,1.230356,5.460606,-0.917458,-0.151439,0.000001,0.000000,0.000000,0.000000,0.000000,0.000000,0.000000,-0.000000,-0.000000,0.000000,-0.000000,-0.000000,0.000000,-0.000000,-60.342838,-13.458689,1.595807,-0.292241,0.000271,0.756540,-0.188253,0.928633,0
537816239881012,-3.568698,1.230354,5.460607,-0.917461,-0.151441,-0.000001,0.000000,0.000000,0.000000,0.000000,0.000000,0.000000,-0.000000,-0.000000,0.000000,-0.002848,-0.000000,0.000000,0.000000,-60.342803,-13.458680,1.595801,-0.292232,0.000271,0.756540,-0.188253,0.928633,0
537816240899078,-3.568699,1.230353,5.460608,-0.917456,-0.151442,-0.000001,0.000000,0.000000,0.000000,0.000000,0.000000,0.000000,-0.000000,-0.000000,0.000000,0.004746,-0.000000,0.000000,0.000000,-60.342770,-13.458661,1.595811,-0.292234,0.000271,0.756540,-0.188253,0.928633,0
537816241884827,-3.568699,1.230355,5.460607,-0.917456,-0.151440,0.000001,0.000000,0.000000,0.000000,0.000000,0.000000,0.000000,-0.000000,-0.000000,0.000000,-0.000000,-0.000000,0.000000,0.000000,-60.342816,-13.458680,1.595812,-0.292240,0.000271,0.756540,-0.188253,0.928633,0
537816242908581,-3.568699,1.230352,5.460606,-0.917457,-0.151441,0.000001,0.000000,0.000000,0.000000,0.000000,0.000000,0.000000,-0.000000,-0.002377,0.000000,-0.000000,-0.000000,0.000000,0.000000,-60.342716,-13.458620,1.595799,-0.292231,0.000271,0.756540,-0.188253,0.928633,0
537816243880376,-3.568700,1.230354,5.460607,-0.917461,-0.151440,0.000000,0.000000,0.000000,0.000000,0.000000,0.000000,0.000000,-0.000000,-0.000000,0.000000,-0.003797,-0.000000,0.002848,0.000000,-60.342804,-13.458682,1.595800,-0.292235,0.000271,0.756540,-0.188253,0.928633,0
537816244906780,-3.568697,1.230355,5.460607,-0.917461,-0.151440,0.000001,0.000000,0.000000,0.000000,0.000000,0.000000,0.000000,0.003169,-0.000000,0.000000,-0.000000,-0.000000,0.000000,0.000000,-60.342833,-13.458698,1.595803,-0.292236,0.000271,0.756540,-0.188253,0.928633,0
537816245915797,-3.568699,1.230355,5.460608,-0.917459,-0.151441,0.000002,0.000000,0.000000,0.000000,0.000000,0.000000,0.000000,-0.000000,-0.000000,0.000000,-0.000000,-0.000000,0.000000,-0.000000,-60.342840,-13.458705,1.595810,-0.292237,0.000271,0.756540,-0.188253,0.928633,0
537816246910101,-3.568698,1.230353,5.460607,-0.917456,-0.151440,0.000000,0.000000,0.000000,0.000000,0.000000,0.000000,0.000000,-0.000000,-0.000000,0.000000,0.002848,-0.000000,-0.002848,0.000000,-60.342758,-13.458649,1.595806,-0.292238,0.000271,0.756540,-0.188253,0.928633,0
537816247907963,-3.568699,1.230354,5.460609,-0.917458,-0.151438,0.000002,0.000000,0.000000,0.000000,0.000000,0.000000,0.000000,-0.000000,-0.000000,0.000000,-0.000000,-0.000000,0.000000,-0.000000,-60.342828,-13.458706,1.595810,-0.292245,0.000271,0.756540,-0.188253,0.928633,0
537816248906322,-3.568699,1.230355,5.460609,-0.917459,-0.151440,-0.000002,0.000000,0.000000,0.000000,0.000000,0.000000,0.000000,-0.000000,-0.000000,0.000000,-0.000000,-0.000000,-0.003797,0.000000,-60.342857,-13.458722,1.595812,-0.292241,0.000271,0.756540,-0.188253,0.928633,0
537816249880249,-3.568699,1.230355,5.460606,-0.917460,-0.151440,0.000001,0.000000,0.000000,0.000000,0.000000,0.000000,0.000000,-0.000000,-0.000000,-0.002377,-0.000000,-0.000000,0.002848,0.000000,-60.342814,-13.458679,1.595802,-0.292236,0.000271,0.756540,-0.188253,0.928633,0
537816250879941,-3.568699,1.230356,5.460606,-0.917457,-0.151439,0.000001,0.000000,0.000000,0.000000,0.000000,0.000000,0.000000,-0.000000,-0.000000,0.000000,0.002848,-0.000000,0.000000,-0.000000,-60.342834,-13.458685,1.595809,-0.292242,0.000271,0.756540,-0.188253,0.928633,0
537816251880755,-3.568698,1.230354,5.460606,-0.917457,-0.151441,0.000001,0.000000,0.000000,0.000000,0.000000,0.000000,0.000000,-0.000000,-0.000000,0.000000,-0.000000,-0.000000,0.000000,0.000000,-60.342773,-13.458651,1.595805,-0.292234,0.000271,0.756540,-0.188253,0.928633,0
537816252880268,-3.568699,1.230356,5.460606,-0.917458,-0.151441,0.000001,0.000000,0.000000,0.000000,0.000000,0.000000,0.000000,-0.000000,-0.000000,0.000000,-0.000000,-0.000000,0.000000,-0.000000,-60.342834,-13.458686,1.595809,-0.292236,0.000271,0.756540,-0.188253,0.928633,0
537816253905537,-3.568699,1.230355,5.460606,-0.917459,-0.151441,0.000001,0.000000,0.000000,0.000000,0.000000,0.000000,0.000000,-0.000000,-0.000000,0.000000,-0.000000,-0.000000,0.000000,-0.000000,-60.342809,-13.458673,1.595805,-0.292234,0.000271,0.756540,-0.188253,0.928633,0
537816254913041,-3.568699,1.230354,5.460606,-0.917457,-0.151438,0.000001,0.000000,0.000000,0.000000,0.000000,0.000000,0.000000,-0.000000,-0.000000,0.000000,-0.000000,0.002848,0.000000,0.000000,-60.342778,-13.458656,1.595803,-0.292242,0.000271,0.756540,-0.188253,0.928633,0
537816255910040,-3.568700,1.230354,5.460606,-0.917460,-0.151440,-0.000001,0.000000,0.000000,0.000000,0.000000,0.000000,0.000000,-0.000000,-0.000000,0.000000,-0.002848,-0.000000,0.000000,0.000000,-60.342785,-13.458663,1.595799,-0.292234,0.000271,0.756540,-0.188253,0.928633,0
537816256910698,-3.568698,1.230353,5.460606,-0.917460,-0.151442,0.000000,0.000000,0.000000,0.000000,0.000000,0.000000,0.000000,-0.000000,-0.000000,0.000000,-0.000000,-0.000000,0.000000,-0.000000,-60.342738,-13.458629,1.595795,-0.292226,0.000271,0.756540,-0.188253,0.928633,0
537816257905719,-3.568698,1.230354,5.460605,-0.917457,-0.151438,0.000001,0.000000,0.000000,0.000000,0.000000,0.000000,0.000000,-0.000000,-0.000000,0.000000,0.002848,0.003797,0.000000,0.000000,-60.342747,-13.458625,1.595797,-0.292239,0.000271,0.756540,-0.188253,0.928633,0
537816258903810,-3.568699,1.230356,5.460606,-0.917461,-0.151440,0.000000,0.000000,0.000000,0.000000,0.000000,0.000000,0.000000,-0.000000,-0.000000,0.000000,-0.003797,-0.000000,0.000000,0.000000,-60.342846,-13.458698,1.595803,-0.292236,0.000271,0.756540,-0.188253,0.928633,0
537816259912563,-3.568699,1.230354,5.460607,-0.917459,-0.151438,0.000003,0.000000,0.000000,0.000000,0.000000,0.000000,0.000000,-0.000000,-0.000000,0.000000,-0.000000,-0.000000,0.002848,0.000000,-60.342801,-13.458678,1.595802,-0.292242,0.000271,0.756540,-0.188253,0.928633,0
537816260908109,-3.568698,1.230356,5.460608,-0.917460,-0.151440,0.000000,0.000000,0.000000,0.000000,0.000000,0.000000,0.000000,-0.000000,0.002377,0.000000,-0.000000,-0.000000,-0.002848,0.000000,-60.342903,-13.458741,1.595814,-0.292241,0.000271,0.756540,-0.188253,0.928633,0
537816261881049,-3.568699,1.230355,5.460607,-0.917458,-0.151439,0.000001,0.000000,0.000000,0.000000,0.000000,0.000000,0.000000,-0.000000,-0.000000,0.000000,-0.000000,-0.000000,0.000000,-0.000000,-60.342824,-13.458689,1.595807,-0.292241,0.000271,0.756540,-0.188253,0.928633,0
537816262905164,-3.568698,1.230356,5.460607,-0.917460,-0.151440,0.000001,0.000000,0.000000,0.000000,0.000000,0.000000,0.000000,-0.000000,-0.000000,0.000000,-0.000000,-0.000000,0.000000,0.000000,-60.342887,-13.458725,1.595811,-0.292240,0.000271,0.756540,-0.188253,0.928633,0
537816263880077,-3.568698,1.230353,5.460608,-0.917461,-0.151440,0.000000,0.000000,0.000000,0.000000,0.000000,0.000000,0.000000,-0.000000,-0.003169,0.000000,-0.000000,-0.000000,0.000000,-0.000000,-60.342791,-13.458682,1.595800,-0.292235,0.000271,0.756540,-0.188253,0.928633,0
537816264879700,-3.568698,1.230355,5.460608,-0.917460,-0.151441,0.000001,0.000000,0.000000,0.000000,0.000000,0.000000,0.000000,-0.000000,-0.000000,0.000000,-0.000000,-0.000000,0.000000,-0.000000,-60.342844,-13.458708,1.595809,-0.292236,0.000271,0.756540,-0.188253,0.928633,0
537816265880027,-3.568699,1.230356,5.460606,-0.917459,-0.151440,0.000002,0.000000,0.000000,0.000000,0.000000,0.000000,0.000000,-0.000000,-0.000000,0.000000,-0.000000,-0.000000,0.000000,0.000000,-60.342868,-13.458706,1.595810,-0.292239,0.000271,0.756540,-0.188253,0.928633,0
537816266910581,-3.568699,1.230356,5.460606,-0.917459,-0.151440,0.000002,0.000000,0.000000,0.000000,0.000000,0.000000,0.000000,-0.000000,-0.000000,0.000000,-0.000000,-0.000000,0.000000,0.000000,-60.342839,-13.458691,1.595807,-0.292238,0.000271,0.756540,-0.188253,0.928633,0
537816267905561,-3.568698,1.230356,5.460607,-0.917459,-0.151442,-0.000001,0.000000,0.000000,0.000000,0.000000,0.000000,0.000000,-0.000000,-0.000000,0.000000,-0.000000,-0.000000,-0.002848,0.000000,-60.342852,-13.458703,1.595811,-0.292234,0.000271,0.756540,-0.188253,0.928633,0
537816268908693,-3.568699,1.230356,5.460607,-0.917457,-0.151440,0.000000,0.000000,0.000000,0.000000,0.000000,0.000000,0.000000,-0.000000,-0.000000,0.000000,-0.000000,-0.000000,0.000000,-0.000000,-60.342848,-13.458699,1.595813,-0.292241,0.000271,0.756540,-0.188253,0.928633,0
537816269880019,-3.568698,1.230356,5.460607,-0.917459,-0.151440,0.000000,0.000000,0.000000,0.000000,0.000000,0.000000,0.000000,-0.000000,-0.000000,0.000000,-0.000000,-0.000000,0.000000,0.000000,-60.342884,-13.458722,1.595812,-0.292241,0.000271,0.756540,-0.188253,0.928633,0
537816270880483,-3.568699,1.230355,5.460608,-0.917460,-0.151440,0.000000,0.000000,0.000000,0.000000,0.000000,0.000000,0.000000,-0.000000,-0.000000,0.000000,-0.000000,-0.000000,0.000000,0.000000,-60.342845,-13.458710,1.595808,-0.292238,0.000271,0.756540,-0.188253,0.928633,0
537816271879945,-3.568699,1.230356,5.460608,-0.917459,-0.151440,0.000003,0.000000,0.000000,0.000000,0.000000,0.000000,0.000000,-0.000000,-0.000000,0.000000,-0.000000,-0.000000,0.002848,-0.000000,-60.342899,-13.458737,1.595815,-0.292242,0.000271,0.756540,-0.188253,0.928633,0
537816272904984,-3.568699,1.230355,5.460607,-0.917460,-0.151441,0.000002,0.000000,0.000000,0.000000,0.000000,0.000000,0.000000,-0.000000,-0.000000,0.000000,-0.000000,-0.000000,0.000000,0.000000,-60.342828,-13.458693,1.595806,-0.292234,0.000271,0.756540,-0.188253,0.928633,0
537816273909871,-3.568701,1.230356,5.460608,-0.917459,-0.151440,-0.000001,0.000000,0.000000,0.000000,0.000000,0.000000,0.000000,-0.002377,-0.000000,0.000000,-0.000000,-0.000000,-0.002848,0.000000,-60.342871,-13.458722,1.595812,-0.292241,0.000271,0.756540,-0.188253,0.928633,0
537816274909331,-3.568699,1.230357,5.460608,-0.917459,-0.151441,0.000002,0.000000,0.000000,0.000000,0.000000,0.000000,0.000000,0.002377,-0.000000,0.000000,-0.000000,-0.000000,0.002848,-0.000000,-60.342926,-13.458751,1.595819,-0.292241,0.000271,0.756540,-0.188253,0.928633,0
537816275884762,-3.568698,1.230358,5.460607,-0.917461,-0.151440,-0.000001,0.000000,0.000000,0.000000,0.000000,0.000000,0.000000,-0.000000,-0.000000,0.000000,-0.000000,-0.000000,0.000000,0.000000,-60.342948,-13.458760,1.595815,-0.292242,0.000271,0.756540,-0.188253,0.928633,0
537816276905880,-3.568699,1.230355,5.460606,-0.917456,-0.151442,0.000001,0.000000,0.000000,0.000000,0.000000,0.000000,0.000000,-0.000000,-0.003169,0.000000,0.004746,-0.000000,0.000000,-0.000000,-60.342781,-13.458646,1.595808,-0.292232,0.000271,0.756540,-0.188253,0.928633,0
537816277881722,-3.568699,1.230356,5.460606,-0.917461,-0.151438,0.000000,0.000000,0.000000,0.000000,0.000000,0.000000,0.000000,-0.000000,-0.000000,0.000000,-0.004746,0.003797,0.000000,0.000000,-60.342850,-13.458701,1.595801,-0.292241,0.000271,0.756540,-0.188253,0.928633,0
537816278880752,-3.568699,1.230356,5.460608,-0.917460,-0.151440,0.000001,0.000000,0.000000,0.000000,0.000000,0.000000,0.000000,-0.000000,-0.000000,0.000000,-0.000000,-0.000000,0.000000,0.000000,-60.342874,-13.458725,1.595811,-0.292240,0.000271,0.756540,-0.188253,0.928633,0
537816279880545,-3.568699,1.230356,5.460606,-0.917457,-0.151441,0.000003,0.000000,0.000000,0.000000,0.000000,0.000000,0.000000,-0.000000,-0.000000,0.000000,0.002848,-0.000000,0.000000,0.000000,-60.342859,-13.458698,1.595814,-0.292238,0.000271,0.756540,-0.188253,0.928633,0
537816280899744,-3.568699,1.230356,5.460610,-0.917458,-0.151442,-0.000002,0.000000,0.000000,0.000000,0.000000,0.000000,0.000000,-0.000000,-0.000000,0.003169,-0.000000,-0.000000,0.000000,-0.000000,-60.342924,-13.458762,1.595825,-0.292240,0.000271,0.756540,-0.188253,0.928633,0
537816281880194,-3.568698,1.230356,5.460608,-0.917458,-0.151439,0.000002,0.000000,0.000000,0.000000,0.000000,0.000000,0.000000,-0.000000,-0.000000,0.000000,-0.000000,0.002848,0.003797,0.000000,-60.342869,-13.458720,1.595813,-0.292244,0.000271,0.756540,-0.188253,0.928633,0
537816282908582,-3.568697,1.230356,5.460609,-0.917458,-0.151440,0.000000,0.000000,0.000000,0.000000,0.000000,0.000000,0.000000,-0.000000,-0.000000,0.002377,-0.000000,-0.000000,0.000000,-0.000000,-60.342911,-13.458750,1.595820,-0.292244,0.000271,0.756540,-0.188253,0.928633,0
537816283881308,-3.568699,1.230356,5.460606,-0.917458,-0.151440,-0.000002,0.000000,0.000000,0.000000,0.000000,0.000000,0.000000,-0.000000,-0.000000,0.000000,-0.000000,-0.000000,-0.002848,0.000000,-60.342836,-13.458687,1.595808,-0.292239,0.000271,0.756540,-0.188253,0.928633,0
537816284880331,-3.568699,1.230355,5.460607,-0.917460,-0.151440,-0.000001,0.000000,0.000000,0.000000,0.000000,0.000000,0.000000,-0.000000,-0.000000,0.000000,-0.000000,-0.000000,-0.002848,0.000000,-60.342830,-13.458694,1.595805,-0.292237,0.000271,0.756540,-0.188253,0.928633,0
537816285887080,-3.568699,1.230355,5.460609,-0.917459,-0.151440,-0.000002,0.000000,0.000000,0.000000,0.000000,0.000000,0.000000,-0.000000,-0.000000,0.000000,-0.000000,-0.000000,0.000000,0.000000,-60.342857,-13.458722,1.595812,-0.292241,0.000271,0.756540,-0.188253,0.928633,0
537816286908035,-3.568700,1.230356,5.460607,-0.917461,-0.151440,0.000000,0.000000,0.000000,0.000000,0.000000,0.000000,0.000000,-0.000000,-0.000000,0.000000,-0.000000,-0.000000,0.000000,0.000000,-60.342891,-13.458729,1.595809,-0.292239,0.000271,0.756540,-0.188253,0.928633,0
537816287905327,-3.568699,1.230355,5.460606,-0.917458,-0.151440,0.000001,0.000000,0.000000,0.000000,0.000000,0.000000,0.000000,-0.000000,-0.000000,0.000000,0.002848,-0.000000,0.000000,0.000000,-60.342807,-13.458672,1.595805,-0.292237,0.000271,0.756540,-0.188253,0.928633,0
537816288904663,-3.568699,1.230356,5.460608,-0.917460,-0.151439,-0.000001,0.000000,0.000000,0.000000,0.000000,0.000000,0.000000,-0.000000,-0.000000,0.000000,-0.000000,-0.000000,0.000000,-0.000000,-60.342876,-13.458727,1.595810,-0.292242,0.000271,0.756540,-0.188253,0.928633,0
537816289906577,-3.568698,1.230356,5.460607,-0.917459,-0.151437,0.000000,0.000000,0.000000,0.000000,0.000000,0.000000,0.000000,-0.000000,-0.000000,0.000000,-0.000000,-0.000000,0.000000,0.000000,-60.342860,-13.458711,1.595807,-0.292247,0.000271,0.756540,-0.188253,0.928633,0
537816290904592,-3.568699,1.230356,5.460609,-0.917459,-0.151440,0.000001,0.000000,0.000000,0.000000,0.000000,0.000000,0.000000,-0.000000,-0.000000,0.000000,-0.000000,-0.002848,0.000000,0.000000,-60.342915,-13.458753,1.595818,-0.292243,0.000271,0.756540,-0.188253,0.928633,0
537816291880038,-3.568698,1.230355,5.460607,-0.917460,-0.151439,-0.000003,0.000000,0.000000,0.000000,0.000000,0.000000,0.000000,-0.000000,-0.000000,0.000000,-0.000000,-0.000000,-0.003797,-0.000000,-60.342831,-13.458696,1.595804,-0.292240,0.000271,0.756540,-0.188253,0.928633,0
537816292879881,-3.568698,1.230355,5.460607,-0.917461,-0.151441,0.000001,0.000000,0.000000,0.000000,0.000000,0.000000,0.000000,-0.000000,-0.000000,0.000000,-0.000000,-0.000000,0.003797,-0.000000,-60.342832,-13.458696,1.595804,-0.292234,0.000271,0.756540,-0.188253,0.928633,0
537816293879642,-3.568699,1.230356,5.460606,-0.917458,-0.151440,-0.000001,0.000000,0.000000,0.000000,0.000000,0.000000,0.000000,-0.000000,-0.000000,0.000000,0.002848,-0.000000,0.000000,0.000000,-60.342820,-13.458672,1.595805,-0.292237,0.000271,0.756540,-0.188253,0.928633,0
537816294894973,-3.568698,1.230356,5.460609,-0.917461,-0.151441,0.000000,0.000000,0.000000,0.000000,0.000000,0.000000,0.000000,0.002377,-0.000000,0.003169,-0.002848,-0.000000,0.000000,0.000000,-60.342920,-13.458758,1.595816,-0.292239,0.000271,0.756540,-0.188253,0.928633,0
537816295905291,-3.568701,1.230355,5.460607,-0.917457,-0.151443,0.000002,0.000000,0.000000,0.000000,0.000000,0.000000,0.000000,-0.003169,-0.000000,0.000000,0.003797,-0.000000,0.000000,-0.000000,-60.342814,-13.458679,1.595813,-0.292232,0.000271,0.756540,-0.188253,0.928633,0
537816296908674,-3.568699,1.230356,5.460608,-0.917459,-0.151438,-0.000001,0.000000,0.000000,0.000000,0.000000,0.000000,0.000000,0.002377,-0.000000,0.000000,-0.000000,0.004746,-0.002848,0.000000,-60.342874,-13.458725,1.595811,-0.292246,0.000271,0.756540,-0.188253,0.928633,0
537816297880497,-3.568698,1.230355,5.460607,-0.917458,-0.151440,0.000001,0.000000,0.000000,0.000000,0.000000,0.000000,0.000000,-0.000000,-0.000000,0.000000,-0.000000,-0.000000,0.000000,-0.000000,-60.342823,-13.458687,1.595808,-0.292239,0.000271,0.756540,-0.188253,0.928633,0
537816298904201,-3.568699,1.230354,5.460606,-0.917459,-0.151441,0.000001,0.000000,0.000000,0.000000,0.000000,0.000000,0.000000,-0.000000,-0.000000,0.000000,-0.000000,-0.000000,0.000000,0.000000,-60.342780,-13.458658,1.595802,-0.292232,0.000271,0.756540,-0.188253,0.928633,0
537816299904637,-3.568700,1.230355,5.460606,-0.917460,-0.151441,-0.000001,0.000000,0.000000,0.000000,0.000000,0.000000,0.000000,-0.000000,-0.000000,0.000000,-0.000000,-0.000000,0.000000,0.000000,-60.342812,-13.458677,1.595803,-0.292233,0.000271,0.756540,-0.188253,0.928633,0
537816300904214,-3.568699,1.230356,5.460608,-0.917457,-0.151442,0.000003,0.000000,0.000000,0.000000,0.000000,0.000000,0.000000,-0.000000,-0.000000,0.000000,0.002848,-0.000000,0.000000,-0.000000,-60.342860,-13.458712,1.595818,-0.292237,0.000271,0.756540,-0.188253,0.928633,0
537816301879820,-3.568700,1.230356,5.460608,-0.917457,-0.151442,0.000000,0.000000,0.000000,0.000000,0.000000,0.000000,0.000000,-0.000000,-0.000000,0.000000,-0.000000,-0.000000,0.000000,-0.000000,-60.342860,-13.458712,1.595818,-0.292237,0.000271,0.756540,-0.188253,0.928633,0
537816302907804,-3.568699,1.230356,5.460608,-0.917458,-0.151441,0.000000,0.000000,0.000000,0.000000,0.000000,0.000000,0.000000,-0.000000,-0.000000,0.000000,-0.000000,-0.000000,0.000000,0.000000,-60.342894,-13.458732,1.595818,-0.292240,0.000271,0.756540,-0.188253,0.928633,0
537816303898728,-3.568699,1.230356,5.460607,-0.917458,-0.151441,0.000002,0.000000,0.000000,0.000000,0.000000,0.000000,0.000000,-0.000000,-0.000000,0.000000,-0.000000,-0.000000,0.000000,0.000000,-60.342850,-13.458701,1.595812,-0.292237,0.000271,0.756540,-0.188253,0.928633,0
537816304894397,-3.568699,1.230356,5.460608,-0.917457,-0.151442,-0.000001,0.000000,0.000000,0.000000,0.000000,0.000000,0.000000,-0.000000,-0.000000,0.000000,-0.000000,-0.000000,0.000000,-0.000000,-60.342860,-13.458712,1.595818,-0.292237,0.000271,0.756540,-0.188253,0.928633,0
537816305889024,-3.568699,1.230356,5.460606,-0.917459,-0.151440,-0.000001,0.000000,0.000000,0.000000,0.000000,0.000000,0.000000,-0.000000,-0.000000,0.000000,-0.000000,-0.000000,0.000000,0.000000,-60.342839,-13.458691,1.595807,-0.292238,0.000271,0.756540,-0.188253,0.928633,0
537816306880736,-3.568699,1.230356,5.460607,-0.917459,-0.151440,-0.000001,0.000000,0.000000,0.000000,0.000000,0.000000,0.000000,-0.000000,-0.000000,0.000000,-0.000000,-0.000000,0.000000,0.000000,-60.342855,-13.458706,1.595810,-0.292239,0.000271,0.756540,-0.188253,0.928633,0
537816307909911,-3.568699,1.230356,5.460606,-0.917458,-0.151440,0.000001,0.000000,0.000000,0.000000,0.000000,0.000000,0.000000,-0.000000,-0.000000,0.000000,-0.000000,-0.000000,0.000000,-0.000000,-60.342849,-13.458687,1.595808,-0.292239,0.000271,0.756540,-0.188253,0.928633,0
537816308908289,-3.568698,1.230356,5.460609,-0.917457,-0.151442,-0.000001,0.000000,0.000000,0.000000,0.000000,0.000000,0.000000,-0.000000,-0.000000,0.003169,-0.000000,-0.000000,0.000000,-0.000000,-60.342904,-13.458743,1.595823,-0.292240,0.000271,0.756540,-0.188253,0.928633,0
537816309910217,-3.568699,1.230357,5.460606,-0.917458,-0.151439,0.000002,0.000000,0.000000,0.000000,0.000000,0.000000,0.000000,-0.000000,-0.000000,-0.002377,-0.000000,0.002848,0.000000,0.000000,-60.342895,-13.458720,1.595813,-0.292244,0.000271,0.756540,-0.188253,0.928633,0
537816310881650,-3.568699,1.230356,5.460607,-0.917459,-0.151442,-0.000001,0.000000,0.000000,0.000000,0.000000,0.000000,0.000000,-0.000000,-0.000000,0.000000,-0.000000,-0.000000,0.000000,-0.000000,-60.342880,-13.458719,1.595814,-0.292235,0.000271,0.756540,-0.188253,0.928633,0
537816311909871,-3.568699,1.230356,5.460609,-0.917456,-0.151441,0.000000,0.000000,0.000000,0.000000,0.000000,0.000000,0.000000,-0.000000,-0.000000,0.000000,0.002848,-0.000000,0.000000,0.000000,-60.342874,-13.458725,1.595821,-0.292242,0.000271,0.756540,-0.188253,0.928633,0
537816312882712,-3.568699,1.230355,5.460606,-0.917458,-0.151439,0.000002,0.000000,0.000000,0.000000,0.000000,0.000000,0.000000,-0.000000,-0.000000,-0.003169,-0.000000,-0.000000,0.000000,-0.000000,-60.342793,-13.458658,1.595802,-0.292238,0.000271,0.756540,-0.188253,0.928633,0
537816313910054,-3.568697,1.230356,5.460607,-0.917457,-0.151441,0.000001,0.000000,0.000000,0.000000,0.000000,0.000000,0.000000,-0.000000,-0.000000,0.000000,-0.000000,-0.000000,0.000000,0.000000,-60.342875,-13.458713,1.595817,-0.292240,0.000271,0.756540,-0.188253,0.928633,0
537816314908134,-3.568698,1.230354,5.460607,-0.917459,-0.151440,0.000001,0.000000,0.000000,0.000000,0.000000,0.000000,0.000000,-0.000000,-0.002377,0.000000,-0.000000,-0.000000,0.000000,0.000000,-60.342797,-13.458675,1.595804,-0.292236,0.000271,0.756540,-0.188253,0.928633,0
537816315909032,-3.568699,1.230356,5.460607,-0.917458,-0.151440,-0.000002,0.000000,0.000000,0.000000,0.000000,0.000000,0.000000,-0.000000,-0.000000,0.000000,-0.000000,-0.000000,0.000000,-0.000000,-60.342851,-13.458703,1.595811,-0.292240,0.000271,0.756540,-0.188253,0.928633,0
537816316909111,-3.568696,1.230358,5.460607,-0.917459,-0.151442,0.000001,0.000000,0.000000,0.000000,0.000000,0.000000,0.000000,0.003169,-0.000000,0.000000,-0.000000,-0.000000,0.000000,0.000000,-60.342938,-13.458750,1.595820,-0.292238,0.000271,0.756540,-0.188253,0.928633,0
537816317905562,-3.568698,1.230356,5.460609,-0.917457,-0.151440,0.000001,0.000000,0.000000,0.000000,0.000000,0.000000,0.000000,-0.000000,-0.000000,0.000000,-0.000000,-0.000000,0.000000,-0.000000,-60.342908,-13.458746,1.595822,-0.292245,0.000271,0.756540,-0.188253,0.928633,0
537816318904058,-3.568698,1.230356,5.460606,-0.917460,-0.151442,-0.000002,0.000000,0.000000,0.000000,0.000000,0.000000,0.000000,-0.000000,-0.000000,-0.003169,-0.002848,-0.000000,-0.002848,0.000000,-60.342853,-13.458691,1.595807,-0.292232,0.000271,0.756540,-0.188253,0.928633,0
537816319907151,-3.568699,1.230356,5.460608,-0.917459,-0.151442,0.000002,0.000000,0.000000,0.000000,0.000000,0.000000,0.000000,-0.000000,-0.000000,0.002377,-0.000000,-0.000000,0.003797,-0.000000,-60.342867,-13.458719,1.595814,-0.292235,0.000271,0.756540,-0.188253,0.928633,0
537816320880928,-3.568696,1.230358,5.460607,-0.917456,-0.151441,-0.000001,0.000000,0.000000,0.000000,0.000000,0.000000,0.000000,0.003169,0.002377,0.000000,0.002848,-0.000000,-0.002848,-0.000000,-60.342929,-13.458741,1.595824,-0.292243,0.000271,0.756540,-0.188253,0.928633,0
537816321880457,-3.568699,1.230358,5.460608,-0.917458,-0.151442,0.000002,0.000000,0.000000,0.000000,0.000000,0.000000,0.000000,-0.000000,-0.000000,0.000000,-0.000000,-0.000000,0.002848,-0.000000,-60.342950,-13.458762,1.595825,-0.292240,0.000271,0.756540,-0.188253,0.928633,0
537816322880872,-3.568699,1.230356,5.460609,-0.917458,-0.151441,0.000001,0.000000,0.000000,0.000000,0.000000,0.000000,0.000000,-0.000000,-0.000000,0.000000,-0.000000,-0.000000,0.000000,-0.000000,-60.342910,-13.458748,1.595821,-0.292242,0.000271,0.756540,-0.188253,0.928633,0
537816323905766,-3.568699,1.230356,5.460608,-0.917459,-0.151442,0.000000,0.000000,0.000000,0.000000,0.000000,0.000000,0.000000,-0.000000,-0.000000,0.000000,-0.000000,-0.000000,0.000000,0.000000,-60.342867,-13.458719,1.595814,-0.292235,0.000271,0.756540,-0.188253,0.928633,0
537816324904215,-3.568699,1.230356,5.460607,-0.917459,-0.151442,0.000000,0.000000,0.000000,0.000000,0.000000,0.000000,0.000000,-0.000000,-0.000000,0.000000,-0.000000,-0.000000,0.000000,-0.000000,-60.342880,-13.458719,1.595814,-0.292235,0.000271,0.756540,-0.188253,0.928633,0
537816325904853,-3.568700,1.230356,5.460605,-0.917457,-0.151443,-0.000001,0.000000,0.000000,0.000000,0.000000,0.000000,0.000000,-0.000000,-0.000000,-0.002377,-0.000000,-0.000000,0.000000,0.000000,-60.342796,-13.458648,1.595807,-0.292229,0.000271,0.756540,-0.188253,0.928633,0
537816326904202,-3.568699,1.230355,5.460607,-0.917457,-0.151441,0.000002,0.000000,0.000000,0.000000,0.000000,0.000000,0.000000,-0.000000,-0.000000,0.002377,-0.000000,-0.000000,0.002848,0.000000,-60.342817,-13.458682,1.595811,-0.292237,0.000271,0.756540,-0.188253,0.928633,0
537816327904183,-3.568699,1.230356,5.460606,-0.917458,-0.151443,0.000002,0.000000,0.000000,0.000000,0.000000,0.000000,0.000000,-0.000000,-0.000000,0.000000,-0.000000,-0.000000,0.000000,0.000000,-60.342860,-13.458698,1.595814,-0.292232,0.000271,0.756540,-0.188253,0.928633,0
537816328904204,-3.568699,1.230357,5.460606,-0.917459,-0.151442,0.000002,0.000000,0.000000,0.000000,0.000000,0.000000,0.000000,-0.000000,-0.000000,0.000000,-0.000000,-0.000000,0.000000,0.000000,-60.342893,-13.458719,1.595814,-0.292235,0.000271,0.756540,-0.188253,0.928633,0
537816329904013,-3.568699,1.230356,5.460606,-0.917456,-0.151442,0.000000,0.000000,0.000000,0.000000,0.000000,0.000000,0.000000,-0.000000,-0.000000,0.000000,0.002848,-0.000000,0.000000,0.000000,-60.342825,-13.458677,1.595813,-0.292235,0.000271,0.756540,-0.188253,0.928633,0
537816330908499,-3.568700,1.230356,5.460608,-0.917459,-0.151440,0.000001,0.000000,0.000000,0.000000,0.000000,0.000000,0.000000,-0.000000,-0.000000,0.000000,-0.002848,-0.000000,0.000000,0.000000,-60.342899,-13.458737,1.595815,-0.292242,0.000271,0.756540,-0.188253,0.928633,0
537816331908124,-3.568698,1.230356,5.460607,-0.917458,-0.151441,0.000000,0.000000,0.000000,0.000000,0.000000,0.000000,0.000000,-0.000000,-0.000000,0.000000,-0.000000,-0.000000,0.000000,0.000000,-60.342850,-13.458701,1.595812,-0.292237,0.000271,0.756540,-0.188253,0.928633,0
537816332908756,-3.568700,1.230358,5.460608,-0.917459,-0.151440,-0.000001,0.000000,0.000000,0.000000,0.000000,0.000000,0.000000,-0.003169,0.002377,0.000000,-0.000000,-0.000000,0.000000,0.000000,-60.342957,-13.458769,1.595821,-0.292245,0.000271,0.756540,-0.188253,0.928633,0
537816333880678,-3.568699,1.230356,5.460607,-0.917460,-0.151443,0.000000,0.000000,0.000000,0.000000,0.000000,0.000000,0.000000,-0.000000,-0.002377,0.000000,-0.000000,-0.002848,0.000000,0.000000,-60.342853,-13.458705,1.595810,-0.292231,0.000271,0.756540,-0.188253,0.928633,0
537816334904973,-3.568698,1.230356,5.460606,-0.917459,-0.151441,0.000001,0.000000,0.000000,0.000000,0.000000,0.000000,0.000000,-0.000000,-0.000000,0.000000,-0.000000,-0.000000,0.000000,0.000000,-60.342866,-13.458705,1.595810,-0.292237,0.000271,0.756540,-0.188253,0.928633,0
537816335926200,-3.568699,1.230355,5.460606,-0.917458,-0.151440,-0.000002,0.000000,0.000000,0.000000,0.000000,0.000000,0.000000,-0.000000,-0.000000,0.000000,-0.000000,-0.000000,-0.002848,0.000000,-60.342807,-13.458672,1.595805,-0.292237,0.000271,0.756540,-0.188253,0.928633,0
537816336910107,-3.568699,1.230356,5.460606,-0.917459,-0.151438,0.000001,0.000000,0.000000,0.000000,0.000000,0.000000,0.000000,-0.000000,-0.000000,0.000000,-0.000000,-0.000000,0.002848,0.000000,-60.342843,-13.458694,1.595805,-0.292243,0.000271,0.756540,-0.188253,0.928633,0
537816337911149,-3.568698,1.230356,5.460606,-0.917458,-0.151439,0.000002,0.000000,0.000000,0.000000,0.000000,0.000000,0.000000,-0.000000,-0.000000,0.000000,-0.000000,-0.000000,0.000000,0.000000,-60.342866,-13.458704,1.595810,-0.292243,0.000271,0.756540,-0.188253,0.928633,0
537816338883516,-3.568698,1.230356,5.460607,-0.917459,-0.151443,0.000000,0.000000,0.000000,0.000000,0.000000,0.000000,0.000000,-0.000000,-0.000000,0.000000,-0.000000,-0.003797,0.000000,0.000000,-60.342879,-13.458717,1.595815,-0.292233,0.000271,0.756540,-0.188253,0.928633,0
537816339909606,-3.568700,1.230356,5.460606,-0.917458,-0.151442,-0.000002,0.000000,0.000000,0.000000,0.000000,0.000000,0.000000,-0.002377,-0.000000,0.000000,-0.000000,-0.000000,0.000000,-0.000000,-60.342861,-13.458699,1.595813,-0.292235,0.000271,0.756540,-0.188253,0.928633,0
537816340880752,-3.568699,1.230355,5.460609,-0.917459,-0.151440,-0.000001,0.000000,0.000000,0.000000,0.000000,0.000000,0.000000,-0.000000,-0.000000,0.002377,-0.000000,-0.000000,0.000000,0.000000,-60.342857,-13.458722,1.595812,-0.292241,0.000271,0.756540,-0.188253,0.928633,0
537816341881875,-3.568699,1.230354,5.460606,-0.917458,-0.151439,-0.000001,0.000000,0.000000,0.000000,0.000000,0.000000,0.000000,-0.000000,-0.000000,-0.002377,-0.000000,-0.000000,0.000000,0.000000,-60.342780,-13.458658,1.595802,-0.292238,0.000271,0.756540,-0.188253,0.928633,0
537816342908046,-3.568699,1.230355,5.460608,-0.917459,-0.151443,0.000001,0.000000,0.000000,0.000000,0.000000,0.000000,0.000000,-0.000000,-0.000000,0.000000,-0.000000,-0.003797,0.000000,-0.000000,-60.342837,-13.458701,1.595812,-0.292231,0.000271,0.756540,-0.188253,0.928633,0
537816343908454,-3.568699,1.230356,5.460608,-0.917459,-0.151440,0.000002,0.000000,0.000000,0.000000,0.000000,0.000000,0.000000,-0.000000,-0.000000,0.000000,-0.000000,0.002848,0.000000,0.000000,-60.342899,-13.458737,1.595815,-0.292242,0.000271,0.756540,-0.188253,0.928633,0
537816344921259,-3.568697,1.230356,5.460609,-0.917458,-0.151441,0.000001,0.000000,0.000000,0.000000,0.000000,0.000000,0.000000,-0.000000,-0.000000,0.000000,-0.000000,-0.000000,0.000000,-0.000000,-60.342910,-13.458748,1.595821,-0.292242,0.000271,0.756540,-0.188253,0.928633,0
537816345880449,-3.568699,1.230356,5.460606,-0.917458,-0.151437,0.000000,0.000000,0.000000,0.000000,0.000000,0.000000,0.000000,-0.000000,-0.000000,-0.002377,-0.000000,0.003797,0.000000,-0.000000,-60.342870,-13.458708,1.595809,-0.292248,0.000271,0.756540,-0.188253,0.928633,0
537816346910739,-3.568700,1.230356,5.460606,-0.917457,-0.151442,-0.000001,0.000000,0.000000,0.000000,0.000000,0.000000,0.000000,-0.000000,-0.000000,0.000000,-0.000000,-0.003797,0.000000,0.000000,-60.342813,-13.458665,1.595809,-0.292233,0.000271,0.756540,-0.188253,0.928633,0
537816347914287,-3.568699,1.230356,5.460606,-0.917461,-0.151440,0.000001,0.000000,0.000000,0.000000,0.000000,0.000000,0.000000,-0.000000,-0.000000,0.000000,-0.003797,0.002848,0.000000,0.000000,-60.342846,-13.458698,1.595803,-0.292236,0.000271,0.756540,-0.188253,0.928633,0
537816348908395,-3.568699,1.230355,5.460608,-0.917459,-0.151441,-0.000002,0.000000,0.000000,0.000000,0.000000,0.000000,0.000000,-0.000000,-0.000000,0.000000,-0.000000,-0.000000,0.000000,-0.000000,-60.342840,-13.458705,1.595810,-0.292237,0.000271,0.756540,-0.188253,0.928633,0
537816349906191,-3.568698,1.230355,5.460606,-0.917460,-0.151442,0.000000,0.000000,0.000000,0.000000,0.000000,0.000000,0.000000,-0.000000,-0.000000,0.000000,-0.000000,-0.000000,0.000000,0.000000,-60.342811,-13.458675,1.595804,-0.292230,0.000271,0.756540,-0.188253,0.928633,0
537816350904678,-3.568701,1.230356,5.460607,-0.917456,-0.151440,0.000002,0.000000,0.000000,0.000000,0.000000,0.000000,0.000000,-0.003169,-0.000000,0.000000,0.003797,-0.000000,0.000000,0.000000,-60.342844,-13.458696,1.595815,-0.292242,0.000271,0.756540,-0.188253,0.928633,0
537816351905121,-3.568698,1.230355,5.460608,-0.917459,-0.151442,0.000000,0.000000,0.000000,0.000000,0.000000,0.000000,0.000000,-0.000000,-0.000000,0.000000,-0.002848,-0.000000,0.000000,0.000000,-60.342838,-13.458703,1.595811,-0.292234,0.000271,0.756540,-0.188253,0.928633,0
537816352903965,-3.568701,1.230356,5.460609,-0.917458,-0.151442,0.000002,0.000000,0.000000,0.000000,0.000000,0.000000,0.000000,-0.002377,-0.000000,0.000000,-0.000000,-0.000000,0.000000,-0.000000,-60.342908,-13.458746,1.595822,-0.292239,0.000271,0.756540,-0.188253,0.928633,0
537816353906384,-3.568697,1.230356,5.460608,-0.917460,-0.151442,0.000000,0.000000,0.000000,0.000000,0.000000,0.000000,0.000000,0.003962,-0.000000,0.000000,-0.000000,-0.000000,0.000000,0.000000,-60.342871,-13.458722,1.595812,-0.292235,0.000271,0.756540,-0.188253,0.928633,0
537816354903981,-3.568699,1.230356,5.460608,-0.917460,-0.151438,-0.000001,0.000000,0.000000,0.000000,0.000000,0.000000,0.000000,-0.000000,-0.000000,0.000000,-0.000000,0.003797,0.000000,0.000000,-60.342877,-13.458729,1.595809,-0.292245,0.000271,0.756540,-0.188253,0.928633,0
537816355880190,-3.568698,1.230356,5.460607,-0.917458,-0.151439,0.000001,0.000000,0.000000,0.000000,0.000000,0.000000,0.000000,-0.000000,-0.000000,0.000000,-0.000000,-0.000000,0.000000,0.000000,-60.342853,-13.458704,1.595810,-0.292243,0.000271,0.756540,-0.188253,0.928633,0
537816356904580,-3.568698,1.230357,5.460606,-0.917457,-0.151441,0.000000,0.000000,0.000000,0.000000,0.000000,0.000000,0.000000,-0.000000,-0.000000,0.000000,-0.000000,-0.000000,0.000000,0.000000,-60.342888,-13.458713,1.595817,-0.292240,0.000271,0.756540,-0.188253,0.928633,0
537816357906853,-3.568699,1.230356,5.460608,-0.917458,-0.151440,-0.000001,0.000000,0.000000,0.000000,0.000000,0.000000,0.000000,-0.000000,-0.000000,0.000000,-0.000000,-0.000000,0.000000,-0.000000,-60.342867,-13.458718,1.595814,-0.292241,0.000271,0.756540,-0.188253,0.928633,0
537816358905173,-3.568699,1.230354,5.460607,-0.917459,-0.151441,-0.000001,0.000000,0.000000,0.000000,0.000000,0.000000,0.000000,-0.000000,-0.000000,0.000000,-0.000000,-0.000000,0.000000,0.000000,-60.342796,-13.458673,1.595805,-0.292234,0.000271,0.756540,-0.188253,0.928633,0
537816359904111,-3.568699,1.230356,5.460607,-0.917457,-0.151441,-0.000001,0.000000,0.000000,0.000000,0.000000,0.000000,0.000000,-0.000000,-0.000000,0.000000,-0.000000,-0.000000,0.000000,0.000000,-60.342846,-13.458698,1.595814,-0.292238,0.000271,0.756540,-0.188253,0.928633,0
537816360907486,-3.568698,1.230356,5.460607,-0.917460,-0.151440,0.000000,0.000000,0.000000,0.000000,0.000000,0.000000,0.000000,-0.000000,-0.000000,0.000000,-0.002848,-0.000000,0.000000,0.000000,-60.342887,-13.458725,1.595811,-0.292240,0.000271,0.756540,-0.188253,0.928633,0
537816361903754,-3.568699,1.230356,5.460609,-0.917457,-0.151442,0.000001,0.000000,0.000000,0.000000,0.000000,0.000000,0.000000,-0.000000,-0.000000,0.000000,0.002848,-0.000000,0.000000,-0.000000,-60.342904,-13.458743,1.595823,-0.292240,0.000271,0.756540,-0.188253,0.928633,0
537816362903818,-3.568698,1.230356,5.460608,-0.917460,-0.151441,0.000001,0.000000,0.000000,0.000000,0.000000,0.000000,0.000000,-0.000000,-0.000000,0.000000,-0.002848,-0.000000,0.000000,0.000000,-60.342872,-13.458724,1.595812,-0.292237,0.000271,0.756540,-0.188253,0.928633,0
537816363912132,-3.568697,1.230356,5.460608,-0.917459,-0.151441,0.000000,0.000000,0.000000,0.000000,0.000000,0.000000,0.000000,-0.000000,-0.000000,0.000000,-0.000000,-0.000000,0.000000,0.000000,-60.342869,-13.458720,1.595813,-0.292238,0.000271,0.756540,-0.188253,0.928633,0
537816364907946,-3.568698,1.230356,5.460606,-0.917458,-0.151441,-0.000001,0.000000,0.000000,0.000000,0.000000,0.000000,0.000000,-0.000000,-0.000000,0.000000,-0.000000,-0.000000,0.000000,-0.000000,-60.342863,-13.458701,1.595812,-0.292237,0.000271,0.756540,-0.188253,0.928633,0
537816365908349,-3.568700,1.230357,5.460606,-0.917459,-0.151442,0.000003,0.000000,0.000000,0.000000,0.000000,0.000000,0.000000,-0.002377,-0.000000,0.000000,-0.000000,-0.000000,0.003797,0.000000,-60.342893,-13.458719,1.595814,-0.292235,0.000271,0.756540,-0.188253,0.928633,0
537816366905167,-3.568697,1.230358,5.460608,-0.917460,-0.151440,0.000002,0.000000,0.000000,0.000000,0.000000,0.000000,0.000000,0.003169,-0.000000,0.000000,-0.000000,-0.000000,0.000000,-0.000000,-60.342960,-13.458772,1.595820,-0.292244,0.000271,0.756540,-0.188253,0.928633,0
537816367910345,-3.568699,1.230357,5.460605,-0.917461,-0.151441,0.000001,0.000000,0.000000,0.000000,0.000000,0.000000,0.000000,-0.002377,-0.000000,-0.002377,-0.000000,-0.000000,0.000000,-0.000000,-60.342871,-13.458696,1.595804,-0.292234,0.000271,0.756540,-0.188253,0.928633,0
537816368901859,-3.568697,1.230356,5.460607,-0.917459,-0.151441,0.000000,0.000000,0.000000,0.000000,0.000000,0.000000,0.000000,-0.000000,-0.000000,0.002377,-0.000000,-0.000000,0.000000,0.000000,-60.342853,-13.458705,1.595810,-0.292237,0.000271,0.756540,-0.188253,0.928633,0
537816369891229,-3.568699,1.230357,5.460607,-0.917459,-0.151441,-0.000001,0.000000,0.000000,0.000000,0.000000,0.000000,0.000000,-0.000000,-0.000000,0.000000,-0.000000,-0.000000,0.000000,0.000000,-60.342911,-13.458736,1.595816,-0.292239,0.000271,0.756540,-0.188253,0.928633,0
537816370913448,-3.568699,1.230356,5.460608,-0.917459,-0.151440,0.000000,0.000000,0.000000,0.000000,0.000000,0.000000,0.000000,-0.000000,-0.000000,0.000000,-0.000000,-0.000000,0.000000,0.000000,-60.342871,-13.458722,1.595812,-0.292241,0.000271,0.756540,-0.188253,0.928633,0
537816371907662,-3.568699,1.230358,5.460607,-0.917459,-0.151440,-0.000002,0.000000,0.000000,0.000000,0.000000,0.000000,0.000000,-0.000000,0.002377,0.000000,-0.000000,-0.000000,0.000000,0.000000,-60.342941,-13.458753,1.595818,-0.292243,0.000271,0.756540,-0.188253,0.928633,0
537816372907406,-3.568697,1.230356,5.460606,-0.917457,-0.151442,0.000000,0.000000,0.000000,0.000000,0.000000,0.000000,0.000000,-0.000000,-0.000000,0.000000,-0.000000,-0.000000,0.000000,0.000000,-60.342842,-13.458680,1.595812,-0.292234,0.000271,0.756540,-0.188253,0.928633,0
537816373906983,-3.568699,1.230357,5.460607,-0.917458,-0.151439,0.000000,0.000000,0.000000,0.000000,0.000000,0.000000,0.000000,-0.000000,-0.000000,0.000000,-0.000000,-0.000000,0.000000,-0.000000,-60.342911,-13.458736,1.595816,-0.292245,0.000271,0.756540,-0.188253,0.928633,0
537816374908408,-3.568698,1.230356,5.460608,-0.917461,-0.151442,-0.000002,0.000000,0.000000,0.000000,0.000000,0.000000,0.000000,-0.000000,-0.000000,0.000000,-0.002848,-0.000000,0.000000,0.000000,-60.342874,-13.458726,1.595811,-0.292234,0.000271,0.756540,-0.188253,0.928633,0
537816375881144,-3.568697,1.230355,5.460609,-0.917459,-0.151440,-0.000002,0.000000,0.000000,0.000000,0.000000,0.000000,0.000000,-0.000000,-0.000000,0.000000,-0.000000,-0.000000,0.000000,0.000000,-60.342857,-13.458722,1.595812,-0.292241,0.000271,0.756540,-0.188253,0.928633,0
537816376909180,-3.568699,1.230355,5.460606,-0.917459,-0.151442,0.000000,0.000000,0.000000,0.000000,0.000000,0.000000,0.000000,-0.002377,-0.000000,-0.002377,-0.000000,-0.000000,0.000000,-0.000000,-60.342807,-13.458672,1.595805,-0.292231,0.000271,0.756540,-0.188253,0.928633,0
537816377898416,-3.568697,1.230357,5.460606,-0.917458,-0.151442,0.000000,0.000000,0.000000,0.000000,0.000000,0.000000,0.000000,0.002377,0.002377,0.000000,-0.000000,-0.000000,0.000000,0.000000,-60.342890,-13.458715,1.595816,-0.292236,0.000271,0.756540,-0.188253,0.928633,0
537816378880653,-3.568699,1.230356,5.460606,-0.917459,-0.151440,0.000001,0.000000,0.000000,0.000000,0.000000,0.000000,0.000000,-0.000000,-0.000000,0.000000,-0.000000,-0.000000,0.000000,0.000000,-60.342868,-13.458706,1.595810,-0.292239,0.000271,0.756540,-0.188253,0.928633,0
537816379880680,-3.568699,1.230356,5.460608,-0.917458,-0.151442,0.000000,0.000000,0.000000,0.000000,0.000000,0.000000,0.000000,-0.000000,-0.000000,0.000000,-0.000000,-0.000000,0.000000,-0.000000,-60.342864,-13.458715,1.595816,-0.292236,0.000271,0.756540,-0.188253,0.928633,0
537816380907478,-3.568698,1.230357,5.460609,-0.917460,-0.151440,-0.000001,0.000000,0.000000,0.000000,0.000000,0.000000,0.000000,-0.000000,-0.000000,0.000000,-0.000000,-0.000000,0.000000,0.000000,-60.342947,-13.458772,1.595820,-0.292244,0.000271,0.756540,-0.188253,0.928633,0
537816381908181,-3.568698,1.230355,5.460606,-0.917459,-0.151443,0.000003,0.000000,0.000000,0.000000,0.000000,0.000000,0.000000,-0.000000,-0.000000,-0.002377,-0.000000,-0.002848,0.003797,0.000000,-60.342806,-13.458670,1.595806,-0.292229,0.000271,0.756540,-0.188253,0.928633,0
537816382904412,-3.568699,1.230356,5.460606,-0.917460,-0.151441,0.000001,0.000000,0.000000,0.000000,0.000000,0.000000,0.000000,-0.000000,-0.000000,0.000000,-0.000000,-0.000000,0.000000,0.000000,-60.342841,-13.458693,1.595806,-0.292234,0.000271,0.756540,-0.188253,0.928633,0
537816383903997,-3.568699,1.230355,5.460607,-0.917459,-0.151441,-0.000001,0.000000,0.000000,0.000000,0.000000,0.000000,0.000000,-0.000000,-0.000000,0.000000,-0.000000,-0.000000,0.000000,0.000000,-60.342825,-13.458689,1.595807,-0.292235,0.000271,0.756540,-0.188253,0.928633,0
537816384908722,-3.568699,1.230356,5.460610,-0.917458,-0.151440,-0.000001,0.000000,0.000000,0.000000,0.000000,0.000000,0.000000,-0.000000,-0.000000,0.002377,-0.000000,-0.000000,0.000000,0.000000,-60.342898,-13.458750,1.595820,-0.292244,0.000271,0.756540,-0.188253,0.928633,0
537816385908702,-3.568698,1.230358,5.460608,-0.917458,-0.151441,0.000002,0.000000,0.000000,0.000000,0.000000,0.000000,0.000000,-0.000000,0.002377,0.000000,-0.000000,0.002848,0.002848,-0.000000,-60.342952,-13.458763,1.595824,-0.292243,0.000271,0.756540,-0.188253,0.928633,0
537816386879814,-3.568698,1.230356,5.460606,-0.917459,-0.151441,-0.000002,0.000000,0.000000,0.000000,0.000000,0.000000,0.000000,-0.000000,-0.000000,0.000000,-0.000000,-0.000000,-0.003797,0.000000,-60.342866,-13.458705,1.595810,-0.292237,0.000271,0.756540,-0.188253,0.928633,0
537816387905232,-3.568699,1.230355,5.460606,-0.917461,-0.151441,-0.000001,0.000000,0.000000,0.000000,0.000000,0.000000,0.000000,-0.000000,-0.000000,0.000000,-0.003797,-0.000000,0.000000,-0.000000,-60.342816,-13.458680,1.595801,-0.292232,0.000271,0.756540,-0.188253,0.928633,0
537816388907400,-3.568698,1.230354,5.460607,-0.917457,-0.151439,0.000000,0.000000,0.000000,0.000000,0.000000,0.000000,0.000000,-0.000000,-0.000000,0.000000,0.004746,-0.000000,0.000000,0.000000,-60.342792,-13.458670,1.595806,-0.292241,0.000271,0.756540,-0.188253,0.928633,0
537816389880647,-3.568698,1.230356,5.460606,-0.917460,-0.151444,0.000002,0.000000,0.000000,0.000000,0.000000,0.000000,0.000000,0.002377,-0.000000,0.000000,-0.002848,-0.004746,0.000000,0.000000,-60.342865,-13.458703,1.595811,-0.292228,0.000271,0.756540,-0.188253,0.928633,0
537816390907419,-3.568699,1.230356,5.460607,-0.917459,-0.151440,0.000000,0.000000,0.000000,0.000000,0.000000,0.000000,0.000000,-0.000000,-0.000000,0.000000,-0.000000,0.003797,0.000000,0.000000,-60.342884,-13.458722,1.595812,-0.292241,0.000271,0.756540,-0.188253,0.928633,0
537816391886507,-3.568698,1.230356,5.460607,-0.917459,-0.151444,-0.000002,0.000000,0.000000,0.000000,0.000000,0.000000,0.000000,-0.000000,-0.000000,0.000000,-0.000000,-0.003797,0.000000,0.000000,-60.342877,-13.458715,1.595816,-0.292230,0.000271,0.756540,-0.188253,0.928633,0
537816392880411,-3.568698,1.230356,5.460607,-0.917458,-0.151439,0.000000,0.000000,0.000000,0.000000,0.000000,0.000000,0.000000,-0.000000,-0.000000,0.000000,-0.000000,0.004746,0.000000,-0.000000,-60.342882,-13.458720,1.595813,-0.292244,0.000271,0.756540,-0.188253,0.928633,0
537816393880078,-3.568699,1.230356,5.460607,-0.917457,-0.151442,0.000000,0.000000,0.000000,0.000000,0.000000,0.000000,0.000000,-0.000000,-0.000000,0.000000,-0.000000,-0.002848,0.000000,0.000000,-60.342873,-13.458712,1.595818,-0.292237,0.000271,0.756540,-0.188253,0.928633,0
537816394904506,-3.568697,1.230356,5.460610,-0.917460,-0.151444,0.000003,0.000000,0.000000,0.000000,0.000000,0.000000,0.000000,0.003169,-0.000000,0.002377,-0.002848,-0.000000,0.002848,0.000000,-60.342927,-13.458765,1.595823,-0.292234,0.000271,0.756540,-0.188253,0.928633,0
537816395906945,-3.568699,1.230354,5.460607,-0.917457,-0.151441,0.000003,0.000000,0.000000,0.000000,0.000000,0.000000,0.000000,-0.000000,-0.002377,-0.002377,0.002848,0.002848,0.000000,0.000000,-60.342789,-13.458666,1.595808,-0.292236,0.000271,0.756540,-0.188253,0.928633,0
537816396907368,-3.568699,1.230356,5.460605,-0.917457,-0.151439,0.000000,0.000000,0.000000,0.000000,0.000000,0.000000,0.000000,-0.000000,-0.000000,-0.002377,-0.000000,-0.000000,0.000000,0.000000,-60.342803,-13.458654,1.595803,-0.292239,0.000271,0.756540,-0.188253,0.928633,0
537816397907823,-3.568699,1.230358,5.460607,-0.917459,-0.151442,0.000000,0.000000,0.000000,0.000000,0.000000,0.000000,0.000000,-0.000000,0.002377,0.002377,-0.000000,-0.002848,0.000000,0.000000,-60.342938,-13.458750,1.595820,-0.292238,0.000271,0.756540,-0.188253,0.928633,0
537816398906433,-3.568699,1.230356,5.460606,-0.917456,-0.151441,-0.000002,0.000000,0.000000,0.000000,0.000000,0.000000,0.000000,-0.000000,-0.002377,0.000000,0.002848,-0.000000,0.000000,0.000000,-60.342827,-13.458679,1.595813,-0.292238,0.000271,0.756540,-0.188253,0.928633,0
537816399908071,-3.568699,1.230356,5.460608,-0.917459,-0.151440,0.000001,0.000000,0.000000,0.000000,0.000000,0.000000,0.000000,-0.000000,-0.000000,0.000000,-0.002848,-0.000000,0.002848,0.000000,-60.342899,-13.458737,1.595815,-0.292242,0.000271,0.756540,-0.188253,0.928633,0
537816400906984,-3.568699,1.230358,5.460606,-0.917459,-0.151442,0.000000,0.000000,0.000000,0.000000,0.000000,0.000000,0.000000,-0.000000,-0.000000,-0.002377,-0.000000,-0.000000,0.000000,-0.000000,-60.342907,-13.458719,1.595814,-0.292235,0.000271,0.756540,-0.188253,0.928633,0
537816401910827,-3.568698,1.230357,5.460607,-0.917458,-0.151442,0.000001,0.000000,0.000000,0.000000,0.000000,0.000000,0.000000,-0.000000,-0.000000,0.000000,-0.000000,-0.000000,0.000000,-0.000000,-60.342906,-13.458731,1.595819,-0.292238,0.000271,0.756540,-0.188253,0.928633,0
537816402915064,-3.568697,1.230356,5.460609,-0.917460,-0.151443,0.000002,0.000000,0.000000,0.000000,0.000000,0.000000,0.000000,-0.000000,-0.000000,0.000000,-0.000000,-0.000000,0.000000,0.000000,-60.342885,-13.458736,1.595816,-0.292233,0.000271,0.756540,-0.188253,0.928633,0
537816403907950,-3.568699,1.230356,5.460605,-0.917459,-0.151439,0.000000,0.000000,0.000000,0.000000,0.000000,0.000000,0.000000,-0.000000,-0.000000,-0.003962,-0.000000,0.003797,0.000000,0.000000,-60.342810,-13.458661,1.595800,-0.292238,0.000271,0.756540,-0.188253,0.928633,0
537816404881979,-3.568698,1.230355,5.460608,-0.917455,-0.151442,0.000001,0.000000,0.000000,0.000000,0.000000,0.000000,0.000000,-0.000000,-0.000000,0.003169,0.003797,-0.002848,0.000000,-0.000000,-60.342824,-13.458689,1.595818,-0.292237,0.000271,0.756540,-0.188253,0.928633,0
537816405906541,-3.568697,1.230357,5.460607,-0.917457,-0.151441,-0.000001,0.000000,0.000000,0.000000,0.000000,0.000000,0.000000,-0.000000,0.002377,-0.002377,0.003797,-0.000000,0.000000,0.000000,-60.342904,-13.458729,1.595820,-0.292241,0.000271,0.756540,-0.188253,0.928633,0
537816406908761,-3.568699,1.230357,5.460606,-0.917460,-0.151442,0.000002,0.000000,0.000000,0.000000,0.000000,0.000000,0.000000,-0.000000,-0.000000,0.000000,-0.000000,-0.000000,0.002848,0.000000,-60.342897,-13.458722,1.595812,-0.292235,0.000271,0.756540,-0.188253,0.928633,0
537816407882071,-3.568700,1.230355,5.460607,-0.917457,-0.151441,0.000001,0.000000,0.000000,0.000000,0.000000,0.000000,0.000000,-0.000000,-0.002377,0.000000,0.002848,-0.000000,0.000000,-0.000000,-60.342817,-13.458682,1.595811,-0.292237,0.000271,0.756540,-0.188253,0.928633,0
537816408908110,-3.568698,1.230356,5.460607,-0.917458,-0.151441,-0.000002,0.000000,0.000000,0.000000,0.000000,0.000000,0.000000,-0.000000,-0.000000,0.000000,-0.000000,-0.000000,-0.002848,0.000000,-60.342850,-13.458701,1.595812,-0.292237,0.000271,0.756540,-0.188253,0.928633,0
537816409880500,-3.568698,1.230356,5.460606,-0.917458,-0.151440,0.000000,0.000000,0.000000,0.000000,0.000000,0.000000,0.000000,-0.000000,-0.000000,0.000000,-0.000000,-0.000000,0.000000,0.000000,-60.342865,-13.458703,1.595811,-0.292240,0.000271,0.756540,-0.188253,0.928633,0
537816410910727,-3.568698,1.230358,5.460606,-0.917460,-0.151443,-0.000002,0.000000,0.000000,0.000000,0.000000,0.000000,0.000000,-0.000000,-0.000000,0.000000,-0.000000,-0.000000,0.000000,0.000000,-60.342908,-13.458720,1.595813,-0.292232,0.000271,0.756540,-0.188253,0.928633,0
537816411908106,-3.568698,1.230356,5.460609,-0.917459,-0.151441,0.000000,0.000000,0.000000,0.000000,0.000000,0.000000,0.000000,-0.000000,-0.000000,0.003169,-0.000000,-0.000000,0.000000,0.000000,-60.342884,-13.458736,1.595816,-0.292239,0.000271,0.756540,-0.188253,0.928633,0
537816412907915,-3.568698,1.230358,5.460606,-0.917458,-0.151441,0.000000,0.000000,0.000000,0.000000,0.000000,0.000000,0.000000,-0.000000,0.002377,-0.002377,-0.000000,-0.000000,0.000000,0.000000,-60.342920,-13.458732,1.595818,-0.292240,0.000271,0.756540,-0.188253,0.928633,0
537816413913521,-3.568698,1.230357,5.460606,-0.917459,-0.151440,0.000002,0.000000,0.000000,0.000000,0.000000,0.000000,0.000000,-0.000000,-0.000000,0.000000,-0.000000,-0.000000,0.002848,0.000000,-60.342881,-13.458706,1.595810,-0.292239,0.000271,0.756540,-0.188253,0.928633,0
537816414909220,-3.568699,1.230355,5.460608,-0.917459,-0.151441,0.000002,0.000000,0.000000,0.000000,0.000000,0.000000,0.000000,-0.000000,-0.002377,0.002377,-0.000000,-0.000000,0.000000,-0.000000,-60.342840,-13.458705,1.595810,-0.292237,0.000271,0.756540,-0.188253,0.928633,0
537816415880797,-3.568699,1.230356,5.460605,-0.917460,-0.151443,0.000001,0.000000,0.000000,0.000000,0.000000,0.000000,0.000000,-0.000000,-0.000000,-0.003169,-0.000000,-0.000000,0.000000,0.000000,-60.342835,-13.458674,1.595805,-0.292228,0.000271,0.756540,-0.188253,0.928633,0
537816416904490,-3.568699,1.230356,5.460608,-0.917461,-0.151441,0.000000,0.000000,0.000000,0.000000,0.000000,0.000000,0.000000,-0.000000,-0.000000,0.003169,-0.000000,-0.000000,0.000000,-0.000000,-60.342905,-13.458743,1.595813,-0.292238,0.000271,0.756540,-0.188253,0.928633,0
537816417903950,-3.568698,1.230357,5.460607,-0.917459,-0.151441,0.000000,0.000000,0.000000,0.000000,0.000000,0.000000,0.000000,-0.000000,-0.000000,0.000000,-0.000000,-0.000000,0.000000,0.000000,-60.342911,-13.458736,1.595816,-0.292239,0.000271,0.756540,-0.188253,0.928633,0
537816418904100,-3.568699,1.230354,5.460609,-0.917457,-0.151442,0.000002,0.000000,0.000000,0.000000,0.000000,0.000000,0.000000,-0.000000,-0.000000,0.000000,-0.000000,-0.000000,0.000000,0.000000,-60.342818,-13.458696,1.595815,-0.292236,0.000271,0.756540,-0.188253,0.928633,0
537816419904602,-3.568697,1.230357,5.460606,-0.917460,-0.151442,-0.000001,0.000000,0.000000,0.000000,0.000000,0.000000,0.000000,-0.000000,-0.000000,-0.002377,-0.002848,-0.000000,-0.002848,0.000000,-60.342897,-13.458722,1.595812,-0.292235,0.000271,0.756540,-0.188253,0.928633,0
537816420904582,-3.568698,1.230356,5.460609,-0.917460,-0.151440,0.000001,0.000000,0.000000,0.000000,0.000000,0.000000,0.000000,-0.000000,-0.000000,0.002377,-0.000000,-0.000000,0.000000,0.000000,-60.342890,-13.458741,1.595814,-0.292241,0.000271,0.756540,-0.188253,0.928633,0
537816421905604,-3.568699,1.230356,5.460606,-0.917457,-0.151440,0.000001,0.000000,0.000000,0.000000,0.000000,0.000000,0.000000,-0.000000,-0.000000,-0.002377,0.002848,-0.000000,0.000000,0.000000,-60.342861,-13.458699,1.595813,-0.292241,0.000271,0.756540,-0.188253,0.928633,0
537816422901112,-3.568699,1.230356,5.460608,-0.917462,-0.151441,-0.000001,0.000000,0.000000,0.000000,0.000000,0.000000,0.000000,-0.000000,-0.000000,0.000000,-0.004746,-0.000000,0.000000,-0.000000,-60.342879,-13.458731,1.595808,-0.292235,0.000271,0.756540,-0.188253,0.928633,0
537816423904530,-3.568699,1.230357,5.460607,-0.917459,-0.151442,0.000000,0.000000,0.000000,0.000000,0.000000,0.000000,0.000000,-0.000000,-0.000000,0.000000,0.002848,-0.000000,0.000000,0.000000,-60.342909,-13.458734,1.595817,-0.292237,0.000271,0.756540,-0.188253,0.928633,0
537816424904823,-3.568699,1.230356,5.460606,-0.917460,-0.151440,0.000001,0.000000,0.000000,0.000000,0.000000,0.000000,0.000000,-0.000000,-0.000000,0.000000,-0.000000,-0.000000,0.000000,0.000000,-60.342843,-13.458694,1.595805,-0.292237,0.000271,0.756540,-0.188253,0.928633,0
537816425913469,-3.568699,1.230356,5.460607,-0.917458,-0.151439,0.000002,0.000000,0.000000,0.000000,0.000000,0.000000,0.000000,-0.000000,-0.000000,0.000000,-0.000000,-0.000000,0.000000,0.000000,-60.342853,-13.458704,1.595810,-0.292243,0.000271,0.756540,-0.188253,0.928633,0
537816426888586,-3.568699,1.230356,5.460608,-0.917460,-0.151441,-0.000001,0.000000,0.000000,0.000000,0.000000,0.000000,0.000000,-0.000000,-0.000000,0.000000,-0.000000,-0.000000,-0.002848,0.000000,-60.342872,-13.458724,1.595812,-0.292237,0.000271,0.756541,-0.188252,0.928632,0
537816427909374,-3.568699,1.230354,5.460607,-0.917457,-0.151442,0.000000,0.000000,0.000000,0.000000,0.000000,0.000000,0.000000,-0.000000,-0.000000,0.000000,0.002848,-0.000000,0.000000,0.000000,-60.342787,-13.458665,1.595809,-0.292233,0.000271,0.756541,-0.188252,0.928632,0
537816428908072,-3.568699,1.230356,5.460606,-0.917457,-0.151443,-0.000002,0.000000,0.000000,0.000000,0.000000,0.000000,0.000000,-0.000000,-0.000000,0.000000,0.002848,-0.000000,0.000000,0.000000,-60.342827,-13.458679,1.595813,-0.292232,0.000271,0.756541,-0.188252,0.928632,0
537816429908397,-3.568699,1.230355,5.460607,-0.917457,-0.151441,-0.000001,0.000000,0.000000,0.000000,0.000000,0.000000,0.000000,-0.000000,-0.000000,0.000000,0.003797,-0.000000,0.000000,-0.000000,-60.342817,-13.458682,1.595811,-0.292237,0.000271,0.756541,-0.188252,0.928632,0
537816430904946,-3.568699,1.230356,5.460606,-0.917459,-0.151442,0.000002,0.000000,0.000000,0.000000,0.000000,0.000000,0.000000,-0.000000,-0.000000,0.000000,-0.000000,-0.000000,0.002848,0.000000,-60.342836,-13.458687,1.595808,-0.292233,0.000271,0.756541,-0.188252,0.928632,0
537816431908274,-3.568699,1.230357,5.460607,-0.917458,-0.151442,0.000000,0.000000,0.000000,0.000000,0.000000,0.000000,0.000000,-0.000000,-0.000000,0.000000,-0.000000,-0.000000,0.000000,-0.000000,-60.342906,-13.458731,1.595819,-0.292238,0.000271,0.756541,-0.188252,0.928632,0
537816432894234,-3.568697,1.230358,5.460608,-0.917460,-0.151442,0.000001,0.000000,0.000000,0.000000,0.000000,0.000000,0.000000,-0.000000,-0.000000,0.000000,-0.000000,-0.000000,0.000000,-0.000000,-60.342957,-13.458769,1.595821,-0.292239,0.000271,0.756541,-0.188252,0.928632,0
537816433887146,-3.568698,1.230356,5.460608,-0.917456,-0.151439,0.000000,0.000000,0.000000,0.000000,0.000000,0.000000,0.000000,-0.000000,-0.000000,0.000000,0.003797,0.002848,0.000000,-0.000000,-60.342890,-13.458729,1.595820,-0.292247,0.000271,0.756541,-0.188252,0.928632,0
537816434896119,-3.568699,1.230356,5.460606,-0.917461,-0.151440,-0.000001,0.000000,0.000000,0.000000,0.000000,0.000000,0.000000,-0.000000,-0.000000,0.000000,-0.004746,-0.000000,0.000000,0.000000,-60.342875,-13.458713,1.595806,-0.292238,0.000271,0.756541,-0.188252,0.928632,0
537816435922108,-3.568699,1.230356,5.460606,-0.917457,-0.151442,0.000002,0.000000,0.000000,0.000000,0.000000,0.000000,0.000000,-0.000000,-0.000000,0.000000,0.003797,-0.000000,0.002848,0.000000,-60.342813,-13.458665,1.595809,-0.292233,0.000271,0.756541,-0.188252,0.928632,0
537816436908869,-3.568699,1.230355,5.460606,-0.917458,-0.151440,0.000001,0.000000,0.000000,0.000000,0.000000,0.000000,0.000000,-0.000000,-0.000000,0.000000,-0.000000,-0.000000,0.000000,0.000000,-60.342807,-13.458672,1.595805,-0.292237,0.000271,0.756541,-0.188252,0.928632,0
537816437883986,-3.568698,1.230354,5.460606,-0.917459,-0.151441,-0.000001,0.000000,0.000000,0.000000,0.000000,0.000000,0.000000,-0.000000,-0.000000,0.000000,-0.000000,-0.000000,0.000000,0.000000,-60.342780,-13.458658,1.595802,-0.292232,0.000271,0.756541,-0.188252,0.928632,0
537816438881424,-3.568698,1.230356,5.460609,-0.917461,-0.151442,0.000003,0.000000,0.000000,0.000000,0.000000,0.000000,0.000000,-0.000000,-0.000000,0.002377,-0.000000,-0.000000,0.003797,-0.000000,-60.342890,-13.458741,1.595814,-0.292235,0.000271,0.756541,-0.188252,0.928632,0
537816439907831,-3.568699,1.230355,5.460606,-0.917459,-0.151440,0.000001,0.000000,0.000000,0.000000,0.000000,0.000000,0.000000,-0.000000,-0.000000,-0.002377,-0.000000,-0.000000,0.000000,-0.000000,-60.342811,-13.458675,1.595804,-0.292236,0.000271,0.756541,-0.188252,0.928632,0
537816440908417,-3.568697,1.230356,5.460608,-0.917457,-0.151439,0.000000,0.000000,0.000000,0.000000,0.000000,0.000000,0.000000,0.002377,-0.000000,0.000000,-0.000000,-0.000000,0.000000,-0.000000,-60.342865,-13.458717,1.595815,-0.292245,0.000271,0.756541,-0.188252,0.928632,0
537816441907596,-3.568698,1.230355,5.460608,-0.917459,-0.151442,-0.000001,0.000000,0.000000,0.000000,0.000000,0.000000,0.000000,-0.000000,-0.000000,0.000000,-0.000000,-0.002848,0.000000,-0.000000,-60.342838,-13.458703,1.595811,-0.292234,0.000271,0.756541,-0.188252,0.928632,0
537816442905991,-3.568699,1.230355,5.460606,-0.917460,-0.151441,0.000002,0.000000,0.000000,0.000000,0.000000,0.000000,0.000000,-0.000000,-0.002377,0.000000,-0.000000,-0.000000,0.002848,0.000000,-60.342812,-13.458677,1.595803,-0.292233,0.000271,0.756541,-0.188252,0.928632,0
537816443881165,-3.568697,1.230355,5.460608,-0.917459,-0.151443,0.000001,0.000000,0.000000,0.000000,0.000000,0.000000,0.000000,-0.000000,-0.000000,0.000000,-0.000000,-0.000000,0.000000,-0.000000,-60.342837,-13.458701,1.595812,-0.292231,0.000271,0.756541,-0.188252,0.928632,0
537816444924735,-3.568698,1.230355,5.460608,-0.917459,-0.151442,0.000000,0.000000,0.000000,0.000000,0.000000,0.000000,0.000000,-0.000000,-0.000000,0.000000,-0.000000,-0.000000,0.000000,0.000000,-60.342838,-13.458703,1.595811,-0.292234,0.000271,0.756541,-0.188252,0.928632,0
537816445909772,-3.568698,1.230356,5.460607,-0.917458,-0.151443,0.000001,0.000000,0.000000,0.000000,0.000000,0.000000,0.000000,-0.000000,-0.000000,0.000000,-0.000000,-0.000000,0.000000,0.000000,-60.342846,-13.458698,1.595814,-0.292232,0.000271,0.756541,-0.188252,0.928632,0
537816446879830,-3.568699,1.230357,5.460606,-0.917459,-0.151439,0.000001,0.000000,0.000000,0.000000,0.000000,0.000000,0.000000,-0.000000,-0.000000,0.000000,-0.000000,0.003797,0.000000,0.000000,-60.342899,-13.458724,1.595812,-0.292243,0.000271,0.756541,-0.188252,0.928632,0
537816447908003,-3.568699,1.230356,5.460606,-0.917455,-0.151441,-0.000001,0.000000,0.000000,0.000000,0.000000,0.000000,0.000000,-0.000000,-0.002377,0.000000,0.005695,-0.000000,0.000000,0.000000,-60.342824,-13.458675,1.595814,-0.292239,0.000271,0.756541,-0.188252,0.928632,0
537816448908047,-3.568697,1.230357,5.460607,-0.917457,-0.151442,-0.000002,0.000000,0.000000,0.000000,0.000000,0.000000,0.000000,-0.000000,-0.000000,0.000000,-0.000000,-0.000000,0.000000,0.000000,-60.342902,-13.458727,1.595821,-0.292239,0.000271,0.756541,-0.188252,0.928632,0
537816449909257,-3.568698,1.230357,5.460606,-0.917459,-0.151439,-0.000001,0.000000,0.000000,0.000000,0.000000,0.000000,0.000000,-0.000000,-0.000000,0.000000,-0.000000,0.002848,0.000000,0.000000,-60.342883,-13.458708,1.595809,-0.292242,0.000271,0.756541,-0.188252,0.928632,0
537816450907018,-3.568699,1.230356,5.460606,-0.917458,-0.151440,0.000001,0.000000,0.000000,0.000000,0.000000,0.000000,0.000000,-0.000000,-0.000000,0.000000,-0.000000,-0.000000,0.000000,0.000000,-60.342865,-13.458703,1.595811,-0.292240,0.000271,0.756541,-0.188252,0.928632,0
537816451904302,-3.568696,1.230357,5.460607,-0.917459,-0.151440,-0.000001,0.000000,0.000000,0.000000,0.000000,0.000000,0.000000,0.003169,-0.000000,0.000000,-0.000000,-0.000000,0.000000,0.000000,-60.342912,-13.458737,1.595815,-0.292242,0.000271,0.756541,-0.188252,0.928632,0
537816452904199,-3.568699,1.230356,5.460607,-0.917457,-0.151440,0.000000,0.000000,0.000000,0.000000,0.000000,0.000000,0.000000,-0.002377,-0.000000,0.000000,-0.000000,-0.000000,0.000000,-0.000000,-60.342848,-13.458699,1.595813,-0.292241,0.000271,0.756541,-0.188252,0.928632,0
537816453907819,-3.568699,1.230355,5.460608,-0.917458,-0.151441,0.000002,0.000000,0.000000,0.000000,0.000000,0.000000,0.000000,-0.000000,-0.000000,0.000000,-0.000000,-0.000000,0.000000,-0.000000,-60.342837,-13.458701,1.595812,-0.292237,0.000271,0.756541,-0.188252,0.928632,0
537816454904924,-3.568699,1.230356,5.460606,-0.917458,-0.151441,0.000001,0.000000,0.000000,0.000000,0.000000,0.000000,0.000000,-0.000000,-0.000000,-0.002377,-0.000000,-0.000000,0.000000,0.000000,-60.342819,-13.458670,1.595806,-0.292235,0.000271,0.756541,-0.188252,0.928632,0
537816455905972,-3.568699,1.230356,5.460607,-0.917459,-0.151440,0.000000,0.000000,0.000000,0.000000,0.000000,0.000000,0.000000,-0.002377,-0.000000,0.000000,-0.000000,-0.000000,0.000000,0.000000,-60.342855,-13.458706,1.595810,-0.292239,0.000271,0.756541,-0.188252,0.928632,0
537816456908984,-3.568699,1.230356,5.460606,-0.917460,-0.151440,-0.000002,0.000000,0.000000,0.000000,0.000000,0.000000,0.000000,-0.000000,-0.000000,0.000000,-0.000000,-0.000000,0.000000,0.000000,-60.342856,-13.458694,1.595805,-0.292237,0.000271,0.756541,-0.188252,0.928632,0
537816457907938,-3.568698,1.230356,5.460607,-0.917461,-0.151442,0.000000,0.000000,0.000000,0.000000,0.000000,0.000000,0.000000,-0.000000,-0.000000,0.000000,-0.000000,-0.000000,0.000000,-0.000000,-60.342859,-13.458710,1.595808,-0.292232,0.000271,0.756541,-0.188252,0.928632,0
537816458905039,-3.568699,1.230356,5.460608,-0.917458,-0.151444,0.000000,0.000000,0.000000,0.000000,0.000000,0.000000,0.000000,-0.000000,-0.000000,0.000000,0.002848,-0.002848,0.000000,-0.000000,-60.342889,-13.458727,1.595821,-0.292233,0.000271,0.756541,-0.188252,0.928632,0
537816459904843,-3.568698,1.230356,5.460607,-0.917458,-0.151443,-0.000001,0.000000,0.000000,0.000000,0.000000,0.000000,0.000000,-0.000000,-0.000000,0.000000,-0.000000,-0.000000,0.000000,-0.000000,-60.342875,-13.458713,1.595817,-0.292234,0.000271,0.756541,-0.188252,0.928632,0
537816460903932,-3.568698,1.230356,5.460609,-0.917456,-0.151441,0.000000,0.000000,0.000000,0.000000,0.000000,0.000000,0.000000,-0.000000,-0.000000,0.000000,-0.000000,-0.000000,0.000000,-0.000000,-60.342903,-13.458741,1.595824,-0.292243,0.000271,0.756541,-0.188252,0.928632,0
537816461903563,-3.568698,1.230356,5.460607,-0.917457,-0.151442,0.000000,0.000000,0.000000,0.000000,0.000000,0.000000,0.000000,-0.000000,-0.000000,0.000000,-0.000000,-0.000000,0.000000,-0.000000,-60.342845,-13.458696,1.595815,-0.292236,0.000271,0.756541,-0.188252,0.928632,0
537816462903882,-3.568698,1.230356,5.460606,-0.917459,-0.151442,-0.000001,0.000000,0.000000,0.000000,0.000000,0.000000,0.000000,-0.000000,-0.000000,0.000000,-0.000000,-0.000000,0.000000,0.000000,-60.342865,-13.458703,1.595811,-0.292234,0.000271,0.756541,-0.188252,0.928632,0
537816463909140,-3.568698,1.230356,5.460607,-0.917458,-0.151444,0.000001,0.000000,0.000000,0.000000,0.000000,0.000000,0.000000,-0.000000,-0.000000,0.000000,-0.000000,-0.000000,0.000000,0.000000,-60.342873,-13.458712,1.595818,-0.292231,0.000271,0.756541,-0.188252,0.928632,0
537816464880884,-3.568699,1.230356,5.460607,-0.917460,-0.151442,0.000000,0.000000,0.000000,0.000000,0.000000,0.000000,0.000000,-0.000000,-0.000000,0.000000,-0.000000,-0.000000,0.000000,0.000000,-60.342884,-13.458722,1.595812,-0.292235,0.000271,0.756541,-0.188252,0.928632,0
537816465882794,-3.568697,1.230357,5.460606,-0.917460,-0.151440,0.000000,0.000000,0.000000,0.000000,0.000000,0.000000,0.000000,-0.000000,-0.000000,0.000000,-0.000000,-0.000000,0.000000,0.000000,-60.342900,-13.458725,1.595811,-0.292240,0.000271,0.756541,-0.188252,0.928632,0
537816466907786,-3.568699,1.230357,5.460607,-0.917459,-0.151442,0.000000,0.000000,0.000000,0.000000,0.000000,0.000000,0.000000,-0.000000,-0.000000,0.000000,-0.000000,-0.000000,0.000000,0.000000,-60.342909,-13.458734,1.595817,-0.292237,0.000271,0.756541,-0.188252,0.928632,0
537816467910119,-3.568698,1.230356,5.460608,-0.917460,-0.151440,-0.000001,0.000000,0.000000,0.000000,0.000000,0.000000,0.000000,-0.000000,-0.000000,0.000000,-0.000000,-0.000000,0.000000,0.000000,-60.342874,-13.458725,1.595811,-0.292240,0.000271,0.756541,-0.188252,0.928632,0
537816468880872,-3.568698,1.230356,5.460609,-0.917456,-0.151442,0.000002,0.000000,0.000000,0.000000,0.000000,0.000000,0.000000,-0.000000,-0.000000,0.000000,0.003797,-0.000000,0.002848,0.000000,-60.342872,-13.458724,1.595822,-0.292239,0.000271,0.756541,-0.188252,0.928632,0
537816469880044,-3.568699,1.230359,5.460606,-0.917461,-0.151441,-0.000002,0.000000,0.000000,0.000000,0.000000,0.000000,0.000000,-0.000000,-0.000000,-0.002377,-0.004746,-0.000000,-0.003797,0.000000,-60.342960,-13.458758,1.595816,-0.292239,0.000271,0.756541,-0.188252,0.928632,0
537816470907519,-3.568699,1.230356,5.460606,-0.917459,-0.151442,0.000003,0.000000,0.000000,0.000000,0.000000,0.000000,0.000000,-0.000000,-0.002377,0.000000,-0.000000,-0.000000,0.004746,0.000000,-60.342865,-13.458703,1.595811,-0.292234,0.000271,0.756541,-0.188252,0.928632,0
537816471906771,-3.568698,1.230356,5.460610,-0.917460,-0.151440,0.000000,0.000000,0.000000,0.000000,0.000000,0.000000,0.000000,-0.000000,-0.000000,0.003169,-0.000000,0.002848,-0.002848,0.000000,-60.342934,-13.458772,1.595820,-0.292244,0.000271,0.756541,-0.188252,0.928632,0
537816472905354,-3.568699,1.230356,5.460606,-0.917456,-0.151441,0.000000,0.000000,0.000000,0.000000,0.000000,0.000000,0.000000,-0.000000,-0.000000,-0.003962,0.003797,-0.000000,0.000000,0.000000,-60.342840,-13.458679,1.595813,-0.292238,0.000271,0.756541,-0.188252,0.928632,0
537816473905840,-3.568698,1.230357,5.460606,-0.917458,-0.151442,0.000001,0.000000,0.000000,0.000000,0.000000,0.000000,0.000000,-0.000000,-0.000000,0.000000,-0.000000,-0.000000,0.000000,-0.000000,-60.342874,-13.458699,1.595813,-0.292235,0.000271,0.756541,-0.188252,0.928632,0
537816474906513,-3.568697,1.230357,5.460605,-0.917459,-0.151442,0.000001,0.000000,0.000000,0.000000,0.000000,0.000000,0.000000,0.002377,-0.000000,0.000000,-0.000000,-0.000000,0.000000,0.000000,-60.342862,-13.458687,1.595808,-0.292233,0.000271,0.756541,-0.188252,0.928632,0
537816475907141,-3.568699,1.230358,5.460606,-0.917459,-0.151442,0.000001,0.000000,0.000000,0.000000,0.000000,0.000000,0.000000,-0.000000,-0.000000,0.000000,-0.000000,-0.000000,0.000000,0.000000,-60.342922,-13.458734,1.595817,-0.292237,0.000271,0.756541,-0.188252,0.928632,0
537816476908646,-3.568698,1.230356,5.460606,-0.917458,-0.151443,0.000001,0.000000,0.000000,0.000000,0.000000,0.000000,0.000000,-0.000000,-0.000000,0.000000,-0.000000,-0.000000,0.000000,-0.000000,-60.342844,-13.458682,1.595811,-0.292231,0.000271,0.756541,-0.188252,0.928632,0
537816477907783,-3.568699,1.230356,5.460606,-0.917458,-0.151443,-0.000001,0.000000,0.000000,0.000000,0.000000,0.000000,0.000000,-0.000000,-0.000000,0.000000,-0.000000,-0.000000,0.000000,0.000000,-60.342831,-13.458682,1.595811,-0.292231,0.000271,0.756541,-0.188252,0.928632,0
537816478907873,-3.568698,1.230356,5.460607,-0.917458,-0.151441,0.000002,0.000000,0.000000,0.000000,0.000000,0.000000,0.000000,-0.000000,-0.000000,0.000000,-0.000000,-0.000000,0.002848,0.000000,-60.342850,-13.458701,1.595812,-0.292237,0.000271,0.756541,-0.188252,0.928632,0
537816479905371,-3.568699,1.230355,5.460607,-0.917458,-0.151442,0.000000,0.000000,0.000000,0.000000,0.000000,0.000000,0.000000,-0.000000,-0.000000,0.000000,-0.000000,-0.000000,0.000000,-0.000000,-60.342819,-13.458684,1.595810,-0.292233,0.000271,0.756541,-0.188252,0.928632,0
537816480907214,-3.568699,1.230356,5.460606,-0.917459,-0.151444,0.000000,0.000000,0.000000,0.000000,0.000000,0.000000,0.000000,-0.000000,-0.000000,0.000000,-0.000000,-0.000000,0.000000,0.000000,-60.342861,-13.458700,1.595813,-0.292229,0.000271,0.756541,-0.188252,0.928632,0
537816481907721,-3.568699,1.230356,5.460607,-0.917459,-0.151440,0.000001,0.000000,0.000000,0.000000,0.000000,0.000000,0.000000,-0.000000,-0.000000,0.000000,-0.000000,0.003797,0.000000,0.000000,-60.342884,-13.458722,1.595812,-0.292241,0.000271,0.756541,-0.188252,0.928632,0
537816482907201,-3.568698,1.230358,5.460604,-0.917459,-0.151440,0.000002,0.000000,0.000000,0.000000,0.000000,0.000000,0.000000,-0.000000,-0.000000,-0.002377,-0.000000,-0.000000,0.000000,0.000000,-60.342879,-13.458691,1.595807,-0.292238,0.000271,0.756541,-0.188252,0.928632,0
537816483907275,-3.568699,1.230356,5.460607,-0.917460,-0.151439,-0.000001,0.000000,0.000000,0.000000,0.000000,0.000000,0.000000,-0.000000,-0.002377,0.000000,-0.003797,-0.000000,-0.002848,0.000000,-60.342860,-13.458711,1.595807,-0.292241,0.000271,0.756541,-0.188252,0.928632,0
537816484904131,-3.568699,1.230356,5.460606,-0.917458,-0.151442,0.000000,0.000000,0.000000,0.000000,0.000000,0.000000,0.000000,-0.000000,-0.000000,0.000000,-0.000000,-0.002848,0.000000,-0.000000,-60.342861,-13.458699,1.595813,-0.292235,0.000271,0.756541,-0.188252,0.928632,0
537816485897574,-3.568698,1.230356,5.460606,-0.917458,-0.151441,0.000002,0.000000,0.000000,0.000000,0.000000,0.000000,0.000000,-0.000000,-0.000000,0.000000,-0.000000,-0.000000,0.000000,0.000000,-60.342819,-13.458670,1.595806,-0.292235,0.000271,0.756541,-0.188252,0.928632,0
537816486905280,-3.568700,1.230357,5.460606,-0.917459,-0.151441,-0.000002,0.000000,0.000000,0.000000,0.000000,0.000000,0.000000,-0.002377,-0.000000,0.000000,-0.000000,-0.000000,-0.003797,0.000000,-60.342895,-13.458720,1.595813,-0.292238,0.000271,0.756541,-0.188252,0.928632,0
537816487919083,-3.568698,1.230354,5.460607,-0.917461,-0.151441,-0.000001,0.000000,0.000000,0.000000,0.000000,0.000000,0.000000,-0.000000,-0.003169,0.000000,-0.000000,-0.000000,0.000000,0.000000,-60.342803,-13.458680,1.595801,-0.292232,0.000271,0.756541,-0.188252,0.928632,0
537816488908386,-3.568699,1.230357,5.460607,-0.917458,-0.151439,0.000000,0.000000,0.000000,0.000000,0.000000,0.000000,0.000000,-0.000000,0.003169,0.000000,0.002848,-0.000000,0.000000,-0.000000,-60.342911,-13.458736,1.595816,-0.292245,0.000271,0.756541,-0.188252,0.928632,0
537816489880614,-3.568700,1.230354,5.460608,-0.917460,-0.151438,0.000004,0.000000,0.000000,0.000000,0.000000,0.000000,0.000000,-0.002377,-0.003169,0.000000,-0.000000,-0.000000,0.003797,0.000000,-60.342820,-13.458698,1.595803,-0.292242,0.000271,0.756541,-0.188252,0.928632,0
537816490910463,-3.568699,1.230356,5.460607,-0.917459,-0.151441,0.000001,0.000000,0.000000,0.000000,0.000000,0.000000,0.000000,-0.000000,-0.000000,0.000000,-0.000000,-0.002848,-0.002848,0.000000,-60.342853,-13.458705,1.595810,-0.292237,0.000271,0.756541,-0.188252,0.928632,0
537816491880264,-3.568699,1.230357,5.460610,-0.917459,-0.151443,-0.000001,0.000000,0.000000,0.000000,0.000000,0.000000,0.000000,-0.000000,-0.000000,0.002377,-0.000000,-0.000000,0.000000,0.000000,-60.342954,-13.458779,1.595827,-0.292238,0.000271,0.756541,-0.188252,0.928632,0
537816492904480,-3.568699,1.230356,5.460609,-0.917458,-0.151439,0.000000,0.000000,0.000000,0.000000,0.000000,0.000000,0.000000,-0.000000,-0.000000,0.000000,-0.000000,0.003797,0.000000,0.000000,-60.342884,-13.458736,1.595816,-0.292245,0.000271,0.756541,-0.188252,0.928632,0
537816493904903,-3.568698,1.230356,5.460607,-0.917460,-0.151442,-0.000002,0.000000,0.000000,0.000000,0.000000,0.000000,0.000000,-0.000000,-0.000000,0.000000,-0.000000,-0.000000,0.000000,0.000000,-60.342855,-13.458706,1.595810,-0.292233,0.000271,0.756541,-0.188252,0.928632,0
537816494904713,-3.568698,1.230356,5.460606,-0.917457,-0.151441,0.000000,0.000000,0.000000,0.000000,0.000000,0.000000,0.000000,-0.000000,-0.000000,0.000000,0.003797,-0.002848,0.000000,0.000000,-60.342815,-13.458666,1.595808,-0.292236,0.000271,0.756541,-0.188252,0.928632,0
537816495882807,-3.568699,1.230355,5.460608,-0.917456,-0.151440,0.000002,0.000000,0.000000,0.000000,0.000000,0.000000,0.000000,-0.000000,-0.003962,0.002377,-0.000000,-0.000000,0.000000,0.000000,-60.342831,-13.458696,1.595815,-0.292242,0.000271,0.756541,-0.188252,0.928632,0
537816496883814,-3.568699,1.230357,5.460607,-0.917460,-0.151442,0.000000,0.000000,0.000000,0.000000,0.000000,0.000000,0.000000,-0.000000,0.002377,0.000000,-0.003797,-0.000000,0.000000,0.000000,-60.342913,-13.458738,1.595815,-0.292236,0.000271,0.756541,-0.188252,0.928632,0
537816497896668,-3.568699,1.230357,5.460606,-0.917459,-0.151441,0.000001,0.000000,0.000000,0.000000,0.000000,0.000000,0.000000,-0.000000,-0.000000,0.000000,-0.000000,-0.000000,0.000000,0.000000,-60.342895,-13.458720,1.595813,-0.292238,0.000271,0.756541,-0.188252,0.928632,0
537816498887852,-3.568699,1.230357,5.460607,-0.917460,-0.151441,-0.000001,0.000000,0.000000,0.000000,0.000000,0.000000,0.000000,-0.000000,-0.000000,0.000000,-0.000000,-0.000000,0.000000,0.000000,-60.342914,-13.458739,1.595815,-0.292239,0.000271,0.756541,-0.188252,0.928632,0
537816499883159,-3.568699,1.230355,5.460606,-0.917461,-0.151441,0.000001,0.000000,0.000000,0.000000,0.000000,0.000000,0.000000,-0.000000,-0.002377,0.000000,-0.000000,-0.000000,0.000000,-0.000000,-60.342816,-13.458680,1.595801,-0.292232,0.000271,0.756541,-0.188252,0.928632,0
537816500910137,-3.568697,1.230355,5.460606,-0.917460,-0.151440,0.000001,0.000000,0.000000,0.000000,0.000000,0.000000,0.000000,0.003169,-0.000000,0.000000,-0.000000,-0.000000,0.000000,0.000000,-60.342799,-13.458663,1.595799,-0.292234,0.000271,0.756541,-0.188252,0.928632,0
537816501881381,-3.568699,1.230358,5.460608,-0.917456,-0.151443,0.000001,0.000000,0.000000,0.000000,0.000000,0.000000,0.000000,-0.000000,0.003169,0.002377,0.003797,-0.002848,0.000000,0.000000,-60.342941,-13.458753,1.595829,-0.292240,0.000271,0.756541,-0.188252,0.928632,0
537816502906733,-3.568699,1.230356,5.460609,-0.917460,-0.151441,0.000001,0.000000,0.000000,0.000000,0.000000,0.000000,0.000000,-0.000000,-0.000000,0.000000,-0.003797,-0.000000,0.000000,-0.000000,-60.342917,-13.458755,1.595817,-0.292240,0.000271,0.756541,-0.188252,0.928632,0
537816503906036,-3.568698,1.230357,5.460608,-0.917457,-0.151440,-0.000001,0.000000,0.000000,0.000000,0.000000,0.000000,0.000000,-0.000000,-0.000000,0.000000,0.002848,-0.000000,0.000000,-0.000000,-60.342921,-13.458746,1.595822,-0.292245,0.000271,0.756541,-0.188252,0.928632,0
537816504913679,-3.568699,1.230356,5.460607,-0.917459,-0.151439,0.000000,0.000000,0.000000,0.000000,0.000000,0.000000,0.000000,-0.000000,-0.000000,0.000000,-0.000000,0.003797,0.000000,0.000000,-60.342885,-13.458724,1.595812,-0.292243,0.000271,0.756541,-0.188252,0.928632,0
537816505907221,-3.568698,1.230356,5.460607,-0.917459,-0.151440,-0.000002,0.000000,0.000000,0.000000,0.000000,0.000000,0.000000,-0.000000,-0.000000,0.000000,-0.000000,-0.000000,0.000000,0.000000,-60.342855,-13.458706,1.595810,-0.292239,0.000271,0.756541,-0.188252,0.928632,0
537816506905249,-3.568699,1.230356,5.460607,-0.917459,-0.151442,-0.000001,0.000000,0.000000,0.000000,0.000000,0.000000,0.000000,-0.000000,-0.000000,0.000000,-0.000000,-0.000000,0.000000,-0.000000,-60.342880,-13.458719,1.595814,-0.292235,0.000271,0.756541,-0.188252,0.928632,0
537816507904818,-3.568700,1.230357,5.460606,-0.917460,-0.151441,0.000000,0.000000,0.000000,0.000000,0.000000,0.000000,0.000000,-0.000000,-0.000000,0.000000,-0.000000,-0.000000,0.000000,0.000000,-60.342899,-13.458724,1.595812,-0.292237,0.000271,0.756541,-0.188252,0.928632,0
537816508901120,-3.568699,1.230356,5.460606,-0.917459,-0.151442,0.000000,0.000000,0.000000,0.000000,0.000000,0.000000,0.000000,-0.000000,-0.000000,0.000000,-0.000000,-0.000000,0.000000,0.000000,-60.342836,-13.458687,1.595808,-0.292233,0.000271,0.756541,-0.188252,0.928632,0
537816509907341,-3.568698,1.230356,5.460606,-0.917460,-0.151441,-0.000001,0.000000,0.000000,0.000000,0.000000,0.000000,0.000000,-0.000000,-0.000000,0.000000,-0.000000,-0.000000,0.000000,0.000000,-60.342870,-13.458708,1.595809,-0.292236,0.000271,0.756541,-0.188252,0.928632,0
537816510880783,-3.568699,1.230356,5.460607,-0.917459,-0.151440,-0.000001,0.000000,0.000000,0.000000,0.000000,0.000000,0.000000,-0.000000,-0.000000,0.000000,-0.000000,-0.000000,0.000000,0.000000,-60.342855,-13.458706,1.595810,-0.292239,0.000271,0.756541,-0.188252,0.928632,0
537816511905828,-3.568696,1.230356,5.460605,-0.917458,-0.151441,0.000000,0.000000,0.000000,0.000000,0.000000,0.000000,0.000000,0.003169,-0.000000,-0.002377,-0.000000,-0.000000,0.000000,-0.000000,-60.342803,-13.458654,1.595803,-0.292233,0.000271,0.756541,-0.188252,0.928632,0
537816512908054,-3.568699,1.230356,5.460606,-0.917457,-0.151440,0.000001,0.000000,0.000000,0.000000,0.000000,0.000000,0.000000,-0.000000,-0.000000,0.000000,-0.000000,-0.000000,0.000000,0.000000,-60.342845,-13.458684,1.595810,-0.292240,0.000271,0.756541,-0.188252,0.928632,0
537816513879903,-3.568698,1.230357,5.460606,-0.917460,-0.151444,0.000000,0.000000,0.000000,0.000000,0.000000,0.000000,0.000000,-0.000000,-0.000000,0.000000,-0.002848,-0.003797,0.000000,0.000000,-60.342894,-13.458719,1.595814,-0.292229,0.000271,0.756541,-0.188252,0.928632,0
537816514907660,-3.568699,1.230357,5.460607,-0.917457,-0.151441,0.000002,0.000000,0.000000,0.000000,0.000000,0.000000,0.000000,-0.000000,-0.000000,0.000000,0.002848,0.002848,0.000000,0.000000,-60.342904,-13.458729,1.595820,-0.292241,0.000271,0.756541,-0.188252,0.928632,0
537816515908354,-3.568699,1.230356,5.460609,-0.917460,-0.151442,0.000001,0.000000,0.000000,0.000000,0.000000,0.000000,0.000000,0.002377,-0.000000,0.000000,-0.002848,-0.000000,0.000000,-0.000000,-60.342915,-13.458753,1.595818,-0.292237,0.000271,0.756541,-0.188252,0.928632,0
537816516907566,-3.568699,1.230356,5.460607,-0.917458,-0.151442,0.000000,0.000000,0.000000,0.000000,0.000000,0.000000,0.000000,-0.000000,-0.000000,0.000000,-0.000000,-0.000000,0.000000,0.000000,-60.342877,-13.458715,1.595816,-0.292236,0.000271,0.756541,-0.188252,0.928632,0
537816517904320,-3.568699,1.230357,5.460606,-0.917457,-0.151443,-0.000002,0.000000,0.000000,0.000000,0.000000,0.000000,0.000000,-0.000000,-0.000000,0.000000,-0.000000,-0.000000,0.000000,0.000000,-60.342885,-13.458710,1.595818,-0.292235,0.000271,0.756541,-0.188252,0.928632,0
537816518904155,-3.568699,1.230356,5.460606,-0.917458,-0.151442,0.000001,0.000000,0.000000,0.000000,0.000000,0.000000,0.000000,-0.000000,-0.000000,0.000000,-0.000000,-0.000000,0.002848,-0.000000,-60.342832,-13.458684,1.595810,-0.292233,0.000271,0.756541,-0.188252,0.928632,0
537816519907990,-3.568700,1.230356,5.460606,-0.917458,-0.151442,0.000001,0.000000,0.000000,0.000000,0.000000,0.000000,0.000000,-0.000000,-0.000000,0.000000,-0.000000,-0.000000,0.000000,-0.000000,-60.342861,-13.458699,1.595813,-0.292235,0.000271,0.756541,-0.188252,0.928632,0
537816520904871,-3.568698,1.230357,5.460607,-0.917460,-0.151441,0.000001,0.000000,0.000000,0.000000,0.000000,0.000000,0.000000,0.002377,-0.000000,0.000000,-0.000000,-0.000000,0.000000,0.000000,-60.342914,-13.458739,1.595815,-0.292239,0.000271,0.756541,-0.188252,0.928632,0
537816521907859,-3.568698,1.230356,5.460609,-0.917458,-0.151441,0.000002,0.000000,0.000000,0.000000,0.000000,0.000000,0.000000,-0.000000,-0.000000,0.000000,-0.000000,-0.000000,0.000000,-0.000000,-60.342910,-13.458748,1.595821,-0.292242,0.000271,0.756541,-0.188252,0.928632,0
537816522905535,-3.568699,1.230356,5.460606,-0.917460,-0.151441,-0.000001,0.000000,0.000000,0.000000,0.000000,0.000000,0.000000,-0.000000,-0.000000,-0.002377,-0.000000,-0.000000,-0.002848,0.000000,-60.342870,-13.458708,1.595809,-0.292236,0.000271,0.756541,-0.188252,0.928632,0
537816523908887,-3.568698,1.230356,5.460609,-0.917459,-0.151441,0.000001,0.000000,0.000000,0.000000,0.000000,0.000000,0.000000,-0.000000,-0.000000,0.002377,-0.000000,-0.000000,0.000000,0.000000,-60.342884,-13.458736,1.595816,-0.292239,0.000271,0.756541,-0.188252,0.928632,0
537816524908263,-3.568699,1.230357,5.460609,-0.917459,-0.151443,0.000002,0.000000,0.000000,0.000000,0.000000,0.000000,0.000000,-0.000000,-0.000000,0.000000,-0.000000,-0.000000,0.000000,0.000000,-60.342939,-13.458764,1.595824,-0.292237,0.000271,0.756541,-0.188252,0.928632,0
537816525907185,-3.568698,1.230358,5.460606,-0.917461,-0.151444,0.000000,0.000000,0.000000,0.000000,0.000000,0.000000,0.000000,-0.000000,-0.000000,-0.003169,-0.000000,-0.000000,0.000000,-0.000000,-60.342910,-13.458722,1.595812,-0.292229,0.000271,0.756541,-0.188252,0.928632,0
537816526907358,-3.568699,1.230357,5.460606,-0.917457,-0.151444,0.000001,0.000000,0.000000,0.000000,0.000000,0.000000,0.000000,-0.000000,-0.000000,0.000000,0.003797,-0.003797,0.000000,0.000000,-60.342883,-13.458708,1.595819,-0.292232,0.000271,0.756541,-0.188252,0.928632,0
537816527906505,-3.568699,1.230358,5.460607,-0.917457,-0.151441,0.000000,0.000000,0.000000,0.000000,0.000000,0.000000,0.000000,-0.000000,-0.000000,0.000000,-0.000000,-0.000000,0.000000,0.000000,-60.342932,-13.458744,1.595823,-0.292243,0.000271,0.756541,-0.188252,0.928632,0
537816528912948,-3.568699,1.230356,5.460607,-0.917460,-0.151443,0.000000,0.000000,0.000000,0.000000,0.000000,0.000000,0.000000,-0.000000,-0.002377,0.000000,-0.002848,-0.000000,0.000000,0.000000,-60.342853,-13.458705,1.595810,-0.292231,0.000271,0.756541,-0.188252,0.928632,0
537816529881382,-3.568699,1.230357,5.460608,-0.917458,-0.151444,0.000000,0.000000,0.000000,0.000000,0.000000,0.000000,0.000000,-0.000000,-0.000000,0.000000,-0.000000,-0.000000,0.000000,-0.000000,-60.342918,-13.458743,1.595823,-0.292234,0.000271,0.756541,-0.188252,0.928632,0
537816530909526,-3.568700,1.230356,5.460607,-0.917457,-0.151441,0.000001,0.000000,0.000000,0.000000,0.000000,0.000000,0.000000,-0.000000,-0.000000,0.000000,-0.000000,0.002848,0.000000,0.000000,-60.342846,-13.458698,1.595814,-0.292238,0.000271,0.756541,-0.188252,0.928632,0
537816531907990,-3.568699,1.230358,5.460606,-0.917459,-0.151443,0.000001,0.000000,0.000000,0.000000,0.000000,0.000000,0.000000,-0.000000,0.002377,0.000000,-0.000000,-0.000000,0.000000,0.000000,-60.342921,-13.458732,1.595818,-0.292234,0.000271,0.756541,-0.188252,0.928632,0
537816532909930,-3.568699,1.230356,5.460606,-0.917457,-0.151443,0.000000,0.000000,0.000000,0.000000,0.000000,0.000000,0.000000,-0.000000,-0.000000,0.000000,-0.000000,-0.000000,0.000000,0.000000,-60.342856,-13.458694,1.595816,-0.292233,0.000271,0.756541,-0.188252,0.928632,0
537816533883950,-3.568699,1.230355,5.460607,-0.917459,-0.151442,0.000002,0.000000,0.000000,0.000000,0.000000,0.000000,0.000000,-0.000000,-0.002377,0.000000,-0.000000,-0.000000,0.000000,0.000000,-60.342823,-13.458687,1.595808,-0.292233,0.000271,0.756541,-0.188252,0.928632,0
537816534908438,-3.568697,1.230355,5.460607,-0.917460,-0.151443,0.000002,0.000000,0.000000,0.000000,0.000000,0.000000,0.000000,-0.000000,-0.000000,0.000000,-0.000000,-0.000000,0.000000,-0.000000,-60.342825,-13.458689,1.595807,-0.292229,0.000271,0.756541,-0.188252,0.928632,0
537816535881156,-3.568698,1.230356,5.460607,-0.917458,-0.151441,0.000001,0.000000,0.000000,0.000000,0.000000,0.000000,0.000000,-0.000000,-0.000000,0.000000,-0.000000,-0.000000,0.000000,0.000000,-60.342878,-13.458717,1.595815,-0.292239,0.000271,0.756541,-0.188252,0.928632,0
537816536905815,-3.568698,1.230356,5.460606,-0.917457,-0.151443,-0.000001,0.000000,0.000000,0.000000,0.000000,0.000000,0.000000,-0.000000,-0.000000,0.000000,-0.000000,-0.002848,0.000000,0.000000,-60.342856,-13.458694,1.595816,-0.292233,0.000271,0.756541,-0.188252,0.928632,0
537816537904763,-3.568699,1.230356,5.460606,-0.917458,-0.151442,-0.000001,0.000000,0.000000,0.000000,0.000000,0.000000,0.000000,-0.000000,-0.000000,0.000000,-0.000000,-0.000000,0.000000,-0.000000,-60.342861,-13.458699,1.595813,-0.292235,0.000271,0.756541,-0.188252,0.928632,0
537816538905128,-3.568700,1.230356,5.460606,-0.917457,-0.151442,-0.000001,0.000000,0.000000,0.000000,0.000000,0.000000,0.000000,-0.000000,-0.000000,0.000000,-0.000000,-0.000000,0.000000,0.000000,-60.342842,-13.458680,1.595812,-0.292234,0.000271,0.756541,-0.188252,0.928632,0
537816539905047,-3.568699,1.230356,5.460607,-0.917460,-0.151440,0.000003,0.000000,0.000000,0.000000,0.000000,0.000000,0.000000,-0.000000,-0.000000,0.000000,-0.002848,-0.000000,0.003797,0.000000,-60.342887,-13.458725,1.595811,-0.292240,0.000271,0.756541,-0.188252,0.928632,0
537816540910216,-3.568699,1.230358,5.460606,-0.917458,-0.151440,0.000000,0.000000,0.000000,0.000000,0.000000,0.000000,0.000000,-0.000000,-0.000000,0.000000,-0.000000,-0.000000,-0.002848,-0.000000,-60.342922,-13.458734,1.595817,-0.292243,0.000271,0.756541,-0.188252,0.928632,0
537816541904893,-3.568698,1.230356,5.460607,-0.917459,-0.151444,-0.000003,0.000000,0.000000,0.000000,0.000000,0.000000,0.000000,0.002377,-0.002377,0.000000,-0.000000,-0.000000,-0.002848,0.000000,-60.342848,-13.458700,1.595813,-0.292229,0.000271,0.756541,-0.188252,0.928632,0
537816542906974,-3.568699,1.230357,5.460607,-0.917459,-0.151443,-0.000001,0.000000,0.000000,0.000000,0.000000,0.000000,0.000000,-0.002377,-0.000000,0.000000,-0.000000,-0.000000,0.000000,0.000000,-60.342907,-13.458732,1.595818,-0.292234,0.000271,0.756541,-0.188252,0.928632,0
537816543903719,-3.568699,1.230356,5.460606,-0.917459,-0.151440,0.000002,0.000000,0.000000,0.000000,0.000000,0.000000,0.000000,-0.000000,-0.000000,0.000000,-0.000000,-0.000000,0.000000,0.000000,-60.342839,-13.458691,1.595807,-0.292238,0.000271,0.756541,-0.188252,0.928632,0
537816544905575,-3.568698,1.230355,5.460606,-0.917456,-0.151442,0.000001,0.000000,0.000000,0.000000,0.000000,0.000000,0.000000,-0.000000,-0.000000,0.000000,-0.000000,-0.000000,0.000000,-0.000000,-60.342797,-13.458661,1.595811,-0.292234,0.000271,0.756541,-0.188252,0.928632,0
537816545910252,-3.568698,1.230356,5.460607,-0.917460,-0.151443,0.000004,0.000000,0.000000,0.000000,0.000000,0.000000,0.000000,-0.000000,-0.000000,0.000000,-0.003797,-0.000000,0.002848,0.000000,-60.342882,-13.458720,1.595813,-0.292232,0.000271,0.756541,-0.188252,0.928632,0
