jieun02-kim/RAON-RT-Revision/App/Indy7/rt_log_results/plotted_csv/DataLog_20260423_113410.csv
timestamp_ns,q0,q1,q2,q3,q4,q5,q_ref0,q_ref1,q_ref2,q_ref3,q_ref4,q_ref5,qd0,qd1,qd2,qd3,qd4,qd5,tau0,tau1,tau2,tau3,tau4,tau5,tcp_x,tcp_y,tcp_z,ctrl_mode
574763936528891,-5.612989,-0.325746,6.637170,1.153425,-0.010583,-0.000001,-5.645982,-0.308703,6.579559,1.501821,0.156907,2.036571,-0.008716,0.014262,-0.027732,0.002848,-0.004746,0.000000,-10.532489,32.015850,-0.050460,2.967819,0.423496,0.146687,0.278769,0.124639,1.308343,4
574763937526380,-5.613000,-0.325733,6.637143,1.153429,-0.010589,-0.000001,-5.646000,-0.308686,6.579523,1.502021,0.156899,2.036655,-0.010300,0.014262,-0.027732,0.004746,-0.005695,0.000000,-10.435910,31.962980,-0.066287,2.991247,0.415578,0.146770,0.278772,0.124640,1.308343,4
574763938525461,-5.613010,-0.325719,6.637114,1.153429,-0.010593,0.000000,-5.646018,-0.308670,6.579486,1.502221,0.156891,2.036739,-0.010300,0.013470,-0.028524,0.003797,-0.005695,0.000000,-10.455457,32.309675,0.069838,2.984626,0.421543,0.146804,0.278775,0.124639,1.308343,4
574763939481108,-5.613020,-0.325705,6.637086,1.153430,-0.010596,-0.000001,-5.646037,-0.308654,6.579450,1.502421,0.156883,2.036824,-0.010300,0.014262,-0.028524,-0.000000,-0.003797,0.000000,-10.412725,31.996061,-0.049356,3.008205,0.409990,0.146879,0.278778,0.124639,1.308343,4
574763940523642,-5.613028,-0.325690,6.637056,1.153429,-0.010604,-0.000001,-5.646055,-0.308638,6.579414,1.502621,0.156874,2.036908,-0.007923,0.015847,-0.030109,-0.000000,-0.007594,0.000000,-10.532473,31.650168,-0.162774,2.984913,0.419561,0.146783,0.278780,0.124640,1.308343,4
574763941480032,-5.613038,-0.325675,6.637029,1.153431,-0.010608,-0.000001,-5.646074,-0.308622,6.579377,1.502821,0.156866,2.036992,-0.009508,0.014262,-0.026940,-0.000000,-0.006645,0.000000,-10.452680,31.868666,-0.119277,3.007302,0.410833,0.146889,0.278781,0.124638,1.308343,4
574763942480159,-5.613046,-0.325663,6.637000,1.153433,-0.010614,0.000000,-5.646092,-0.308606,6.579341,1.503021,0.156858,2.037077,-0.009508,0.014262,-0.027732,-0.000000,-0.003797,0.002848,-10.453004,31.936826,-0.086623,3.008836,0.409444,0.146897,0.278786,0.124640,1.308342,4
574763943524868,-5.613056,-0.325644,6.636972,1.153435,-0.010616,-0.000002,-5.646110,-0.308590,6.579305,1.503221,0.156850,2.037161,-0.008716,0.016639,-0.026940,-0.000000,-0.002848,0.000000,-10.426828,31.005638,-0.443225,3.033024,0.392430,0.146907,0.278785,0.124637,1.308344,4
574763944528975,-5.613064,-0.325629,6.636940,1.153438,-0.010621,-0.000003,-5.646129,-0.308574,6.579269,1.503421,0.156842,2.037246,-0.007131,0.015847,-0.030901,-0.000000,-0.004746,0.000000,-10.574412,31.704547,-0.140512,2.985105,0.419162,0.146842,0.278788,0.124639,1.308343,4
574763945524627,-5.613074,-0.325614,6.636912,1.153438,-0.010627,-0.000002,-5.646147,-0.308558,6.579233,1.503621,0.156833,2.037330,-0.010300,0.015847,-0.027732,-0.000000,-0.005695,0.000000,-10.349450,31.290259,-0.325595,3.050823,0.391643,0.147033,0.278790,0.124638,1.308343,4
574763946479616,-5.613082,-0.325598,6.636883,1.153440,-0.010631,-0.000002,-5.646166,-0.308542,6.579197,1.503821,0.156825,2.037414,-0.007131,0.014262,-0.029317,0.002848,-0.005695,0.000000,-10.615671,32.122570,-0.006752,2.972156,0.426808,0.146853,0.278791,0.124637,1.308344,4
574763947479679,-5.613092,-0.325582,6.636849,1.153442,-0.010635,-0.000003,-5.646184,-0.308526,6.579161,1.504021,0.156817,2.037499,-0.009508,0.015847,-0.034071,-0.000000,-0.005695,0.000000,-10.431417,31.863221,-0.039373,3.020801,0.411481,0.147034,0.278795,0.124638,1.308343,4
574763948524277,-5.613100,-0.325562,6.636819,1.153443,-0.010639,-0.000002,-5.646202,-0.308510,6.579124,1.504221,0.156809,2.037583,-0.008716,0.019809,-0.030109,-0.000000,-0.004746,0.000000,-10.343304,30.074253,-0.751186,3.076217,0.374534,0.147035,0.278794,0.124636,1.308344,4
574763949525888,-5.613108,-0.325546,6.636791,1.153443,-0.010642,0.000000,-5.646221,-0.308494,6.579088,1.504421,0.156801,2.037667,-0.009508,0.016639,-0.030109,-0.000000,-0.002848,0.000000,-10.376526,31.174850,-0.345465,3.055173,0.389503,0.147091,0.278795,0.124634,1.308345,4
574763950514616,-5.613117,-0.325530,6.636759,1.153446,-0.010647,-0.000002,-5.646239,-0.308478,6.579052,1.504621,0.156792,2.037752,-0.008716,0.016639,-0.031694,0.002848,-0.004746,0.000000,-10.447046,31.346537,-0.263272,3.032138,0.401350,0.147038,0.278797,0.124634,1.308345,4
574763951479174,-5.613126,-0.325510,6.636725,1.153447,-0.010651,0.000000,-5.646258,-0.308462,6.579017,1.504821,0.156784,2.037836,-0.008716,0.017432,-0.030901,-0.000000,-0.004746,0.000000,-10.405147,30.952855,-0.419805,3.055655,0.390021,0.147101,0.278797,0.124633,1.308346,4
574763952524297,-5.613134,-0.325492,6.636693,1.153449,-0.010653,0.000001,-5.646276,-0.308446,6.578981,1.505021,0.156776,2.037920,-0.008716,0.017432,-0.032486,-0.000000,-0.002848,0.000000,-10.408842,31.073961,-0.356833,3.054350,0.391292,0.147124,0.278799,0.124632,1.308346,4
574763953517228,-5.613142,-0.325473,6.636659,1.153452,-0.010660,-0.000003,-5.646294,-0.308430,6.578945,1.505221,0.156768,2.038005,-0.007131,0.019016,-0.033279,0.002848,-0.006645,-0.003797,-10.483869,30.626470,-0.513767,3.039927,0.396090,0.147056,0.278800,0.124632,1.308347,4
574763954520596,-5.613151,-0.325455,6.636628,1.153453,-0.010664,-0.000002,-5.646313,-0.308414,6.578909,1.505421,0.156760,2.038089,-0.007923,0.019016,-0.031694,-0.000000,-0.005695,0.000000,-10.407366,30.420716,-0.609654,3.070047,0.382669,0.147137,0.278800,0.124630,1.308347,4
574763955524805,-5.613160,-0.325435,6.636591,1.153457,-0.010670,-0.000003,-5.646331,-0.308398,6.578873,1.505621,0.156751,2.038173,-0.007131,0.018224,-0.035656,0.004746,-0.003797,-0.003797,-10.516359,31.084772,-0.316212,3.025988,0.404381,0.147078,0.278802,0.124631,1.308347,4
574763956523496,-5.613168,-0.325415,6.636559,1.153459,-0.010672,0.000001,-5.646349,-0.308382,6.578837,1.505821,0.156743,2.038258,-0.007923,0.019809,-0.032486,-0.000000,-0.002848,0.003797,-10.379682,30.151775,-0.700451,3.085793,0.373881,0.147166,0.278802,0.124629,1.308348,4
574763957517917,-5.613177,-0.325397,6.636527,1.153458,-0.010675,-0.000002,-5.646368,-0.308367,6.578801,1.506021,0.156735,2.038342,-0.009508,0.018224,-0.031694,-0.000000,-0.002848,-0.002848,-10.313272,30.574852,-0.551017,3.098877,0.372408,0.147308,0.278803,0.124627,1.308349,4
574763958522979,-5.613186,-0.325377,6.636493,1.153461,-0.010683,-0.000002,-5.646386,-0.308351,6.578766,1.506221,0.156727,2.038426,-0.008716,0.019809,-0.036448,0.003797,-0.007594,0.000000,-10.363317,30.452935,-0.536035,3.079126,0.384949,0.147225,0.278804,0.124627,1.308350,4
574763959520863,-5.613195,-0.325356,6.636460,1.153463,-0.010683,-0.000002,-5.646404,-0.308335,6.578730,1.506421,0.156718,2.038511,-0.010300,0.021393,-0.031694,-0.000000,-0.000000,-0.004746,-10.161782,29.334870,-1.008002,3.159518,0.339536,0.147419,0.278803,0.124623,1.308351,4
574763960521198,-5.613203,-0.325335,6.636423,1.153467,-0.010688,0.000000,-5.646423,-0.308319,6.578694,1.506621,0.156710,2.038595,-0.008716,0.020601,-0.036448,0.003797,-0.004746,0.000000,-10.329236,30.102689,-0.666542,3.098569,0.373646,0.147278,0.278804,0.124623,1.308351,4
574763961524986,-5.613212,-0.325316,6.636386,1.153469,-0.010693,-0.000002,-5.646441,-0.308303,6.578659,1.506821,0.156702,2.038679,-0.008716,0.019809,-0.037240,-0.000000,-0.005695,0.000000,-10.338581,30.425271,-0.538940,3.098339,0.378325,0.147346,0.278806,0.124623,1.308352,4
574763962480883,-5.613220,-0.325297,6.636350,1.153474,-0.010696,-0.000002,-5.646460,-0.308288,6.578623,1.507021,0.156694,2.038764,-0.007923,0.019016,-0.035656,0.004746,-0.002848,0.000000,-10.415707,30.595154,-0.496839,3.076036,0.383970,0.147271,0.278808,0.124623,1.308352,4
574763963524568,-5.613229,-0.325276,6.636313,1.153477,-0.010700,-0.000002,-5.646478,-0.308272,6.578587,1.507221,0.156686,2.038848,-0.009508,0.020601,-0.037240,0.002848,-0.003797,0.000000,-10.267537,30.071751,-0.666604,3.122150,0.365901,0.147403,0.278809,0.124622,1.308352,4
574763964524454,-5.613237,-0.325255,6.636276,1.153478,-0.010705,-0.000002,-5.646496,-0.308256,6.578552,1.507421,0.156677,2.038932,-0.007923,0.021393,-0.037240,-0.000000,-0.004746,0.000000,-10.333275,29.806136,-0.769157,3.117004,0.366915,0.147383,0.278810,0.124622,1.308353,4
574763965527539,-5.613245,-0.325236,6.636239,1.153480,-0.010707,0.000001,-5.646515,-0.308241,6.578516,1.507621,0.156669,2.039017,-0.007923,0.020601,-0.039617,0.003797,-0.003797,0.000000,-10.380224,30.300174,-0.556107,3.093135,0.379923,0.147355,0.278813,0.124622,1.308353,4
574763966524528,-5.613255,-0.325214,6.636201,1.153481,-0.010713,-0.000002,-5.646533,-0.308225,6.578481,1.507821,0.156661,2.039101,-0.010300,0.021393,-0.036448,-0.000000,-0.006645,0.000000,-10.170652,29.603348,-0.846756,3.164163,0.350254,0.147554,0.278814,0.124621,1.308354,4
574763967527595,-5.613263,-0.325193,6.636163,1.153486,-0.010713,-0.000002,-5.646551,-0.308209,6.578446,1.508021,0.156653,2.039185,-0.007923,0.021393,-0.038825,-0.000000,-0.000000,0.000000,-10.326192,29.865453,-0.728553,3.125067,0.362854,0.147456,0.278815,0.124620,1.308354,4
574763968529417,-5.613274,-0.325173,6.636125,1.153487,-0.010719,0.000000,-5.646570,-0.308194,6.578410,1.508221,0.156645,2.039270,-0.011093,0.019809,-0.037240,0.002848,-0.005695,0.000000,-10.170107,30.178895,-0.621153,3.156103,0.357730,0.147604,0.278818,0.124620,1.308354,4
574763969528973,-5.613282,-0.325151,6.636086,1.153492,-0.010721,-0.000003,-5.646588,-0.308178,6.578375,1.508421,0.156636,2.039354,-0.007923,0.022186,-0.038825,0.004746,-0.000000,-0.002848,-10.313650,29.544898,-0.843907,3.131263,0.358117,0.147466,0.278818,0.124619,1.308355,4
574763970527063,-5.613291,-0.325127,6.636048,1.153493,-0.010727,0.000000,-5.646606,-0.308163,6.578340,1.508621,0.156628,2.039438,-0.008716,0.023770,-0.038033,-0.000000,-0.006645,0.002848,-10.197238,28.825963,-1.116123,3.178011,0.341344,0.147559,0.278818,0.124617,1.308356,4
574763971524676,-5.613299,-0.325108,6.636010,1.153498,-0.010727,-0.000002,-5.646625,-0.308147,6.578304,1.508821,0.156620,2.039523,-0.008716,0.019016,-0.038825,0.004746,-0.000000,0.000000,-10.343498,30.609059,-0.448726,3.113360,0.373509,0.147530,0.278821,0.124617,1.308356,4
574763972526066,-5.613310,-0.325087,6.635969,1.153499,-0.010731,0.000000,-5.646643,-0.308131,6.578269,1.509021,0.156612,2.039607,-0.011093,0.020601,-0.040410,-0.000000,-0.003797,0.000000,-10.135427,30.051972,-0.628617,3.177374,0.351434,0.147737,0.278824,0.124617,1.308356,4
574763973525672,-5.613319,-0.325068,6.635933,1.153502,-0.010736,0.000000,-5.646661,-0.308116,6.578234,1.509221,0.156603,2.039691,-0.008716,0.019016,-0.036448,0.002848,-0.004746,0.000000,-10.319158,30.355636,-0.569727,3.132245,0.367694,0.147604,0.278827,0.124617,1.308356,4
574763974525297,-5.613330,-0.325046,6.635891,1.153507,-0.010741,0.000000,-5.646680,-0.308100,6.578199,1.509421,0.156595,2.039776,-0.011093,0.022186,-0.041994,0.006645,-0.003797,0.000000,-10.117430,29.598401,-0.772162,3.182194,0.346980,0.147707,0.278829,0.124618,1.308356,4
574763975524447,-5.613339,-0.325029,6.635853,1.153507,-0.010745,0.000000,-5.646698,-0.308085,6.578164,1.509621,0.156587,2.039860,-0.008716,0.017432,-0.038033,-0.000000,-0.003797,0.000000,-10.352172,31.018480,-0.305923,3.122056,0.377903,0.147683,0.278834,0.124619,1.308355,4
574763976526810,-5.613348,-0.325009,6.635814,1.153510,-0.010746,-0.000001,-5.646716,-0.308069,6.578129,1.509821,0.156579,2.039944,-0.008716,0.019809,-0.038825,0.002848,-0.000000,0.000000,-10.293623,30.211844,-0.593192,3.146695,0.360377,0.147680,0.278837,0.124619,1.308355,4
574763977524622,-5.613358,-0.324988,6.635774,1.153512,-0.010750,0.000000,-5.646735,-0.308054,6.578093,1.510021,0.156570,2.040029,-0.010300,0.020601,-0.039617,-0.000000,-0.003797,0.000000,-10.162158,29.907810,-0.690800,3.187009,0.347871,0.147821,0.278839,0.124619,1.308356,4
574763978526527,-5.613368,-0.324969,6.635737,1.153518,-0.010755,-0.000001,-5.646753,-0.308039,6.578058,1.510221,0.156562,2.040113,-0.010300,0.019809,-0.037240,0.003797,-0.004746,0.000000,-10.182576,29.977567,-0.692096,3.180764,0.349587,0.147799,0.278841,0.124619,1.308356,4
574763979518688,-5.613374,-0.324950,6.635697,1.153521,-0.010760,-0.000001,-5.646771,-0.308023,6.578023,1.510421,0.156554,2.040197,-0.006339,0.018224,-0.040410,0.002848,-0.004746,0.000000,-10.495085,30.966815,-0.297652,3.092083,0.391154,0.147623,0.278846,0.124622,1.308355,4
574763980524567,-5.613385,-0.324932,6.635655,1.153524,-0.010764,0.000000,-5.646790,-0.308008,6.577989,1.510621,0.156546,2.040282,-0.010300,0.018224,-0.041994,0.002848,-0.004746,0.000000,-10.246229,30.948676,-0.273973,3.151921,0.371462,0.147849,0.278851,0.124625,1.308354,4
574763981531257,-5.613396,-0.324913,6.635616,1.153527,-0.010769,-0.000001,-5.646808,-0.307992,6.577954,1.510821,0.156537,2.040366,-0.008716,0.019016,-0.042787,0.002848,-0.006645,0.000000,-10.327624,30.776453,-0.330301,3.136328,0.377816,0.147794,0.278855,0.124625,1.308354,4
574763982524386,-5.613406,-0.324895,6.635573,1.153529,-0.010772,0.000001,-5.646827,-0.307977,6.577919,1.511021,0.156529,2.040450,-0.010300,0.018224,-0.042787,-0.000000,-0.002848,0.000000,-10.229212,30.975429,-0.254515,3.164301,0.367417,0.147934,0.278861,0.124627,1.308353,4
574763983480154,-5.613417,-0.324877,6.635531,1.153535,-0.010775,-0.000003,-5.646845,-0.307962,6.577884,1.511221,0.156521,2.040534,-0.011093,0.017432,-0.041994,0.005695,-0.002848,-0.003797,-10.215011,31.176839,-0.184510,3.159929,0.369689,0.147951,0.278868,0.124630,1.308351,4
574763984516301,-5.613428,-0.324859,6.635490,1.153538,-0.010780,-0.000001,-5.646863,-0.307946,6.577849,1.511421,0.156513,2.040619,-0.010300,0.018224,-0.041202,0.003797,-0.004746,0.000000,-10.230367,30.832321,-0.322483,3.167054,0.365888,0.147938,0.278873,0.124632,1.308350,4
574763985519911,-5.613438,-0.324843,6.635445,1.153538,-0.010782,-0.000001,-5.646882,-0.307931,6.577815,1.511621,0.156504,2.040703,-0.010300,0.015847,-0.044371,-0.000000,-0.002848,0.000000,-10.295559,31.957805,0.130705,3.139464,0.386091,0.148001,0.278882,0.124636,1.308348,4
574763986527995,-5.613447,-0.324825,6.635403,1.153541,-0.010788,0.000001,-5.646900,-0.307916,6.577780,1.511821,0.156496,2.040787,-0.011885,0.018224,-0.043579,-0.000000,-0.006645,0.002848,-10.124017,30.962489,-0.239759,3.197369,0.360508,0.148095,0.278887,0.124639,1.308347,4
574763987539769,-5.613458,-0.324805,6.635361,1.153546,-0.010792,0.000000,-5.646918,-0.307900,6.577745,1.512021,0.156488,2.040871,-0.011885,0.019809,-0.041202,0.002848,-0.004746,0.002848,-10.070779,30.167205,-0.560588,3.223656,0.341873,0.148093,0.278892,0.124641,1.308347,4
574763988479653,-5.613467,-0.324790,6.635316,1.153548,-0.010796,-0.000002,-5.646937,-0.307885,6.577711,1.512221,0.156480,2.040956,-0.008716,0.015055,-0.045164,-0.000000,-0.003797,0.000000,-10.417286,32.353264,0.286514,3.110934,0.401575,0.147989,0.278901,0.124646,1.308344,4
574763989478988,-5.613477,-0.324770,6.635272,1.153549,-0.010801,-0.000002,-5.646955,-0.307870,6.577676,1.512421,0.156471,2.041040,-0.009508,0.020601,-0.043579,-0.000000,-0.003797,0.000000,-10.198048,30.153456,-0.540955,3.200250,0.351903,0.148072,0.278906,0.124648,1.308344,4
574763990524165,-5.613488,-0.324751,6.635227,1.153553,-0.010806,0.000000,-5.646974,-0.307855,6.577641,1.512621,0.156463,2.041124,-0.009508,0.017432,-0.045956,0.003797,-0.005695,0.000000,-10.314030,31.523758,-0.002359,3.145887,0.384920,0.148038,0.278913,0.124652,1.308342,4
574763991520315,-5.613497,-0.324737,6.635186,1.153556,-0.010810,-0.000001,-5.646992,-0.307839,6.577607,1.512821,0.156455,2.041209,-0.009508,0.017432,-0.044371,0.004746,-0.004746,0.000000,-10.306474,31.388191,-0.071047,3.153007,0.379774,0.148052,0.278921,0.124656,1.308340,4
574763992479084,-5.613509,-0.324720,6.635141,1.153558,-0.010816,-0.000001,-5.647010,-0.307824,6.577573,1.513021,0.156447,2.041293,-0.011885,0.017432,-0.045164,-0.000000,-0.005695,0.000000,-10.136801,31.347056,-0.070703,3.201834,0.364554,0.148257,0.278929,0.124660,1.308339,4
574763993519810,-5.613519,-0.324701,6.635091,1.153560,-0.010818,0.000000,-5.647029,-0.307809,6.577538,1.513221,0.156438,2.041377,-0.012678,0.015847,-0.047541,-0.000000,-0.002848,0.000000,-10.137802,32.091529,0.236381,3.190822,0.374220,0.148316,0.278938,0.124664,1.308337,4
574763994523167,-5.613529,-0.324683,6.635047,1.153563,-0.010821,0.000000,-5.647047,-0.307794,6.577504,1.513421,0.156430,2.041461,-0.009508,0.017432,-0.044371,0.002848,-0.003797,0.000000,-10.288917,31.360927,-0.076954,3.167862,0.375000,0.148151,0.278945,0.124668,1.308335,4
574763995523152,-5.613540,-0.324668,6.635005,1.153565,-0.010828,-0.000002,-5.647066,-0.307778,6.577470,1.513621,0.156422,2.041545,-0.010300,0.015847,-0.047541,-0.000000,-0.006645,0.000000,-10.289760,32.182697,0.268075,3.157358,0.390284,0.148242,0.278953,0.124672,1.308333,4
574763996519730,-5.613551,-0.324648,6.634956,1.153567,-0.010831,-0.000001,-5.647084,-0.307763,6.577435,1.513821,0.156413,2.041630,-0.011093,0.018224,-0.047541,-0.000000,-0.002848,0.000000,-10.164105,31.273894,-0.064254,3.204241,0.364069,0.148317,0.278961,0.124675,1.308331,4
574763997529322,-5.613562,-0.324631,6.634914,1.153571,-0.010838,-0.000002,-5.647102,-0.307748,6.577401,1.514021,0.156405,2.041714,-0.011093,0.017432,-0.041994,0.003797,-0.006645,0.000000,-10.170556,31.080505,-0.199897,3.208115,0.360241,0.148297,0.278967,0.124679,1.308330,4
574763998481512,-5.613573,-0.324615,6.634869,1.153573,-0.010840,-0.000001,-5.647121,-0.307733,6.577367,1.514221,0.156397,2.041798,-0.010300,0.015847,-0.044371,-0.000000,-0.002848,0.000000,-10.257980,31.874450,0.118687,3.181672,0.375410,0.148323,0.278976,0.124683,1.308328,4
574763999522904,-5.613584,-0.324600,6.634823,1.153576,-0.010846,-0.000001,-5.647139,-0.307718,6.577333,1.514421,0.156388,2.041882,-0.011093,0.015055,-0.045956,0.003797,-0.005695,0.000000,-10.254433,32.298799,0.301136,3.170460,0.385916,0.148336,0.278986,0.124689,1.308326,4
574764000479570,-5.613595,-0.324583,6.634779,1.153575,-0.010851,0.000001,-5.647158,-0.307703,6.577299,1.514621,0.156380,2.041967,-0.011093,0.017432,-0.044371,-0.000000,-0.004746,0.000000,-10.159064,31.272967,-0.097226,3.218513,0.359887,0.148417,0.278994,0.124692,1.308324,4
574764001479519,-5.613606,-0.324568,6.634736,1.153579,-0.010856,0.000000,-5.647176,-0.307688,6.577265,1.514821,0.156372,2.042051,-0.011885,0.015847,-0.045956,-0.000000,-0.008543,0.000000,-10.163354,31.967444,0.183039,3.206595,0.373949,0.148475,0.279002,0.124696,1.308322,4
574764002480897,-5.613615,-0.324549,6.634687,1.153580,-0.010857,-0.000001,-5.647195,-0.307673,6.577231,1.515021,0.156363,2.042135,-0.009508,0.018224,-0.046748,-0.000000,-0.000000,0.000000,-10.242173,31.246003,-0.079984,3.202674,0.363948,0.148387,0.279011,0.124700,1.308320,4
574764003519460,-5.613627,-0.324536,6.634642,1.153582,-0.010862,0.000001,-5.647213,-0.307658,6.577197,1.515221,0.156355,2.042219,-0.011093,0.014262,-0.048333,-0.000000,-0.006645,0.000000,-10.265659,32.785895,0.515382,3.172688,0.393335,0.148477,0.279022,0.124707,1.308317,4
574764004527394,-5.613639,-0.324519,6.634596,1.153587,-0.010866,-0.000003,-5.647232,-0.307643,6.577163,1.515421,0.156347,2.042303,-0.011885,0.016639,-0.045956,0.004746,-0.003797,-0.003797,-10.146942,31.695705,0.088811,3.216425,0.365317,0.148518,0.279031,0.124711,1.308315,4
574764005521160,-5.613649,-0.324503,6.634549,1.153590,-0.010872,0.000001,-5.647250,-0.307628,6.577129,1.515621,0.156338,2.042388,-0.009508,0.015847,-0.046748,0.002848,-0.005695,0.003797,-10.319783,32.141345,0.258773,3.172406,0.386911,0.148395,0.279041,0.124717,1.308312,4
574764006525403,-5.613661,-0.324487,6.634502,1.153592,-0.010875,-0.000002,-5.647268,-0.307613,6.577095,1.515821,0.156330,2.042472,-0.010300,0.015847,-0.047541,0.004746,-0.000000,0.000000,-10.271371,32.179692,0.285442,3.183700,0.379642,0.148461,0.279050,0.124722,1.308310,4
574764007479987,-5.613672,-0.324474,6.634457,1.153592,-0.010881,-0.000001,-5.647287,-0.307598,6.577061,1.516021,0.156322,2.042556,-0.011093,0.012678,-0.045164,-0.000000,-0.006645,0.000000,-10.283155,33.093704,0.597028,3.177334,0.393657,0.148576,0.279062,0.124729,1.308307,4
574764008527184,-5.613684,-0.324456,6.634409,1.153596,-0.010882,0.000003,-5.647305,-0.307583,6.577028,1.516221,0.156313,2.042640,-0.011885,0.018224,-0.047541,0.003797,-0.000000,0.003797,-10.093877,31.262745,-0.045493,3.245711,0.351432,0.148589,0.279071,0.124732,1.308305,4
574764009518123,-5.613695,-0.324440,6.634362,1.153600,-0.010887,0.000000,-5.647324,-0.307568,6.576994,1.516421,0.156305,2.042724,-0.011093,0.015847,-0.046748,0.003797,-0.004746,-0.002848,-10.209845,32.094316,0.253039,3.207765,0.374893,0.148604,0.279080,0.124738,1.308303,4
574764010492720,-5.613705,-0.324426,6.634316,1.153603,-0.010890,-0.000001,-5.647342,-0.307553,6.576960,1.516621,0.156297,2.042808,-0.011885,0.015847,-0.048333,0.003797,-0.002848,0.002848,-10.164742,32.211963,0.319140,3.217748,0.372339,0.148635,0.279091,0.124744,1.308300,4
574764011541142,-5.613716,-0.324408,6.634266,1.153603,-0.010894,-0.000001,-5.647361,-0.307538,6.576927,1.516821,0.156288,2.042893,-0.011093,0.017432,-0.046748,0.003797,-0.002848,0.000000,-10.158843,31.521431,0.045255,3.233798,0.360529,0.148643,0.279100,0.124748,1.308298,4
574764012526290,-5.613729,-0.324393,6.634218,1.153605,-0.010899,-0.000002,-5.647379,-0.307523,6.576893,1.517021,0.156280,2.042977,-0.012678,0.014262,-0.048333,-0.000000,-0.000000,0.000000,-10.134208,32.741781,0.518222,3.228071,0.372129,0.148786,0.279112,0.124754,1.308294,4
574764013526592,-5.613739,-0.324375,6.634173,1.153610,-0.010903,-0.000001,-5.647398,-0.307508,6.576860,1.517221,0.156271,2.043061,-0.011885,0.018224,-0.046748,0.004746,-0.003797,0.000000,-10.084936,31.212072,-0.062216,3.259127,0.350566,0.148723,0.279120,0.124758,1.308293,4
574764014528247,-5.613750,-0.324358,6.634123,1.153611,-0.010907,-0.000002,-5.647417,-0.307493,6.576826,1.517421,0.156263,2.043145,-0.011885,0.016639,-0.045956,-0.000000,-0.000000,0.000000,-10.099542,31.692496,0.104084,3.259620,0.351841,0.148805,0.279130,0.124764,1.308290,4
574764015523283,-5.613763,-0.324343,6.634080,1.153615,-0.010912,0.000000,-5.647435,-0.307478,6.576793,1.517621,0.156255,2.043229,-0.012678,0.017432,-0.044371,0.004746,-0.004746,0.000000,-10.037832,31.263400,-0.066555,3.276868,0.344683,0.148814,0.279139,0.124768,1.308288,4
574764016523333,-5.613773,-0.324328,6.634034,1.153615,-0.010915,0.000000,-5.647454,-0.307463,6.576759,1.517821,0.156246,2.043313,-0.010300,0.015847,-0.045956,-0.000000,-0.003797,0.000000,-10.221982,32.048693,0.236090,3.229099,0.369031,0.148770,0.279149,0.124773,1.308286,4
574764017526748,-5.613785,-0.324311,6.633988,1.153619,-0.010922,0.000001,-5.647472,-0.307448,6.576726,1.518021,0.156238,2.043397,-0.011885,0.016639,-0.046748,0.003797,-0.006645,0.000000,-10.117511,31.792582,0.160040,3.252919,0.361281,0.148830,0.279158,0.124778,1.308284,4
574764018526983,-5.613795,-0.324294,6.633942,1.153619,-0.010924,-0.000001,-5.647491,-0.307433,6.576693,1.518221,0.156229,2.043481,-0.010300,0.016639,-0.045164,-0.000000,-0.000000,0.000000,-10.185332,31.681214,0.093080,3.250175,0.356066,0.148826,0.279166,0.124781,1.308282,4
574764019480142,-5.613807,-0.324277,6.633896,1.153623,-0.010928,-0.000001,-5.647509,-0.307418,6.576659,1.518421,0.156221,2.043565,-0.011885,0.017432,-0.045956,0.003797,-0.003797,0.000000,-10.081293,31.422454,0.016290,3.273687,0.349082,0.148885,0.279175,0.124785,1.308280,4
574764020525257,-5.613818,-0.324259,6.633847,1.153626,-0.010932,-0.000001,-5.647528,-0.307404,6.576626,1.518621,0.156213,2.043650,-0.011093,0.017432,-0.049125,-0.000000,-0.003797,0.000000,-10.132439,31.717692,0.163026,3.261192,0.358832,0.148912,0.279184,0.124791,1.308277,4
574764021526028,-5.613828,-0.324242,6.633801,1.153629,-0.010936,-0.000001,-5.647546,-0.307389,6.576593,1.518821,0.156204,2.043734,-0.009508,0.017432,-0.046748,0.003797,-0.003797,0.000000,-10.233878,31.577084,0.081510,3.239037,0.363810,0.148811,0.279192,0.124795,1.308276,4
574764022523661,-5.613839,-0.324228,6.633757,1.153631,-0.010942,0.000000,-5.647565,-0.307374,6.576560,1.519021,0.156196,2.043818,-0.009508,0.016639,-0.046748,0.003797,-0.006645,0.000000,-10.257120,31.875095,0.193929,3.230716,0.371671,0.148833,0.279202,0.124801,1.308273,4
574764023527879,-5.613848,-0.324209,6.633705,1.153633,-0.010946,0.000000,-5.647583,-0.307359,6.576527,1.519221,0.156187,2.043902,-0.008716,0.016639,-0.048333,0.002848,-0.003797,0.000000,-10.308064,32.031989,0.270613,3.218930,0.376510,0.148827,0.279211,0.124806,1.308271,4
574764024525685,-5.613860,-0.324191,6.633661,1.153636,-0.010953,0.000000,-5.647602,-0.307344,6.576494,1.519421,0.156179,2.043986,-0.011885,0.017432,-0.044371,0.002848,-0.007594,0.000000,-10.060301,31.273877,-0.047003,3.295015,0.344395,0.149020,0.279219,0.124810,1.308269,4
574764025525565,-5.613871,-0.324175,6.633612,1.153638,-0.010956,-0.000001,-5.647621,-0.307330,6.576461,1.519621,0.156170,2.044070,-0.010300,0.015847,-0.049125,0.002848,-0.005695,0.000000,-10.229740,32.332546,0.399821,3.236317,0.375623,0.148954,0.279230,0.124816,1.308266,4
574764026523106,-5.613880,-0.324157,6.633562,1.153641,-0.010960,0.000000,-5.647639,-0.307315,6.576428,1.519821,0.156162,2.044154,-0.009508,0.018224,-0.049918,0.002848,-0.003797,0.000000,-10.214518,31.564647,0.126249,3.253402,0.362974,0.148944,0.279239,0.124821,1.308264,4
574764027524186,-5.613889,-0.324140,6.633514,1.153644,-0.010966,-0.000002,-5.647658,-0.307300,6.576395,1.520021,0.156154,2.044238,-0.008716,0.017432,-0.048333,0.002848,-0.005695,0.000000,-10.279733,31.742309,0.173109,3.238973,0.370268,0.148926,0.279248,0.124827,1.308262,4
574764028518178,-5.613899,-0.324123,6.633463,1.153644,-0.010970,-0.000002,-5.647676,-0.307285,6.576362,1.520221,0.156145,2.044322,-0.010300,0.016639,-0.050710,-0.000000,-0.004746,0.000000,-10.199592,32.172461,0.365978,3.255418,0.369619,0.149062,0.279259,0.124833,1.308259,4
574764029502649,-5.613910,-0.324107,6.633415,1.153648,-0.010974,-0.000002,-5.647695,-0.307271,6.576329,1.520421,0.156137,2.044406,-0.011093,0.016639,-0.048333,0.004746,-0.003797,0.000000,-10.150584,31.949496,0.260356,3.269013,0.360593,0.149072,0.279269,0.124839,1.308257,4
574764030526812,-5.613919,-0.324088,6.633362,1.153649,-0.010979,-0.000002,-5.647714,-0.307256,6.576297,1.520621,0.156128,2.044490,-0.008716,0.019016,-0.052295,-0.000000,-0.004746,0.000000,-10.239911,31.508547,0.141894,3.258637,0.365077,0.149034,0.279278,0.124845,1.308254,4
574764031518797,-5.613930,-0.324070,6.633315,1.153651,-0.010984,-0.000003,-5.647732,-0.307241,6.576264,1.520821,0.156120,2.044574,-0.011093,0.017432,-0.047541,-0.000000,-0.004746,0.000000,-10.101825,31.567342,0.112867,3.298456,0.348831,0.149182,0.279287,0.124849,1.308252,4
574764032518600,-5.613939,-0.324053,6.633266,1.153653,-0.010990,-0.000003,-5.647751,-0.307227,6.576231,1.521021,0.156111,2.044658,-0.008716,0.016639,-0.049125,-0.000000,-0.006645,0.000000,-10.287154,32.090522,0.322513,3.246651,0.374141,0.149079,0.279297,0.124856,1.308250,4
574764033527010,-5.613947,-0.324034,6.633214,1.153656,-0.010993,-0.000002,-5.647770,-0.307212,6.576199,1.521221,0.156103,2.044742,-0.007923,0.019016,-0.051502,0.002848,-0.002848,0.000000,-10.291082,31.470722,0.123915,3.251564,0.366231,0.149032,0.279306,0.124861,1.308247,4
574764034538926,-5.613958,-0.324015,6.633165,1.153657,-0.010999,-0.000002,-5.647788,-0.307197,6.576166,1.521421,0.156094,2.044826,-0.011093,0.019016,-0.049125,-0.000000,-0.005695,0.000000,-10.062517,31.126164,-0.022474,3.319319,0.341064,0.149256,0.279315,0.124866,1.308245,4
574764035527885,-5.613968,-0.323997,6.633114,1.153661,-0.011004,-0.000001,-5.647807,-0.307183,6.576134,1.521621,0.156086,2.044910,-0.010300,0.018224,-0.051502,0.003797,-0.004746,0.000000,-10.160967,31.666178,0.208140,3.282247,0.359257,0.149188,0.279325,0.124872,1.308243,4
574764036479240,-5.613976,-0.323978,6.633064,1.153660,-0.011009,0.000000,-5.647826,-0.307168,6.576101,1.521821,0.156077,2.044994,-0.007923,0.019016,-0.049918,0.003797,-0.003797,0.000000,-10.280150,31.318800,0.056699,3.263737,0.361620,0.149094,0.279333,0.124877,1.308241,4
574764037524865,-5.613985,-0.323958,6.633012,1.153662,-0.011012,-0.000004,-5.647844,-0.307154,6.576069,1.522021,0.156069,2.045078,-0.009508,0.020601,-0.051502,-0.000000,-0.002848,-0.003797,-10.124148,30.797907,-0.111152,3.314693,0.340802,0.149272,0.279341,0.124881,1.308239,4
574764038522630,-5.613993,-0.323939,6.632960,1.153665,-0.011018,0.000000,-5.647863,-0.307139,6.576037,1.522221,0.156060,2.045162,-0.007131,0.019016,-0.052295,-0.000000,-0.005695,0.003797,-10.328881,31.533374,0.167816,3.255657,0.370545,0.149122,0.279351,0.124887,1.308237,4
574764039520046,-5.614002,-0.323919,6.632912,1.153665,-0.011023,-0.000003,-5.647882,-0.307125,6.576004,1.522421,0.156052,2.045246,-0.010300,0.020601,-0.049918,0.002848,-0.006645,0.000000,-10.076870,30.630403,-0.182817,3.329815,0.336507,0.149302,0.279358,0.124891,1.308235,4
574764040522512,-5.614009,-0.323898,6.632855,1.153669,-0.011029,-0.000002,-5.647901,-0.307110,6.575972,1.522621,0.156043,2.045330,-0.006339,0.019016,-0.053087,0.003797,-0.006645,0.000000,-10.397450,31.633326,0.220226,3.235908,0.379996,0.149102,0.279367,0.124899,1.308233,4
574764041520872,-5.614019,-0.323877,6.632805,1.153667,-0.011034,-0.000003,-5.647919,-0.307096,6.575940,1.522821,0.156035,2.045414,-0.009508,0.021393,-0.050710,-0.000000,-0.003797,0.000000,-10.092333,30.405576,-0.254097,3.338045,0.331478,0.149346,0.279375,0.124902,1.308231,4
574764042479576,-5.614026,-0.323857,6.632751,1.153672,-0.011039,0.000000,-5.647938,-0.307081,6.575908,1.523021,0.156026,2.045498,-0.007131,0.019809,-0.053879,-0.000000,-0.004746,0.002848,-10.308404,31.347780,0.130046,3.270932,0.365877,0.149221,0.279384,0.124908,1.308229,4
574764043517467,-5.614035,-0.323836,6.632697,1.153672,-0.011044,0.000001,-5.647957,-0.307067,6.575876,1.523221,0.156018,2.045582,-0.008716,0.021393,-0.053879,-0.000000,-0.004746,0.000000,-10.159950,30.702090,-0.101017,3.318124,0.344619,0.149347,0.279393,0.124913,1.308227,4
574764044517719,-5.614045,-0.323815,6.632641,1.153673,-0.011049,-0.000002,-5.647975,-0.307052,6.575843,1.523421,0.156009,2.045666,-0.010300,0.020601,-0.056257,-0.000000,-0.005695,-0.002848,-10.092282,31.136459,0.096303,3.326848,0.347865,0.149464,0.279403,0.124919,1.308224,4
574764045522782,-5.614050,-0.323794,6.632592,1.153674,-0.011054,-0.000002,-5.647994,-0.307038,6.575811,1.523621,0.156000,2.045750,-0.007131,0.022186,-0.053879,-0.000000,-0.004746,0.000000,-10.237256,30.453923,-0.190730,3.308159,0.347040,0.149315,0.279409,0.124924,1.308223,4
574764046523315,-5.614059,-0.323774,6.632539,1.153677,-0.011059,-0.000002,-5.648013,-0.307023,6.575780,1.523821,0.155992,2.045834,-0.009508,0.020601,-0.050710,0.003797,-0.003797,0.000000,-10.122724,30.660619,-0.143414,3.333062,0.337136,0.149413,0.279418,0.124929,1.308221,4
574764047495708,-5.614066,-0.323752,6.632483,1.153676,-0.011067,-0.000003,-5.648032,-0.307009,6.575748,1.524021,0.155983,2.045918,-0.007131,0.021393,-0.056257,-0.000000,-0.008543,0.000000,-10.274114,30.940534,0.025956,3.292797,0.361796,0.149355,0.279427,0.124935,1.308219,4
574764048523308,-5.614073,-0.323732,6.632431,1.153682,-0.011070,-0.000001,-5.648051,-0.306995,6.575716,1.524221,0.155975,2.046002,-0.007131,0.020601,-0.052295,0.005695,-0.002848,0.000000,-10.289596,30.877577,-0.042880,3.290472,0.354889,0.149311,0.279435,0.124941,1.308217,4
574764049522994,-5.614082,-0.323711,6.632378,1.153677,-0.011075,-0.000002,-5.648069,-0.306980,6.575684,1.524421,0.155966,2.046086,-0.008716,0.020601,-0.052295,-0.004746,-0.004746,0.000000,-10.146221,30.768816,-0.080063,3.342839,0.338815,0.149545,0.279443,0.124945,1.308215,4
574764050522890,-5.614088,-0.323691,6.632326,1.153682,-0.011081,0.000000,-5.648088,-0.306966,6.575652,1.524621,0.155958,2.046170,-0.007131,0.021393,-0.053879,-0.000000,-0.005695,0.000000,-10.255203,30.693585,-0.086868,3.311492,0.350873,0.149427,0.279451,0.124951,1.308213,4
574764051537769,-5.614095,-0.323671,6.632268,1.153682,-0.011085,-0.000002,-5.648107,-0.306952,6.575621,1.524821,0.155949,2.046254,-0.006339,0.019809,-0.056257,-0.000000,-0.004746,0.000000,-10.363057,31.506414,0.243623,3.273448,0.372122,0.149402,0.279463,0.124959,1.308210,4
574764052479124,-5.614102,-0.323651,6.632213,1.153684,-0.011095,-0.000001,-5.648126,-0.306937,6.575589,1.525021,0.155941,2.046338,-0.007131,0.019809,-0.054672,-0.000000,-0.009492,0.000000,-10.308584,31.340160,0.169693,3.291608,0.367491,0.149464,0.279472,0.124967,1.308208,4
574764053527183,-5.614108,-0.323630,6.632159,1.153685,-0.011098,-0.000001,-5.648145,-0.306923,6.575557,1.525221,0.155932,2.046422,-0.006339,0.021393,-0.054672,-0.000000,-0.002848,0.000000,-10.307365,30.772932,-0.040622,3.304567,0.353814,0.149454,0.279481,0.124972,1.308206,4
574764054526869,-5.614115,-0.323609,6.632103,1.153686,-0.011101,-0.000003,-5.648164,-0.306909,6.575526,1.525421,0.155923,2.046506,-0.007131,0.020601,-0.056257,-0.000000,-0.003797,0.000000,-10.288446,31.167333,0.130193,3.303242,0.359710,0.149512,0.279491,0.124979,1.308203,4
574764055526733,-5.614122,-0.323591,6.632054,1.153687,-0.011107,0.000000,-5.648183,-0.306894,6.575494,1.525621,0.155915,2.046590,-0.006339,0.019809,-0.052295,-0.000000,-0.006645,0.000000,-10.342553,31.132066,0.069622,3.297162,0.361511,0.149495,0.279499,0.124984,1.308201,4
574764056528696,-5.614129,-0.323571,6.631996,1.153687,-0.011112,-0.000001,-5.648202,-0.306880,6.575463,1.525821,0.155906,2.046674,-0.006339,0.019809,-0.055464,-0.000000,-0.003797,-0.002848,-10.357511,31.408180,0.213281,3.288806,0.367136,0.149532,0.279510,0.124992,1.308198,4
574764057479125,-5.614135,-0.323550,6.631943,1.153689,-0.011119,0.000000,-5.648220,-0.306866,6.575432,1.526021,0.155898,2.046758,-0.006339,0.021393,-0.053087,-0.000000,-0.006645,0.000000,-10.302496,30.615121,-0.104446,3.317983,0.351586,0.149543,0.279518,0.124998,1.308196,4
574764058527529,-5.614141,-0.323530,6.631884,1.153688,-0.011125,-0.000002,-5.648239,-0.306852,6.575400,1.526221,0.155889,2.046842,-0.005546,0.019809,-0.059426,-0.000000,-0.006645,0.000000,-10.435237,31.784861,0.407164,3.263742,0.384786,0.149512,0.279530,0.125007,1.308193,4
574764059524895,-5.614146,-0.323509,6.631829,1.153689,-0.011129,0.000000,-5.648258,-0.306838,6.575369,1.526421,0.155880,2.046925,-0.005546,0.020601,-0.054672,-0.000000,-0.003797,0.000000,-10.383623,31.061995,0.084100,3.295475,0.362994,0.149543,0.279539,0.125013,1.308191,4
574764060518984,-5.614152,-0.323490,6.631777,1.153692,-0.011137,-0.000002,-5.648277,-0.306823,6.575338,1.526621,0.155872,2.047009,-0.004754,0.019016,-0.055464,-0.000000,-0.009492,0.000000,-10.491037,31.743871,0.348350,3.259508,0.386425,0.149516,0.279548,0.125020,1.308188,4
574764061524785,-5.614158,-0.323470,6.631721,1.153692,-0.011140,0.000001,-5.648296,-0.306809,6.575307,1.526821,0.155863,2.047093,-0.007131,0.019016,-0.053087,-0.000000,-0.003797,0.000000,-10.319164,31.429742,0.210354,3.311643,0.360198,0.149665,0.279558,0.125027,1.308186,4
574764062527492,-5.614164,-0.323451,6.631668,1.153692,-0.011146,0.000000,-5.648315,-0.306795,6.575276,1.527021,0.155855,2.047177,-0.005546,0.019016,-0.053087,-0.000000,-0.003797,0.000000,-10.422045,31.486690,0.230447,3.288699,0.369188,0.149605,0.279567,0.125034,1.308183,4
574764063481759,-5.614168,-0.323431,6.631615,1.153693,-0.011151,-0.000001,-5.648334,-0.306781,6.575244,1.527221,0.155846,2.047261,-0.003962,0.019809,-0.053087,-0.000000,-0.004746,0.000000,-10.504629,31.255548,0.144622,3.274603,0.373469,0.149547,0.279576,0.125041,1.308181,4
574764064527469,-5.614175,-0.323414,6.631561,1.153693,-0.011156,-0.000001,-5.648353,-0.306767,6.575213,1.527421,0.155837,2.047345,-0.007131,0.017432,-0.053879,-0.000000,-0.004746,0.000000,-10.373024,32.073595,0.467090,3.294908,0.373931,0.149724,0.279588,0.125049,1.308178,4
574764065526697,-5.614180,-0.323394,6.631505,1.153694,-0.011161,-0.000002,-5.648372,-0.306753,6.575183,1.527621,0.155829,2.047429,-0.005546,0.019809,-0.056257,-0.000000,-0.002848,0.000000,-10.420789,31.477581,0.275565,3.292496,0.370652,0.149669,0.279598,0.125056,1.308175,4
574764066524945,-5.614185,-0.323374,6.631452,1.153694,-0.011168,-0.000002,-5.648392,-0.306739,6.575152,1.527821,0.155820,2.047513,-0.004754,0.020601,-0.057049,-0.000000,-0.003797,0.000000,-10.456442,31.287161,0.216538,3.287995,0.372444,0.149651,0.279607,0.125063,1.308173,4
574764067527732,-5.614189,-0.323357,6.631394,1.153696,-0.011176,-0.000001,-5.648411,-0.306725,6.575121,1.528021,0.155811,2.047596,-0.003169,0.018224,-0.057049,-0.000000,-0.003797,0.000000,-10.628755,32.217969,0.559580,3.235359,0.398946,0.149583,0.279619,0.125074,1.308169,4
574764068527591,-5.614193,-0.323339,6.631339,1.153699,-0.011180,-0.000001,-5.648430,-0.306711,6.575090,1.528221,0.155803,2.047680,-0.003962,0.018224,-0.055464,0.002848,-0.003797,0.000000,-10.583331,32.062803,0.489373,3.248477,0.392187,0.149610,0.279630,0.125083,1.308166,4
574764069526970,-5.614200,-0.323321,6.631283,1.153696,-0.011187,0.000000,-5.648449,-0.306697,6.575059,1.528421,0.155794,2.047764,-0.007131,0.018224,-0.055464,-0.000000,-0.004746,0.000000,-10.370168,31.937427,0.453526,3.306989,0.372242,0.149830,0.279642,0.125091,1.308163,4
574764070527917,-5.614205,-0.323303,6.631229,1.153697,-0.011193,-0.000001,-5.648468,-0.306683,6.575029,1.528621,0.155785,2.047848,-0.004754,0.017432,-0.053879,-0.000000,-0.005695,0.000000,-10.539694,32.179311,0.520774,3.267021,0.388366,0.149728,0.279653,0.125099,1.308159,4
574764071524052,-5.614209,-0.323286,6.631173,1.153698,-0.011202,-0.000003,-5.648487,-0.306669,6.574998,1.528821,0.155777,2.047932,-0.003962,0.017432,-0.056257,-0.000000,-0.009492,0.000000,-10.611945,32.435988,0.647705,3.244386,0.403393,0.149704,0.279665,0.125110,1.308156,4
574764072523312,-5.614211,-0.323267,6.631116,1.153699,-0.011206,-0.000001,-5.648506,-0.306655,6.574967,1.529021,0.155768,2.048016,-0.002377,0.018224,-0.057049,-0.000000,-0.003797,0.000000,-10.694088,32.274793,0.595625,3.230225,0.403788,0.149646,0.279676,0.125120,1.308153,4
574764073524529,-5.614217,-0.323250,6.631060,1.153697,-0.011212,-0.000001,-5.648526,-0.306641,6.574937,1.529221,0.155759,2.048099,-0.005546,0.017432,-0.056257,-0.000000,-0.006645,0.000000,-10.513719,32.385580,0.639123,3.273725,0.391581,0.149827,0.279689,0.125129,1.308149,4
574764074527299,-5.614220,-0.323232,6.631001,1.153699,-0.011218,-0.000003,-5.648545,-0.306627,6.574906,1.529421,0.155751,2.048183,-0.003169,0.018224,-0.058634,-0.000000,-0.006645,0.000000,-10.661757,32.406846,0.674290,3.237677,0.406527,0.149724,0.279701,0.125139,1.308145,4
574764075519479,-5.614225,-0.323214,6.630944,1.153698,-0.011224,0.000000,-5.648564,-0.306613,6.574876,1.529621,0.155742,2.048267,-0.004754,0.017432,-0.057049,-0.000000,-0.005695,0.002848,-10.575202,32.500588,0.696525,3.261151,0.397795,0.149809,0.279714,0.125148,1.308142,4
574764076520841,-5.614230,-0.323197,6.630892,1.153700,-0.011233,-0.000001,-5.648583,-0.306599,6.574846,1.529821,0.155733,2.048351,-0.005546,0.017432,-0.052295,-0.000000,-0.009492,0.000000,-10.503826,32.058059,0.480974,3.291490,0.383833,0.149891,0.279724,0.125157,1.308139,4
574764077529311,-5.614233,-0.323179,6.630838,1.153702,-0.011238,0.000000,-5.648603,-0.306585,6.574815,1.530021,0.155725,2.048435,-0.002377,0.018224,-0.053879,-0.000000,-0.004746,0.000000,-10.693007,32.025126,0.481958,3.248852,0.396482,0.149751,0.279734,0.125166,1.308136,4
574764078520795,-5.614237,-0.323161,6.630784,1.153702,-0.011244,-0.000002,-5.648622,-0.306571,6.574785,1.530221,0.155716,2.048518,-0.004754,0.017432,-0.053879,0.002848,-0.005695,0.000000,-10.577580,32.242033,0.572626,3.270929,0.391352,0.149856,0.279745,0.125175,1.308133,4
574764079483907,-5.614241,-0.323144,6.630729,1.153703,-0.011250,-0.000001,-5.648641,-0.306557,6.574755,1.530421,0.155707,2.048602,-0.003169,0.017432,-0.054672,-0.000000,-0.006645,0.000000,-10.677655,32.369029,0.627704,3.250391,0.401693,0.149828,0.279756,0.125184,1.308130,4
574764080517697,-5.614244,-0.323126,6.630676,1.153704,-0.011257,-0.000001,-5.648661,-0.306543,6.574725,1.530621,0.155698,2.048686,-0.003169,0.018224,-0.053087,0.002848,-0.008543,0.000000,-10.663363,31.957594,0.461418,3.259481,0.395740,0.149817,0.279766,0.125193,1.308127,4
574764081517189,-5.614248,-0.323108,6.630622,1.153704,-0.011263,0.000000,-5.648680,-0.306530,6.574695,1.530821,0.155690,2.048770,-0.004754,0.017432,-0.054672,-0.000000,-0.005695,0.000000,-10.581308,32.316469,0.618308,3.278816,0.391591,0.149950,0.279777,0.125202,1.308124,4
574764082519576,-5.614250,-0.323092,6.630567,1.153705,-0.011270,0.000000,-5.648699,-0.306516,6.574665,1.531021,0.155681,2.048853,-0.003962,0.019016,-0.057049,-0.000000,-0.008543,0.000000,-10.610342,32.002821,0.534325,3.275271,0.394598,0.149929,0.279789,0.125213,1.308120,4
574764083520517,-5.614254,-0.323075,6.630512,1.153706,-0.011275,0.000000,-5.648719,-0.306502,6.574635,1.531221,0.155672,2.048937,-0.004754,0.016639,-0.054672,-0.000000,-0.006645,0.000000,-10.614105,32.626884,0.739830,3.270587,0.398736,0.149986,0.279801,0.125222,1.308117,4
574764084526825,-5.614256,-0.323057,6.630458,1.153704,-0.011282,0.000002,-5.648738,-0.306488,6.574605,1.531421,0.155664,2.049021,-0.002377,0.018224,-0.053879,-0.000000,-0.006645,0.000000,-10.721819,32.073782,0.523358,3.256552,0.399209,0.149890,0.279811,0.125230,1.308114,4
574764085518093,-5.614261,-0.323038,6.630404,1.153705,-0.011287,-0.000001,-5.648758,-0.306474,6.574575,1.531621,0.155655,2.049105,-0.004754,0.018224,-0.053879,-0.000000,-0.004746,-0.002848,-10.569552,31.983730,0.498599,3.296831,0.383408,0.150050,0.279822,0.125238,1.308111,4
574764086518137,-5.614263,-0.323021,6.630349,1.153704,-0.011294,0.000000,-5.648777,-0.306461,6.574545,1.531821,0.155646,2.049188,-0.000000,0.017432,-0.054672,-0.000000,-0.007594,0.000000,-10.909760,32.531673,0.702975,3.208436,0.422048,0.149805,0.279833,0.125248,1.308108,4
574764087526697,-5.614267,-0.323004,6.630294,1.153706,-0.011299,0.000000,-5.648797,-0.306447,6.574515,1.532021,0.155637,2.049272,-0.004754,0.016639,-0.054672,-0.000000,-0.004746,0.000000,-10.626973,32.645691,0.759147,3.276843,0.397300,0.150067,0.279845,0.125258,1.308104,4
574764088539815,-5.614269,-0.322985,6.630241,1.153708,-0.011306,-0.000001,-5.648816,-0.306433,6.574485,1.532221,0.155629,2.049356,-0.000000,0.019016,-0.053087,-0.000000,-0.007594,0.000000,-10.864312,31.825231,0.429355,3.236132,0.406624,0.149851,0.279854,0.125266,1.308101,4
574764089527862,-5.614273,-0.322970,6.630185,1.153705,-0.011312,0.000000,-5.648836,-0.306419,6.574456,1.532421,0.155620,2.049440,-0.003962,0.015055,-0.056257,-0.002848,-0.005695,0.000000,-10.730030,33.398364,1.060057,3.247562,0.416794,0.150094,0.279868,0.125277,1.308097,4
574764090528251,-5.614275,-0.322952,6.630130,1.153710,-0.011320,0.000000,-5.648855,-0.306406,6.574426,1.532621,0.155611,2.049523,-0.000000,0.018224,-0.055464,-0.000000,-0.008543,0.000000,-10.910916,32.349106,0.659263,3.218601,0.420362,0.149884,0.279878,0.125288,1.308094,4
574764091526032,-5.614277,-0.322935,6.630074,1.153712,-0.011324,-0.000001,-5.648875,-0.306392,6.574396,1.532821,0.155602,2.049607,-0.002377,0.015847,-0.053879,-0.000000,-0.004746,0.000000,-10.816680,32.981871,0.881009,3.236622,0.415691,0.150021,0.279889,0.125298,1.308091,4
574764092519340,-5.614280,-0.322918,6.630027,1.153711,-0.011329,-0.000001,-5.648894,-0.306378,6.574367,1.533021,0.155594,2.049691,-0.003169,0.016639,-0.049918,-0.000000,-0.004746,0.000000,-10.724501,32.313841,0.589877,3.275551,0.394457,0.150089,0.279898,0.125304,1.308088,4
574764093518057,-5.614282,-0.322901,6.629974,1.153711,-0.011338,-0.000001,-5.648914,-0.306365,6.574337,1.533221,0.155585,2.049774,-0.000000,0.017432,-0.053879,-0.000000,-0.008543,0.000000,-10.937634,32.511639,0.708458,3.218558,0.422112,0.149941,0.279908,0.125314,1.308085,4
574764094531445,-5.614283,-0.322885,6.629920,1.153714,-0.011342,-0.000001,-5.648934,-0.306351,6.574308,1.533421,0.155576,2.049858,-0.000000,0.015847,-0.053879,0.002848,-0.003797,0.000000,-10.994652,33.102465,0.929038,3.195695,0.431427,0.149922,0.279920,0.125325,1.308082,4
574764095481711,-5.614287,-0.322868,6.629868,1.153716,-0.011349,-0.000002,-5.648953,-0.306337,6.574279,1.533621,0.155567,2.049942,-0.004754,0.016639,-0.051502,-0.000000,-0.004746,0.000000,-10.646780,32.422611,0.662834,3.297252,0.390306,0.150225,0.279931,0.125333,1.308079,4
574764096533769,-5.614289,-0.322851,6.629817,1.153717,-0.011358,0.000001,-5.648973,-0.306324,6.574249,1.533821,0.155558,2.050025,-0.000000,0.016639,-0.051502,-0.000000,-0.008543,0.002848,-10.961618,32.614605,0.726098,3.220870,0.422058,0.149982,0.279941,0.125343,1.308076,4
574764097479535,-5.614294,-0.322832,6.629764,1.153715,-0.011362,-0.000001,-5.648993,-0.306310,6.574220,1.534021,0.155550,2.050109,-0.004754,0.019809,-0.053087,-0.000000,-0.003797,0.000000,-10.572792,31.415590,0.316757,3.332895,0.371047,0.150273,0.279950,0.125349,1.308073,4
574764098520514,-5.614295,-0.322815,6.629713,1.153719,-0.011367,0.000000,-5.649012,-0.306297,6.574191,1.534221,0.155541,2.050193,-0.003169,0.017432,-0.052295,0.002848,-0.005695,0.000000,-10.755473,32.287280,0.629206,3.275090,0.399382,0.150168,0.279959,0.125359,1.308070,4
574764099528050,-5.614298,-0.322797,6.629659,1.153719,-0.011375,-0.000003,-5.649032,-0.306283,6.574162,1.534421,0.155532,2.050276,-0.003962,0.018224,-0.053087,-0.000000,-0.006645,0.000000,-10.681083,32.034547,0.550119,3.301637,0.390157,0.150264,0.279969,0.125368,1.308068,4
574764100523837,-5.614299,-0.322779,6.629610,1.153721,-0.011380,0.000000,-5.649052,-0.306270,6.574133,1.534621,0.155523,2.050360,-0.000000,0.018224,-0.050710,-0.000000,-0.004746,0.000000,-10.924639,31.969004,0.488622,3.250468,0.405034,0.150084,0.279978,0.125375,1.308065,4
574764101520464,-5.614302,-0.322760,6.629554,1.153721,-0.011383,-0.000003,-5.649072,-0.306256,6.574103,1.534821,0.155514,2.050444,-0.000000,0.018224,-0.053879,-0.000000,-0.000000,0.000000,-10.941403,32.244180,0.631000,3.242237,0.409153,0.150102,0.279988,0.125384,1.308062,4
574764102528401,-5.614304,-0.322741,6.629504,1.153723,-0.011393,-0.000002,-5.649092,-0.306243,6.574074,1.535021,0.155506,2.050527,-0.002377,0.019809,-0.049918,-0.000000,-0.006645,0.000000,-10.732812,31.232660,0.220117,3.311929,0.379465,0.150249,0.279995,0.125391,1.308060,4
574764103526822,-5.614306,-0.322722,6.629451,1.153721,-0.011398,0.000000,-5.649111,-0.306229,6.574045,1.535221,0.155497,2.050611,-0.002377,0.018224,-0.053087,-0.002848,-0.004746,0.000000,-10.785789,32.076492,0.571636,3.289902,0.395487,0.150296,0.280005,0.125399,1.308058,4
574764104520694,-5.614309,-0.322702,6.629397,1.153723,-0.011405,-0.000001,-5.649131,-0.306216,6.574017,1.535421,0.155488,2.050694,-0.003169,0.019809,-0.053879,-0.000000,-0.007594,0.000000,-10.712700,31.556056,0.397082,3.311473,0.386600,0.150323,0.280014,0.125407,1.308055,4
574764105522733,-5.614312,-0.322685,6.629345,1.153723,-0.011409,0.000000,-5.649151,-0.306202,6.573988,1.535621,0.155479,2.050778,-0.002377,0.017432,-0.052295,-0.002848,-0.004746,0.000000,-10.811213,32.293860,0.648403,3.286054,0.399059,0.150334,0.280024,0.125415,1.308052,4
574764106527716,-5.614313,-0.322665,6.629291,1.153724,-0.011416,0.000000,-5.649171,-0.306189,6.573959,1.535821,0.155470,2.050862,-0.000000,0.019809,-0.053879,-0.000000,-0.006645,0.000000,-10.923975,31.674081,0.438747,3.264353,0.404376,0.150200,0.280032,0.125424,1.308050,4
574764107522824,-5.614317,-0.322648,6.629241,1.153727,-0.011422,0.000000,-5.649191,-0.306175,6.573930,1.536021,0.155461,2.050945,-0.003169,0.017432,-0.049918,0.002848,-0.006645,0.000000,-10.779874,32.077669,0.550541,3.295372,0.394211,0.150344,0.280041,0.125432,1.308047,4
574764108527640,-5.614320,-0.322627,6.629191,1.153727,-0.011427,0.000000,-5.649211,-0.306162,6.573901,1.536221,0.155453,2.051029,-0.003169,0.020601,-0.050710,-0.000000,-0.006645,0.000000,-10.686590,30.977555,0.156261,3.339423,0.371259,0.150407,0.280048,0.125437,1.308046,4
574764109518012,-5.614321,-0.322606,6.629138,1.153727,-0.011432,-0.000002,-5.649231,-0.306148,6.573873,1.536421,0.155444,2.051113,-0.000000,0.021393,-0.053087,-0.000000,-0.003797,0.000000,-10.881633,31.004735,0.189910,3.293019,0.387695,0.150265,0.280056,0.125444,1.308044,4
574764110525471,-5.614323,-0.322586,6.629087,1.153729,-0.011440,0.000001,-5.649251,-0.306135,6.573844,1.536621,0.155435,2.051196,-0.000000,0.019809,-0.050710,-0.000000,-0.008543,0.002848,-10.922018,31.369422,0.299643,3.281672,0.397120,0.150263,0.280063,0.125451,1.308042,4
574764111527080,-5.614325,-0.322566,6.629035,1.153728,-0.011444,0.000000,-5.649271,-0.306122,6.573815,1.536821,0.155426,2.051280,-0.002377,0.019809,-0.051502,-0.000000,-0.003797,0.000000,-10.771869,31.336421,0.304397,3.320545,0.380604,0.150423,0.280071,0.125458,1.308040,4
574764112524579,-5.614327,-0.322547,6.628983,1.153731,-0.011450,-0.000003,-5.649291,-0.306108,6.573787,1.537021,0.155417,2.051363,-0.000000,0.019016,-0.052295,0.002848,-0.005695,-0.002848,-10.969157,31.796251,0.482881,3.263567,0.406427,0.150297,0.280079,0.125466,1.308037,4
574764113525653,-5.614329,-0.322526,6.628932,1.153731,-0.011456,-0.000001,-5.649311,-0.306095,6.573758,1.537221,0.155408,2.051447,-0.002377,0.021393,-0.050710,-0.000000,-0.004746,0.000000,-10.731405,30.678122,0.058189,3.345205,0.367836,0.150466,0.280085,0.125472,1.308036,4
574764114527974,-5.614330,-0.322506,6.628881,1.153732,-0.011463,0.000000,-5.649331,-0.306082,6.573730,1.537421,0.155400,2.051530,-0.000000,0.019809,-0.051502,-0.000000,-0.006645,0.000000,-10.939700,31.409792,0.335540,3.285620,0.397102,0.150356,0.280093,0.125479,1.308034,4
574764115525197,-5.614334,-0.322487,6.628829,1.153734,-0.011468,-0.000001,-5.649351,-0.306068,6.573702,1.537621,0.155391,2.051614,-0.003962,0.019016,-0.052295,-0.000000,-0.004746,0.000000,-10.712761,31.613495,0.432762,3.338296,0.379805,0.150577,0.280102,0.125486,1.308031,4
574764116522856,-5.614337,-0.322464,6.628778,1.153734,-0.011475,0.000001,-5.649371,-0.306055,6.573673,1.537821,0.155382,2.051698,-0.003169,0.022978,-0.050710,-0.000000,-0.007594,0.000000,-10.648266,30.050766,-0.161076,3.380352,0.354093,0.150568,0.280107,0.125491,1.308030,4
574764117523595,-5.614339,-0.322445,6.628723,1.153736,-0.011480,-0.000003,-5.649391,-0.306042,6.573645,1.538021,0.155373,2.051781,-0.000000,0.019016,-0.054672,0.003797,-0.004746,-0.003797,-11.001851,31.968894,0.591393,3.260695,0.412050,0.150386,0.280116,0.125500,1.308027,4
574764118522572,-5.614341,-0.322425,6.628672,1.153740,-0.011489,-0.000002,-5.649411,-0.306029,6.573617,1.538221,0.155364,2.051865,-0.002377,0.019809,-0.051502,0.003797,-0.008543,0.000000,-10.817280,31.311484,0.320186,3.319190,0.387501,0.150508,0.280124,0.125508,1.308025,4
574764119523600,-5.614342,-0.322401,6.628619,1.153742,-0.011494,0.000000,-5.649431,-0.306015,6.573589,1.538421,0.155355,2.051948,-0.000000,0.023770,-0.053087,0.003797,-0.006645,0.000000,-10.869131,30.082032,-0.116977,3.326182,0.375303,0.150415,0.280129,0.125514,1.308024,4
574764120479207,-5.614344,-0.322382,6.628567,1.153742,-0.011501,0.000000,-5.649451,-0.306002,6.573561,1.538621,0.155346,2.052032,-0.002377,0.019809,-0.051502,-0.000000,-0.006645,0.000000,-10.806987,31.266342,0.307482,3.332768,0.382392,0.150593,0.280137,0.125521,1.308022,4
574764121522988,-5.614345,-0.322361,6.628515,1.153744,-0.011505,-0.000002,-5.649471,-0.305989,6.573533,1.538821,0.155337,2.052115,-0.000000,0.020601,-0.052295,0.002848,-0.003797,0.000000,-10.954534,31.136824,0.266930,3.297741,0.392160,0.150458,0.280144,0.125528,1.308020,4
574764122517058,-5.614349,-0.322337,6.628463,1.153744,-0.011509,-0.000003,-5.649491,-0.305976,6.573505,1.539021,0.155329,2.052199,-0.003962,0.023770,-0.051502,-0.000000,-0.003797,0.000000,-10.596148,29.734624,-0.248229,3.411084,0.341369,0.150726,0.280149,0.125531,1.308019,4
574764123517084,-5.614351,-0.322318,6.628414,1.153745,-0.011517,-0.000002,-5.649512,-0.305963,6.573477,1.539221,0.155320,2.052283,-0.002377,0.022186,-0.050710,-0.000000,-0.006645,0.000000,-10.745291,30.297609,-0.050613,3.369677,0.362565,0.150659,0.280156,0.125539,1.308017,4
574764124526786,-5.614351,-0.322294,6.628361,1.153748,-0.011522,0.000000,-5.649532,-0.305950,6.573449,1.539421,0.155311,2.052366,-0.000000,0.022978,-0.050710,0.003797,-0.005695,0.000000,-10.892652,30.089165,-0.128780,3.334894,0.372419,0.150512,0.280161,0.125544,1.308016,4
574764125520393,-5.614353,-0.322272,6.628310,1.153749,-0.011525,-0.000002,-5.649552,-0.305937,6.573421,1.539621,0.155302,2.052450,-0.000000,0.021393,-0.051502,-0.000000,-0.002848,0.000000,-10.926704,30.700955,0.106962,3.325214,0.380020,0.150573,0.280167,0.125549,1.308015,4
574764126482626,-5.614355,-0.322252,6.628257,1.153749,-0.011533,-0.000001,-5.649572,-0.305924,6.573393,1.539821,0.155293,2.052533,-0.002377,0.020601,-0.052295,-0.000000,-0.008543,0.000000,-10.810442,30.971411,0.227664,3.348492,0.379377,0.150708,0.280175,0.125557,1.308013,4
574764127517011,-5.614357,-0.322229,6.628205,1.153752,-0.011540,0.000000,-5.649593,-0.305910,6.573365,1.540021,0.155284,2.052617,-0.000000,0.022186,-0.052295,0.004746,-0.006645,0.000000,-10.938758,30.486643,0.047574,3.321287,0.383536,0.150552,0.280181,0.125563,1.308011,4
574764128519313,-5.614358,-0.322206,6.628151,1.153753,-0.011544,0.000000,-5.649613,-0.305897,6.573337,1.540221,0.155275,2.052700,-0.000000,0.022978,-0.053879,-0.000000,-0.005695,0.000000,-10.909302,30.303318,0.000518,3.338422,0.377453,0.150630,0.280187,0.125569,1.308010,4
574764129520280,-5.614359,-0.322187,6.628100,1.153754,-0.011549,0.000001,-5.649633,-0.305884,6.573310,1.540421,0.155266,2.052784,-0.000000,0.021393,-0.055464,-0.000000,-0.004746,0.000000,-10.966109,31.014285,0.284983,3.314974,0.392225,0.150643,0.280195,0.125577,1.308007,4
574764130524772,-5.614363,-0.322164,6.628044,1.153756,-0.011553,0.000000,-5.649653,-0.305871,6.573282,1.540621,0.155257,2.052867,-0.003169,0.021393,-0.053879,-0.000000,-0.002848,0.000000,-10.753749,30.735502,0.173544,3.374151,0.367199,0.150827,0.280202,0.125582,1.308005,4
574764131526338,-5.614363,-0.322142,6.627992,1.153757,-0.011563,-0.000004,-5.649674,-0.305858,6.573255,1.540821,0.155248,2.052951,-0.000000,0.022186,-0.052295,-0.000000,-0.009492,-0.003797,-10.937405,30.422788,0.036408,3.337457,0.382112,0.150707,0.280208,0.125589,1.308004,4
574764132526353,-5.614366,-0.322122,6.627940,1.153760,-0.011568,-0.000002,-5.649694,-0.305846,6.573227,1.541021,0.155239,2.053034,-0.002377,0.019809,-0.052295,0.002848,-0.004746,0.000000,-10.861287,31.192854,0.329056,3.343507,0.382695,0.150786,0.280216,0.125597,1.308002,4
574764133525647,-5.614368,-0.322102,6.627883,1.153761,-0.011573,-0.000002,-5.649714,-0.305833,6.573200,1.541221,0.155231,2.053118,-0.002377,0.020601,-0.056257,-0.000000,-0.006645,0.000000,-10.856246,31.245798,0.400761,3.344952,0.387579,0.150836,0.280225,0.125605,1.307999,4
574764134525203,-5.614367,-0.322080,6.627829,1.153762,-0.011582,-0.000001,-5.649735,-0.305820,6.573172,1.541421,0.155222,2.053201,-0.000000,0.020601,-0.054672,-0.000000,-0.008543,0.000000,-11.007451,31.185185,0.357164,3.313472,0.399091,0.150733,0.280232,0.125613,1.307997,4
574764135527704,-5.614370,-0.322058,6.627775,1.153765,-0.011585,-0.000002,-5.649755,-0.305807,6.573145,1.541621,0.155213,2.053285,-0.003169,0.023770,-0.053879,0.002848,-0.002848,0.000000,-10.718069,29.834424,-0.140165,3.403089,0.352051,0.150892,0.280239,0.125619,1.307996,4
574764136525659,-5.614370,-0.322039,6.627721,1.153764,-0.011590,0.000001,-5.649776,-0.305794,6.573118,1.541821,0.155204,2.053368,-0.000000,0.018224,-0.053879,-0.000000,-0.003797,0.002848,-11.072890,31.956563,0.637059,3.293098,0.409313,0.150750,0.280249,0.125628,1.307993,4
574764137529357,-5.614373,-0.322020,6.627668,1.153766,-0.011597,-0.000001,-5.649796,-0.305781,6.573090,1.542021,0.155195,2.053452,-0.002377,0.019016,-0.053087,-0.000000,-0.004746,0.000000,-10.899022,31.510123,0.472288,3.343954,0.388578,0.150910,0.280258,0.125637,1.307990,4
574764138523259,-5.614372,-0.321997,6.627616,1.153767,-0.011603,-0.000002,-5.649816,-0.305768,6.573063,1.542221,0.155186,2.053535,-0.000000,0.022978,-0.051502,-0.000000,-0.005695,0.000000,-10.937356,30.005024,-0.104804,3.361215,0.370602,0.150819,0.280263,0.125642,1.307989,4
574764139523896,-5.614376,-0.321977,6.627565,1.153768,-0.011609,-0.000002,-5.649837,-0.305755,6.573036,1.542421,0.155177,2.053619,-0.003962,0.019809,-0.051502,-0.000000,-0.006645,0.000000,-10.775437,31.000272,0.275625,3.386771,0.370817,0.151032,0.280271,0.125649,1.307987,4
574764140523408,-5.614376,-0.321957,6.627514,1.153769,-0.011613,0.000001,-5.649857,-0.305743,6.573009,1.542621,0.155168,2.053702,-0.000000,0.020601,-0.050710,-0.000000,-0.003797,0.002848,-11.004802,30.775366,0.174989,3.339660,0.383358,0.150835,0.280278,0.125656,1.307985,4
574764141524004,-5.614378,-0.321936,6.627463,1.153773,-0.011623,0.000000,-5.649878,-0.305730,6.572982,1.542821,0.155159,2.053786,-0.002377,0.020601,-0.051502,0.005695,-0.006645,0.000000,-10.886118,30.775666,0.197512,3.360225,0.378652,0.150919,0.280284,0.125663,1.307983,4
574764142518428,-5.614381,-0.321916,6.627408,1.153773,-0.011627,0.000002,-5.649898,-0.305717,6.572955,1.543021,0.155150,2.053869,-0.002377,0.019809,-0.054672,-0.000000,-0.004746,0.000000,-10.905555,31.315402,0.436126,3.354680,0.386823,0.151003,0.280294,0.125671,1.307980,4
574764143519483,-5.614382,-0.321894,6.627356,1.153773,-0.011633,-0.000002,-5.649919,-0.305704,6.572928,1.543221,0.155141,2.053953,-0.000000,0.022186,-0.052295,-0.000000,-0.005695,-0.003797,-10.982998,30.317374,0.036431,3.356006,0.378004,0.150932,0.280300,0.125677,1.307979,4
574764144525252,-5.614381,-0.321875,6.627301,1.153775,-0.011641,-0.000002,-5.649939,-0.305692,6.572901,1.543421,0.155132,2.054036,-0.000000,0.019016,-0.054672,-0.000000,-0.005695,0.000000,-11.092183,31.679242,0.571567,3.309081,0.407543,0.150915,0.280309,0.125687,1.307976,4
574764145526985,-5.614383,-0.321854,6.627247,1.153779,-0.011645,0.000001,-5.649960,-0.305679,6.572874,1.543621,0.155123,2.054120,-0.002377,0.021393,-0.053879,0.003797,-0.003797,0.002848,-10.885002,30.659414,0.196151,3.371768,0.375398,0.151000,0.280316,0.125694,1.307974,4
574764146523364,-5.614384,-0.321832,6.627195,1.153778,-0.011650,-0.000002,-5.649981,-0.305666,6.572848,1.543821,0.155114,2.054203,-0.000000,0.021393,-0.052295,-0.000000,-0.004746,-0.002848,-11.018717,30.581368,0.143853,3.350462,0.382902,0.150979,0.280323,0.125700,1.307972,4
574764147526639,-5.614386,-0.321813,6.627142,1.153778,-0.011658,0.000001,-5.650001,-0.305654,6.572821,1.544021,0.155105,2.054287,-0.000000,0.019016,-0.053087,-0.000000,-0.005695,0.002848,-11.095701,31.513733,0.501227,3.319243,0.403125,0.150956,0.280332,0.125709,1.307970,4
574764148526612,-5.614386,-0.321793,6.627088,1.153780,-0.011665,-0.000001,-5.650022,-0.305641,6.572794,1.544221,0.155096,2.054370,-0.000000,0.020601,-0.053879,-0.000000,-0.007594,0.000000,-11.063578,31.006945,0.328318,3.335177,0.395974,0.150992,0.280340,0.125718,1.307968,4
574764149527474,-5.614388,-0.321773,6.627034,1.153779,-0.011672,0.000000,-5.650043,-0.305628,6.572768,1.544421,0.155087,2.054454,-0.002377,0.019809,-0.053879,-0.000000,-0.009492,0.000000,-10.939228,31.204326,0.411281,3.363464,0.389582,0.151130,0.280349,0.125725,1.307965,4
574764150523438,-5.614388,-0.321753,6.626977,1.153782,-0.011678,-0.000001,-5.650063,-0.305616,6.572741,1.544621,0.155078,2.054537,-0.000000,0.019809,-0.057049,-0.000000,-0.006645,0.000000,-11.112890,31.570446,0.582445,3.315953,0.409731,0.151023,0.280359,0.125735,1.307962,4
574764151529456,-5.614389,-0.321734,6.626924,1.153785,-0.011683,-0.000001,-5.650084,-0.305603,6.572715,1.544821,0.155069,2.054621,-0.000000,0.019016,-0.053087,0.002848,-0.005695,0.000000,-11.127976,31.512864,0.516674,3.316282,0.405964,0.151009,0.280368,0.125744,1.307959,4
574764152527526,-5.614390,-0.321714,6.626868,1.153786,-0.011690,0.000000,-5.650105,-0.305591,6.572688,1.545021,0.155060,2.054704,-0.000000,0.019809,-0.056257,-0.000000,-0.006645,0.000000,-11.119036,31.497103,0.552973,3.320874,0.407963,0.151060,0.280377,0.125753,1.307957,4
574764153523033,-5.614390,-0.321697,6.626814,1.153785,-0.011698,0.000000,-5.650125,-0.305578,6.572662,1.545221,0.155051,2.054787,-0.000000,0.017432,-0.053879,-0.000000,-0.007594,0.000000,-11.180043,32.154952,0.770104,3.301288,0.419811,0.151073,0.280388,0.125763,1.307953,4
574764154526460,-5.614391,-0.321676,6.626761,1.153789,-0.011702,0.000000,-5.650146,-0.305565,6.572635,1.545421,0.155042,2.054871,-0.000000,0.021393,-0.053087,0.003797,-0.004746,0.000000,-11.081147,30.647508,0.208487,3.345836,0.389418,0.151058,0.280395,0.125770,1.307952,4
574764155527153,-5.614393,-0.321657,6.626708,1.153790,-0.011709,-0.000001,-5.650167,-0.305553,6.572609,1.545621,0.155033,2.054954,-0.002377,0.018224,-0.052295,-0.000000,-0.002848,0.000000,-11.000446,31.618779,0.563835,3.359578,0.391395,0.151237,0.280404,0.125779,1.307949,4
574764156523260,-5.614393,-0.321640,6.626654,1.153792,-0.011714,-0.000001,-5.650188,-0.305540,6.572583,1.545821,0.155024,2.055038,-0.000000,0.017432,-0.054672,-0.000000,-0.002848,0.000000,-11.195597,32.213689,0.810291,3.303715,0.417923,0.151128,0.280415,0.125789,1.307945,4
574764157518547,-5.614395,-0.321622,6.626598,1.153795,-0.011720,0.000000,-5.650209,-0.305528,6.572557,1.546021,0.155015,2.055121,-0.000000,0.018224,-0.055464,-0.000000,-0.004746,0.000000,-11.185746,32.004715,0.747532,3.309860,0.416609,0.151146,0.280425,0.125799,1.307942,4
574764158523408,-5.614396,-0.321603,6.626547,1.153798,-0.011727,0.000000,-5.650229,-0.305516,6.572530,1.546221,0.155006,2.055205,-0.000000,0.019016,-0.051502,0.002848,-0.006645,0.000000,-11.160095,31.376483,0.472140,3.327614,0.404297,0.151135,0.280433,0.125808,1.307940,4
574764159481715,-5.614397,-0.321584,6.626493,1.153798,-0.011732,0.000000,-5.650250,-0.305503,6.572504,1.546421,0.154997,2.055288,-0.000000,0.019016,-0.053879,-0.000000,-0.004746,0.000000,-11.165672,31.572760,0.575490,3.327376,0.406972,0.151186,0.280443,0.125816,1.307937,4
574764160519989,-5.614399,-0.321564,6.626439,1.153800,-0.011737,0.000001,-5.650271,-0.305491,6.572478,1.546621,0.154988,2.055371,-0.002377,0.019809,-0.053879,0.002848,-0.006645,0.000000,-11.008570,31.207245,0.452200,3.367756,0.391453,0.151292,0.280452,0.125824,1.307935,4
574764161516894,-5.614398,-0.321546,6.626389,1.153801,-0.011742,-0.000001,-5.650292,-0.305478,6.572452,1.546821,0.154979,2.055455,-0.000000,0.017432,-0.049918,-0.000000,-0.004746,0.000000,-11.198974,31.792145,0.614114,3.325268,0.407848,0.151222,0.280460,0.125833,1.307932,4
574764162518178,-5.614401,-0.321527,6.626338,1.153804,-0.011747,-0.000003,-5.650313,-0.305466,6.572426,1.547021,0.154970,2.055538,-0.000000,0.019809,-0.051502,0.002848,-0.005695,0.000000,-11.157514,31.077135,0.374748,3.341867,0.398193,0.151210,0.280467,0.125839,1.307930,4
574764163519130,-5.614401,-0.321507,6.626284,1.153808,-0.011750,0.000001,-5.650334,-0.305453,6.572400,1.547221,0.154961,2.055622,-0.000000,0.019809,-0.052295,-0.000000,-0.002848,0.002848,-11.153601,31.127567,0.404443,3.348120,0.395614,0.151246,0.280476,0.125848,1.307928,4
574764164518860,-5.614403,-0.321486,6.626232,1.153811,-0.011754,-0.000002,-5.650355,-0.305441,6.572375,1.547421,0.154952,2.055705,-0.002377,0.020601,-0.052295,0.002848,-0.003797,-0.002848,-10.994818,30.755257,0.278086,3.389330,0.379002,0.151386,0.280483,0.125854,1.307926,4
574764165523814,-5.614404,-0.321468,6.626180,1.153811,-0.011759,0.000001,-5.650376,-0.305429,6.572349,1.547621,0.154943,2.055788,-0.000000,0.018224,-0.052295,-0.000000,-0.005695,0.002848,-11.210545,31.698462,0.622826,3.329696,0.409837,0.151277,0.280493,0.125863,1.307923,4
574764166527860,-5.614405,-0.321449,6.626127,1.153815,-0.011762,0.000000,-5.650397,-0.305416,6.572323,1.547821,0.154934,2.055872,-0.000000,0.019016,-0.052295,0.003797,-0.002848,0.000000,-11.205800,31.419086,0.523809,3.332610,0.404440,0.151267,0.280501,0.125871,1.307920,4
574764167528182,-5.614407,-0.321430,6.626076,1.153816,-0.011769,-0.000001,-5.650418,-0.305404,6.572297,1.548021,0.154925,2.055955,-0.002377,0.019016,-0.051502,-0.000000,-0.006645,0.000000,-11.042249,31.247487,0.459726,3.381530,0.389192,0.151454,0.280510,0.125879,1.307918,4
574764168528597,-5.614408,-0.321409,6.626024,1.153817,-0.011772,0.000001,-5.650439,-0.305392,6.572272,1.548221,0.154915,2.056038,-0.000000,0.020601,-0.052295,-0.000000,-0.003797,0.000000,-11.156482,30.818311,0.307669,3.362895,0.391169,0.151355,0.280517,0.125885,1.307916,4
574764169525883,-5.614409,-0.321391,6.625975,1.153817,-0.011776,-0.000001,-5.650460,-0.305380,6.572246,1.548421,0.154906,2.056122,-0.000000,0.018224,-0.048333,-0.000000,-0.004746,0.000000,-11.206995,31.325234,0.448887,3.349993,0.398322,0.151371,0.280524,0.125892,1.307914,4
574764170525413,-5.614411,-0.321371,6.625923,1.153822,-0.011780,0.000000,-5.650481,-0.305367,6.572221,1.548621,0.154897,2.056205,-0.002377,0.019809,-0.052295,0.002848,-0.003797,0.000000,-11.046859,31.018633,0.394988,3.386386,0.385123,0.151476,0.280533,0.125900,1.307912,4
574764171479714,-5.614413,-0.321352,6.625873,1.153826,-0.011785,0.000003,-5.650502,-0.305355,6.572195,1.548821,0.154888,2.056289,-0.002377,0.019809,-0.049918,0.003797,-0.004746,0.002848,-11.042155,30.803607,0.290251,3.394094,0.380184,0.151468,0.280539,0.125906,1.307910,4
574764172518695,-5.614412,-0.321335,6.625822,1.153826,-0.011787,-0.000001,-5.650523,-0.305343,6.572170,1.549021,0.154879,2.056372,-0.000000,0.016639,-0.050710,-0.000000,-0.000000,-0.003797,-11.274928,32.094130,0.769754,3.327601,0.411805,0.151442,0.280549,0.125915,1.307907,4
574764173527412,-5.614412,-0.321314,6.625769,1.153829,-0.011791,-0.000002,-5.650544,-0.305331,6.572144,1.549221,0.154870,2.056455,-0.000000,0.020601,-0.053879,0.002848,-0.003797,0.000000,-11.203017,30.951735,0.393830,3.355090,0.398123,0.151408,0.280557,0.125923,1.307905,4
574764174518675,-5.614416,-0.321295,6.625722,1.153830,-0.011793,0.000000,-5.650566,-0.305318,6.572119,1.549421,0.154861,2.056539,-0.003169,0.019809,-0.049125,-0.000000,-0.000000,0.000000,-10.982501,30.669288,0.238968,3.424731,0.366101,0.151629,0.280564,0.125928,1.307903,4
574764175521298,-5.614416,-0.321275,6.625666,1.153833,-0.011798,0.000000,-5.650587,-0.305306,6.572094,1.549621,0.154852,2.056622,-0.000000,0.019016,-0.049918,0.003797,-0.003797,0.000000,-11.237793,31.162993,0.429977,3.351406,0.399337,0.151432,0.280573,0.125937,1.307900,4
574764176523794,-5.614417,-0.321255,6.625611,1.153831,-0.011799,-0.000004,-5.650608,-0.305294,6.572069,1.549821,0.154843,2.056705,-0.000000,0.019809,-0.054672,-0.000000,-0.000000,-0.003797,-11.227642,31.273288,0.530056,3.355328,0.400103,0.151519,0.280582,0.125943,1.307898,4
574764177525126,-5.614418,-0.321237,6.625561,1.153835,-0.011803,-0.000001,-5.650629,-0.305282,6.572043,1.550021,0.154833,2.056789,-0.000000,0.018224,-0.049918,0.002848,-0.000000,0.002848,-11.262331,31.433856,0.534982,3.348376,0.400783,0.151463,0.280590,0.125951,1.307895,4
574764178524822,-5.614420,-0.321215,6.625510,1.153838,-0.011807,-0.000001,-5.650650,-0.305270,6.572018,1.550221,0.154824,2.056872,-0.002377,0.021393,-0.050710,0.002848,-0.003797,0.000000,-11.032887,30.258984,0.122074,3.420709,0.369807,0.151627,0.280596,0.125957,1.307894,4
574764179523634,-5.614420,-0.321196,6.625456,1.153840,-0.011811,-0.000001,-5.650672,-0.305258,6.571993,1.550421,0.154815,2.056956,-0.000000,0.019016,-0.053879,-0.000000,-0.003797,0.000000,-11.264960,31.479729,0.607876,3.349823,0.407511,0.151547,0.280605,0.125966,1.307891,4
574764180525175,-5.614424,-0.321178,6.625403,1.153841,-0.011814,-0.000002,-5.650693,-0.305246,6.571968,1.550621,0.154806,2.057039,-0.003169,0.018224,-0.053087,-0.000000,-0.003797,0.000000,-11.083489,31.578425,0.646057,3.394617,0.392520,0.151727,0.280615,0.125973,1.307888,4
574764181526439,-5.614424,-0.321157,6.625351,1.153844,-0.011817,0.000000,-5.650714,-0.305234,6.571943,1.550821,0.154797,2.057122,-0.000000,0.021393,-0.052295,0.002848,-0.004746,0.000000,-11.210476,30.477967,0.227617,3.379687,0.389291,0.151557,0.280622,0.125980,1.307886,4
574764182524209,-5.614425,-0.321136,6.625299,1.153846,-0.011818,0.000000,-5.650735,-0.305222,6.571918,1.551021,0.154788,2.057206,-0.000000,0.020601,-0.052295,-0.000000,-0.004746,0.000000,-11.226137,30.744302,0.328085,3.378247,0.392753,0.151607,0.280630,0.125986,1.307884,4
574764183509001,-5.614425,-0.321116,6.625244,1.153849,-0.011820,-0.000003,-5.650757,-0.305210,6.571894,1.551221,0.154778,2.057289,-0.000000,0.019809,-0.054672,0.003797,-0.000000,-0.002848,-11.277612,31.246911,0.546512,3.353830,0.403397,0.151592,0.280639,0.125994,1.307882,4
574764184540650,-5.614426,-0.321093,6.625195,1.153849,-0.011824,-0.000002,-5.650778,-0.305198,6.571869,1.551421,0.154769,2.057372,-0.000000,0.022978,-0.049125,-0.000000,-0.002848,0.000000,-11.149026,29.571099,-0.137506,3.422796,0.365103,0.151655,0.280643,0.125998,1.307881,4
574764185478727,-5.614429,-0.321073,6.625144,1.153851,-0.011825,-0.000001,-5.650799,-0.305186,6.571844,1.551621,0.154760,2.057456,-0.003169,0.019809,-0.050710,-0.000000,-0.000000,0.000000,-11.043345,30.728923,0.319239,3.431812,0.370549,0.151826,0.280650,0.126004,1.307879,4
574764186522934,-5.614431,-0.321050,6.625094,1.153852,-0.011828,-0.000001,-5.650821,-0.305174,6.571819,1.551821,0.154751,2.057539,-0.000000,0.023770,-0.050710,-0.000000,-0.002848,0.000000,-11.141759,29.394216,-0.176677,3.429818,0.363190,0.151693,0.280655,0.126008,1.307878,4
574764187522700,-5.614431,-0.321029,6.625040,1.153854,-0.011830,-0.000001,-5.650842,-0.305162,6.571795,1.552021,0.154742,2.057622,-0.000000,0.020601,-0.051502,-0.000000,-0.003797,0.000000,-11.241325,30.604695,0.283596,3.389048,0.388980,0.151700,0.280662,0.126015,1.307876,4
574764188526245,-5.614432,-0.321007,6.624990,1.153856,-0.011831,0.000000,-5.650863,-0.305150,6.571770,1.552221,0.154732,2.057706,-0.000000,0.022978,-0.053087,-0.000000,-0.000000,0.000000,-11.182875,29.859448,0.030237,3.415519,0.372329,0.151725,0.280668,0.126020,1.307875,4
574764189526313,-5.614434,-0.320985,6.624937,1.153859,-0.011833,-0.000003,-5.650885,-0.305138,6.571746,1.552421,0.154723,2.057789,-0.000000,0.022186,-0.050710,-0.000000,-0.000000,0.000000,-11.195288,29.918510,0.026267,3.416661,0.371294,0.151744,0.280674,0.126025,1.307873,4
574764190481641,-5.614434,-0.320963,6.624883,1.153860,-0.011836,0.000003,-5.650906,-0.305126,6.571721,1.552621,0.154714,2.057872,-0.000000,0.022186,-0.053879,-0.000000,-0.002848,0.005695,-11.221187,30.191900,0.170980,3.404073,0.382673,0.151723,0.280681,0.126031,1.307871,4
574764191527424,-5.614436,-0.320940,6.624830,1.153863,-0.011838,-0.000001,-5.650927,-0.305114,6.571697,1.552821,0.154705,2.057956,-0.002377,0.022186,-0.053087,0.002848,-0.000000,-0.003797,-11.075411,30.023021,0.108781,3.441162,0.365727,0.151886,0.280688,0.126037,1.307870,4
574764192518694,-5.614436,-0.320915,6.624777,1.153866,-0.011841,0.000001,-5.650949,-0.305103,6.571672,1.553021,0.154695,2.058039,-0.000000,0.025355,-0.053087,0.002848,-0.002848,0.000000,-11.145906,28.940024,-0.291837,3.441934,0.359428,0.151767,0.280692,0.126041,1.307869,4
574764193516989,-5.614439,-0.320898,6.624727,1.153868,-0.011842,0.000002,-5.650970,-0.305091,6.571648,1.553221,0.154686,2.058122,-0.002377,0.020601,-0.053087,0.002848,-0.000000,0.002848,-11.127501,30.569399,0.317211,3.425010,0.376719,0.151879,0.280701,0.126048,1.307866,4
574764194528125,-5.614440,-0.320874,6.624673,1.153868,-0.011844,-0.000003,-5.650992,-0.305079,6.571624,1.553421,0.154677,2.058206,-0.000000,0.021393,-0.053879,-0.000000,-0.000000,-0.004746,-11.254580,30.409753,0.264851,3.402526,0.384754,0.151857,0.280707,0.126053,1.307865,4
574764195525842,-5.614439,-0.320851,6.624622,1.153872,-0.011845,-0.000002,-5.651013,-0.305067,6.571599,1.553621,0.154668,2.058289,-0.000000,0.022978,-0.052295,0.003797,-0.000000,0.000000,-11.221195,29.688866,-0.015591,3.419876,0.371793,0.151805,0.280712,0.126058,1.307864,4
574764196523546,-5.614443,-0.320832,6.624569,1.153875,-0.011847,-0.000002,-5.651035,-0.305056,6.571575,1.553821,0.154658,2.058372,-0.003169,0.019016,-0.053087,0.003797,-0.000000,0.000000,-11.137309,31.074025,0.516702,3.420365,0.383724,0.151974,0.280721,0.126066,1.307861,4
574764197519872,-5.614443,-0.320808,6.624513,1.153875,-0.011848,0.000000,-5.651056,-0.305044,6.571551,1.554021,0.154649,2.058456,-0.000000,0.023770,-0.054672,-0.000000,-0.000000,0.000000,-11.205133,29.576089,-0.021576,3.432319,0.369565,0.151889,0.280728,0.126071,1.307859,4
574764198520512,-5.614444,-0.320787,6.624458,1.153880,-0.011850,0.000000,-5.651078,-0.305032,6.571527,1.554221,0.154640,2.058539,-0.000000,0.020601,-0.054672,0.004746,-0.000000,0.000000,-11.318085,30.737009,0.412593,3.383489,0.395972,0.151838,0.280736,0.126079,1.307857,4
574764199522852,-5.614447,-0.320764,6.624405,1.153880,-0.011853,-0.000001,-5.651099,-0.305020,6.571503,1.554421,0.154631,2.058622,-0.002377,0.023770,-0.053087,-0.000000,-0.002848,0.000000,-11.054532,29.321385,-0.120349,3.477316,0.353793,0.152047,0.280742,0.126083,1.307856,4
574764200519943,-5.614448,-0.320743,6.624355,1.153882,-0.011855,-0.000003,-5.651121,-0.305009,6.571479,1.554621,0.154621,2.058706,-0.000000,0.020601,-0.049918,-0.000000,-0.000000,0.000000,-11.278774,30.258882,0.182597,3.416739,0.378824,0.151940,0.280748,0.126089,1.307854,4
574764201521195,-5.614450,-0.320722,6.624303,1.153884,-0.011855,-0.000001,-5.651142,-0.304997,6.571455,1.554821,0.154612,2.058789,-0.000000,0.020601,-0.051502,-0.000000,-0.000000,0.000000,-11.291760,30.388948,0.253614,3.412074,0.383021,0.151956,0.280756,0.126094,1.307852,4
574764202522734,-5.614451,-0.320700,6.624252,1.153885,-0.011856,-0.000001,-5.651164,-0.304986,6.571431,1.555021,0.154603,2.058872,-0.000000,0.022186,-0.051502,-0.000000,-0.000000,0.000000,-11.250728,29.796793,0.038745,3.432907,0.371413,0.151979,0.280762,0.126099,1.307851,4
574764203518141,-5.614453,-0.320679,6.624197,1.153890,-0.011858,0.000000,-5.651185,-0.304974,6.571408,1.555221,0.154593,2.058956,-0.000000,0.021393,-0.055464,0.004746,-0.000000,0.000000,-11.318573,30.446145,0.333282,3.397795,0.391531,0.151932,0.280770,0.126106,1.307848,4
574764204519802,-5.614454,-0.320657,6.624144,1.153891,-0.011859,0.000001,-5.651207,-0.304962,6.571384,1.555421,0.154584,2.059039,-0.000000,0.022186,-0.052295,-0.000000,-0.000000,0.000000,-11.263859,29.840811,0.072520,3.432498,0.373423,0.152014,0.280776,0.126112,1.307847,4
574764205527630,-5.614455,-0.320635,6.624090,1.153892,-0.011861,0.000001,-5.651229,-0.304951,6.571360,1.555621,0.154575,2.059122,-0.000000,0.021393,-0.053879,-0.000000,-0.000000,0.000000,-11.299027,30.257309,0.249555,3.418244,0.383330,0.152028,0.280784,0.126118,1.307845,4
574764206521351,-5.614458,-0.320615,6.624038,1.153892,-0.011858,-0.000001,-5.651250,-0.304939,6.571337,1.555821,0.154565,2.059206,-0.003169,0.020601,-0.054672,-0.000000,0.002848,0.000000,-11.121933,30.480326,0.352143,3.459149,0.369516,0.152208,0.280792,0.126122,1.307843,4
574764207520034,-5.614458,-0.320592,6.623984,1.153896,-0.011862,0.000000,-5.651272,-0.304928,6.571313,1.556021,0.154556,2.059289,-0.000000,0.022186,-0.053879,0.003797,-0.003797,0.000000,-11.303941,29.966386,0.152865,3.419331,0.383979,0.152019,0.280798,0.126129,1.307841,4
574764208524073,-5.614459,-0.320572,6.623931,1.153897,-0.011861,-0.000001,-5.651293,-0.304916,6.571289,1.556221,0.154546,2.059372,-0.000000,0.020601,-0.053087,-0.000000,-0.000000,0.000000,-11.329389,30.438695,0.318002,3.415819,0.386532,0.152082,0.280806,0.126135,1.307839,4
574764209520417,-5.614461,-0.320552,6.623878,1.153898,-0.011862,0.000000,-5.651315,-0.304905,6.571266,1.556421,0.154537,2.059456,-0.000000,0.019809,-0.053087,-0.000000,-0.000000,0.000000,-11.356166,30.719497,0.425348,3.407453,0.392214,0.152097,0.280815,0.126142,1.307836,4
574764210525698,-5.614464,-0.320532,6.623823,1.153900,-0.011861,-0.000001,-5.651337,-0.304894,6.571243,1.556621,0.154528,2.059539,-0.003169,0.019809,-0.054672,-0.000000,-0.000000,0.000000,-11.165410,30.736882,0.463303,3.452873,0.377892,0.152277,0.280825,0.126149,1.307834,4
574764211505603,-5.614465,-0.320512,6.623771,1.153900,-0.011861,0.000000,-5.651358,-0.304882,6.571219,1.556821,0.154518,2.059622,-0.000000,0.019809,-0.052295,-0.000000,-0.000000,0.000000,-11.360245,30.636268,0.392609,3.413041,0.390011,0.152135,0.280833,0.126155,1.307831,4
574764212529342,-5.614467,-0.320494,6.623715,1.153902,-0.011862,-0.000001,-5.651380,-0.304871,6.571196,1.557021,0.154509,2.059706,-0.002377,0.018224,-0.056257,-0.000000,-0.000000,0.000000,-11.279687,31.478165,0.762200,3.417118,0.398468,0.152266,0.280844,0.126164,1.307828,4
574764213523840,-5.614467,-0.320474,6.623661,1.153902,-0.011863,-0.000001,-5.651402,-0.304859,6.571173,1.557221,0.154499,2.059789,-0.000000,0.019809,-0.053879,-0.000000,-0.000000,0.000000,-11.380152,30.775520,0.471686,3.408690,0.394736,0.152169,0.280853,0.126171,1.307825,4
574764214524341,-5.614471,-0.320459,6.623612,1.153904,-0.011864,-0.000001,-5.651423,-0.304848,6.571149,1.557421,0.154490,2.059872,-0.003962,0.017432,-0.053087,-0.000000,-0.000000,0.000000,-11.192336,31.423495,0.714075,3.446864,0.386404,0.152385,0.280863,0.126178,1.307823,4
574764215536657,-5.614471,-0.320439,6.623559,1.153903,-0.011863,0.000001,-5.651445,-0.304837,6.571126,1.557621,0.154480,2.059956,-0.002377,0.016639,-0.049918,-0.000000,-0.000000,0.000000,-11.303712,31.480456,0.695684,3.425472,0.392751,0.152323,0.280872,0.126184,1.307820,4
574764216525897,-5.614471,-0.320421,6.623508,1.153903,-0.011862,-0.000001,-5.651467,-0.304825,6.571103,1.557821,0.154471,2.060039,-0.000000,0.017432,-0.051502,-0.002848,-0.000000,0.000000,-11.438101,31.413847,0.687000,3.398928,0.403445,0.152255,0.280882,0.126192,1.307817,4
574764217523732,-5.614475,-0.320403,6.623456,1.153907,-0.011866,-0.000002,-5.651489,-0.304814,6.571080,1.558021,0.154462,2.060122,-0.003962,0.018224,-0.052295,0.003797,-0.003797,0.000000,-11.200606,31.081379,0.592132,3.451110,0.385491,0.152394,0.280891,0.126199,1.307815,4
574764218522999,-5.614477,-0.320386,6.623403,1.153910,-0.011862,-0.000001,-5.651510,-0.304803,6.571057,1.558221,0.154452,2.060206,-0.002377,0.017432,-0.053087,-0.000000,0.002848,0.000000,-11.311537,31.473960,0.742509,3.427369,0.393413,0.152378,0.280902,0.126207,1.307811,4
574764219522267,-5.614478,-0.320369,6.623351,1.153907,-0.011864,-0.000001,-5.651532,-0.304791,6.571034,1.558421,0.154443,2.060289,-0.000000,0.016639,-0.051502,-0.000000,-0.000000,0.000000,-11.486514,31.718817,0.811914,3.385412,0.411754,0.152273,0.280912,0.126214,1.307808,4
574764220479530,-5.614481,-0.320352,6.623300,1.153909,-0.011868,-0.000001,-5.651554,-0.304780,6.571011,1.558621,0.154433,2.060372,-0.002377,0.017432,-0.051502,-0.000000,-0.003797,0.000000,-11.321234,31.351195,0.687303,3.431342,0.396030,0.152413,0.280922,0.126223,1.307805,4
574764221527718,-5.614483,-0.320333,6.623249,1.153910,-0.011866,-0.000002,-5.651576,-0.304769,6.570989,1.558821,0.154424,2.060456,-0.002377,0.018224,-0.050710,-0.000000,0.002848,0.000000,-11.291579,30.978413,0.541146,3.448989,0.381710,0.152438,0.280931,0.126229,1.307803,4
574764222520269,-5.614485,-0.320315,6.623197,1.153909,-0.011865,0.000001,-5.651598,-0.304758,6.570966,1.559021,0.154414,2.060539,-0.002377,0.018224,-0.052295,-0.000000,-0.000000,0.002848,-11.307966,31.123194,0.618861,3.442512,0.388827,0.152437,0.280941,0.126235,1.307800,4
574764223519297,-5.614484,-0.320299,6.623147,1.153912,-0.011865,-0.000001,-5.651619,-0.304746,6.570943,1.559221,0.154404,2.060622,-0.000000,0.017432,-0.051502,-0.000000,-0.000000,0.000000,-11.486568,31.435568,0.721530,3.398511,0.406763,0.152347,0.280950,0.126244,1.307797,4
574764224526944,-5.614489,-0.320283,6.623097,1.153912,-0.011865,-0.000001,-5.651641,-0.304735,6.570920,1.559421,0.154395,2.060706,-0.002377,0.015055,-0.049918,-0.000000,-0.000000,0.002848,-11.395043,32.069865,0.945461,3.414900,0.405468,0.152467,0.280961,0.126250,1.307794,4
574764225517220,-5.614489,-0.320265,6.623048,1.153913,-0.011867,0.000001,-5.651663,-0.304724,6.570898,1.559621,0.154385,2.060789,-0.000000,0.017432,-0.049125,-0.000000,-0.002848,0.000000,-11.485410,31.230784,0.624579,3.408320,0.403189,0.152386,0.280969,0.126258,1.307792,4
574764226524536,-5.614492,-0.320249,6.622996,1.153915,-0.011867,-0.000001,-5.651685,-0.304713,6.570875,1.559821,0.154376,2.060872,-0.003169,0.015847,-0.051502,-0.000000,-0.000000,0.000000,-11.341900,31.901183,0.911710,3.432671,0.399881,0.152561,0.280981,0.126266,1.307788,4
574764227525900,-5.614492,-0.320234,6.622947,1.153914,-0.011867,0.000000,-5.651707,-0.304702,6.570853,1.560021,0.154366,2.060956,-0.000000,0.015055,-0.049125,-0.000000,-0.000000,0.000000,-11.561161,32.104187,0.952558,3.382538,0.418052,0.152417,0.280991,0.126274,1.307785,4
574764228524138,-5.614497,-0.320217,6.622899,1.153918,-0.011867,0.000001,-5.651729,-0.304691,6.570830,1.560221,0.154357,2.061039,-0.003962,0.017432,-0.049918,0.003797,-0.000000,0.000000,-11.262890,31.177357,0.635351,3.463258,0.382683,0.152598,0.281000,0.126280,1.307783,4
574764229527908,-5.614500,-0.320202,6.622847,1.153917,-0.011866,-0.000001,-5.651751,-0.304679,6.570808,1.560421,0.154347,2.061122,-0.003169,0.015055,-0.050710,-0.000000,-0.000000,0.000000,-11.375456,32.134762,0.998238,3.428886,0.403926,0.152615,0.281012,0.126288,1.307779,4
574764230523178,-5.614503,-0.320186,6.622796,1.153918,-0.011867,0.000001,-5.651773,-0.304668,6.570785,1.560621,0.154337,2.061205,-0.003169,0.015847,-0.050710,-0.000000,-0.000000,0.000000,-11.358185,31.854055,0.898294,3.439411,0.398458,0.152636,0.281023,0.126296,1.307776,4
574764231523038,-5.614502,-0.320170,6.622750,1.153921,-0.011866,-0.000002,-5.651795,-0.304657,6.570763,1.560821,0.154328,2.061289,-0.000000,0.015847,-0.046748,0.002848,-0.000000,-0.002848,-11.557841,31.634756,0.764760,3.398053,0.408723,0.152477,0.281031,0.126303,1.307773,4
574764232514058,-5.614505,-0.320158,6.622702,1.153922,-0.011867,-0.000002,-5.651817,-0.304646,6.570741,1.561021,0.154318,2.061372,-0.003169,0.011885,-0.047541,-0.000000,-0.000000,0.000000,-11.465056,33.031406,1.299421,3.404655,0.418898,0.152664,0.281044,0.126312,1.307769,4
574764233526891,-5.614508,-0.320141,6.622657,1.153924,-0.011867,-0.000003,-5.651839,-0.304635,6.570719,1.561221,0.154309,2.061455,-0.002377,0.017432,-0.045164,-0.000000,-0.000000,0.000000,-11.351306,30.832937,0.460074,3.469638,0.377264,0.152661,0.281051,0.126317,1.307768,4
574764234518295,-5.614510,-0.320127,6.622609,1.153924,-0.011867,-0.000002,-5.651860,-0.304624,6.570696,1.561421,0.154299,2.061539,-0.002377,0.014262,-0.047541,-0.000000,-0.000000,0.000000,-11.459207,32.203750,0.998036,3.423007,0.406684,0.152668,0.281062,0.126325,1.307764,4
574764235526741,-5.614512,-0.320112,6.622563,1.153924,-0.011869,-0.000002,-5.651882,-0.304613,6.570674,1.561621,0.154289,2.061622,-0.000000,0.015055,-0.047541,-0.000000,-0.002848,0.000000,-11.598633,32.016738,0.927112,3.394119,0.418001,0.152565,0.281071,0.126332,1.307761,4
574764236513024,-5.614514,-0.320097,6.622518,1.153928,-0.011867,0.000001,-5.651904,-0.304602,6.570652,1.561821,0.154280,2.061705,-0.002377,0.014262,-0.044371,0.003797,-0.000000,0.002848,-11.467951,31.949638,0.872503,3.427619,0.401308,0.152644,0.281080,0.126339,1.307759,4
574764237519497,-5.614515,-0.320082,6.622472,1.153928,-0.011867,0.000000,-5.651926,-0.304591,6.570630,1.562021,0.154270,2.061789,-0.000000,0.015055,-0.045956,-0.000000,-0.000000,0.000000,-11.597898,31.882477,0.862517,3.403567,0.411222,0.152605,0.281090,0.126346,1.307756,4
574764238527693,-5.614519,-0.320069,6.622427,1.153929,-0.011867,-0.000001,-5.651949,-0.304580,6.570608,1.562221,0.154260,2.061872,-0.002377,0.013470,-0.045164,-0.000000,-0.000000,0.000000,-11.490091,32.307736,1.018347,3.426106,0.406564,0.152742,0.281100,0.126353,1.307753,4
574764239523107,-5.614523,-0.320055,6.622384,1.153931,-0.011867,-0.000002,-5.651971,-0.304569,6.570586,1.562421,0.154251,2.061955,-0.003169,0.013470,-0.043579,-0.000000,-0.000000,0.000000,-11.435473,32.145031,0.943224,3.445729,0.397709,0.152803,0.281109,0.126359,1.307750,4
574764240517607,-5.614524,-0.320042,6.622339,1.153930,-0.011870,-0.000001,-5.651993,-0.304558,6.570564,1.562621,0.154241,2.062038,-0.000000,0.013470,-0.042787,-0.000000,-0.002848,0.000000,-11.643883,32.209018,0.952893,3.397639,0.417268,0.152659,0.281119,0.126367,1.307747,4
574764241522637,-5.614527,-0.320029,6.622298,1.153932,-0.011869,-0.000002,-5.652015,-0.304547,6.570542,1.562821,0.154231,2.062122,-0.003169,0.012678,-0.041202,-0.000000,-0.000000,0.000000,-11.455918,32.241196,0.954326,3.446920,0.397322,0.152841,0.281128,0.126373,1.307744,4
574764242514938,-5.614530,-0.320014,6.622255,1.153934,-0.011869,-0.000001,-5.652037,-0.304536,6.570521,1.563021,0.154221,2.062205,-0.002377,0.015055,-0.042787,-0.000000,-0.000000,0.000000,-11.454076,31.552081,0.720158,3.458136,0.389323,0.152824,0.281136,0.126379,1.307742,4
574764243517429,-5.614533,-0.320001,6.622212,1.153935,-0.011868,-0.000001,-5.652059,-0.304525,6.570499,1.563221,0.154212,2.062288,-0.000000,0.012678,-0.042787,-0.000000,-0.000000,0.000000,-11.678428,32.513760,1.071322,3.392745,0.420462,0.152714,0.281146,0.126386,1.307739,4
574764244519403,-5.614536,-0.319986,6.622171,1.153938,-0.011871,-0.000002,-5.652081,-0.304514,6.570477,1.563421,0.154202,2.062372,-0.003169,0.015055,-0.041202,0.002848,-0.002848,0.000000,-11.418497,31.409059,0.656816,3.470459,0.385398,0.152868,0.281153,0.126391,1.307737,4
574764245521827,-5.614538,-0.319974,6.622131,1.153937,-0.011869,-0.000001,-5.652103,-0.304503,6.570455,1.563621,0.154192,2.062455,-0.000000,0.012678,-0.039617,-0.000000,-0.000000,0.000000,-11.671017,32.240504,0.935750,3.407073,0.411910,0.152756,0.281162,0.126397,1.307735,4
574764246517992,-5.614544,-0.319959,6.622089,1.153940,-0.011870,-0.000001,-5.652125,-0.304492,6.570434,1.563821,0.154182,2.062538,-0.006339,0.014262,-0.041994,0.002848,-0.000000,0.000000,-11.247161,31.655423,0.768835,3.512204,0.371792,0.153067,0.281170,0.126402,1.307732,4
574764247527417,-5.614546,-0.319945,6.622047,1.153941,-0.011868,-0.000002,-5.652147,-0.304482,6.570412,1.564021,0.154173,2.062622,-0.003962,0.014262,-0.040410,-0.000000,-0.000000,0.000000,-11.384500,31.595490,0.722333,3.488682,0.379293,0.153001,0.281178,0.126407,1.307730,4
574764248526896,-5.614549,-0.319932,6.622007,1.153943,-0.011869,-0.000003,-5.652169,-0.304471,6.570391,1.564221,0.154163,2.062705,-0.002377,0.012678,-0.039617,-0.000000,-0.000000,0.000000,-11.531790,32.166891,0.921312,3.448414,0.397922,0.152935,0.281186,0.126414,1.307728,4
574764249527722,-5.614554,-0.319918,6.621968,1.153942,-0.011870,-0.000001,-5.652191,-0.304460,6.570369,1.564421,0.154153,2.062788,-0.003962,0.014262,-0.039617,-0.000000,-0.000000,0.000000,-11.388759,31.533876,0.693862,3.494344,0.377058,0.153041,0.281194,0.126418,1.307726,4
574764250528067,-5.614555,-0.319903,6.621927,1.153944,-0.011869,-0.000001,-5.652214,-0.304449,6.570348,1.564621,0.154143,2.062871,-0.003962,0.015055,-0.040410,-0.000000,-0.000000,0.000000,-11.376291,31.316775,0.625653,3.502011,0.373521,0.153060,0.281201,0.126422,1.307724,4
574764251538741,-5.614559,-0.319889,6.621892,1.153947,-0.011870,-0.000001,-5.652236,-0.304438,6.570326,1.564821,0.154134,2.062955,-0.003962,0.014262,-0.035656,0.003797,-0.000000,0.000000,-11.390247,31.192670,0.524393,3.503147,0.368837,0.153036,0.281206,0.126426,1.307722,4
574764252527646,-5.614561,-0.319875,6.621851,1.153947,-0.011872,-0.000002,-5.652258,-0.304427,6.570305,1.565021,0.154124,2.063038,-0.002377,0.013470,-0.040410,-0.000000,-0.000000,0.000000,-11.531237,31.953401,0.860049,3.460461,0.394016,0.153013,0.281214,0.126432,1.307720,4
574764253522835,-5.614568,-0.319860,6.621814,1.153950,-0.011868,0.000001,-5.652280,-0.304417,6.570283,1.565221,0.154114,2.063121,-0.006339,0.015055,-0.037240,0.002848,0.003797,0.002848,-11.223203,30.947250,0.461452,3.551958,0.348674,0.153195,0.281220,0.126434,1.307719,4
574764254520129,-5.614569,-0.319846,6.621775,1.153949,-0.011871,-0.000001,-5.652302,-0.304406,6.570262,1.565421,0.154104,2.063205,-0.000000,0.013470,-0.038825,-0.000000,-0.002848,0.000000,-11.684578,31.901302,0.820005,3.430666,0.405927,0.152932,0.281226,0.126439,1.307717,4
574764255523787,-5.614573,-0.319831,6.621736,1.153949,-0.011870,-0.000002,-5.652324,-0.304395,6.570241,1.565621,0.154094,2.063288,-0.003962,0.014262,-0.039617,-0.000000,-0.000000,0.000000,-11.412839,31.529231,0.703493,3.503204,0.376108,0.153157,0.281233,0.126442,1.307715,4
574764256523006,-5.614576,-0.319817,6.621698,1.153953,-0.011871,-0.000003,-5.652346,-0.304384,6.570219,1.565821,0.154084,2.063371,-0.003169,0.014262,-0.037240,0.003797,-0.000000,0.000000,-11.469610,31.361227,0.613595,3.491992,0.377029,0.153091,0.281239,0.126447,1.307714,4
574764257522681,-5.614581,-0.319803,6.621659,1.153954,-0.011871,0.000001,-5.652369,-0.304373,6.570198,1.566021,0.154075,2.063454,-0.004754,0.014262,-0.038825,-0.000000,-0.000000,0.000000,-11.364889,31.427809,0.661980,3.521881,0.368919,0.153237,0.281246,0.126451,1.307712,4
574764258526932,-5.614586,-0.319788,6.621622,1.153954,-0.011872,0.000000,-5.652391,-0.304363,6.570177,1.566221,0.154065,2.063538,-0.004754,0.014262,-0.037240,-0.000000,-0.000000,0.000000,-11.358776,31.284688,0.591394,3.529786,0.364302,0.153259,0.281252,0.126454,1.307710,4
574764259515536,-5.614589,-0.319772,6.621584,1.153955,-0.011872,-0.000003,-5.652413,-0.304352,6.570156,1.566421,0.154055,2.063621,-0.003169,0.015847,-0.038033,-0.000000,-0.000000,-0.002848,-11.423927,30.832995,0.432419,3.522538,0.364149,0.153218,0.281257,0.126457,1.307709,4
574764260518762,-5.614593,-0.319759,6.621547,1.153956,-0.011872,0.000000,-5.652435,-0.304341,6.570135,1.566621,0.154045,2.063704,-0.003962,0.013470,-0.037240,-0.000000,-0.000000,0.002848,-11.439030,31.596224,0.707849,3.510898,0.374167,0.153239,0.281264,0.126461,1.307707,4
574764261520063,-5.614599,-0.319744,6.621510,1.153958,-0.011871,0.000000,-5.652457,-0.304331,6.570114,1.566821,0.154035,2.063788,-0.005546,0.015055,-0.036448,-0.000000,-0.000000,0.000000,-11.290338,30.885556,0.441614,3.560294,0.350883,0.153363,0.281269,0.126464,1.307706,4
574764262519459,-5.614600,-0.319730,6.621475,1.153962,-0.011870,-0.000002,-5.652479,-0.304320,6.570093,1.567021,0.154025,2.063871,-0.003962,0.013470,-0.038033,0.003797,-0.000000,0.000000,-11.465903,31.676816,0.752084,3.501879,0.378716,0.153247,0.281275,0.126468,1.307704,4
574764263527975,-5.614606,-0.319712,6.621437,1.153959,-0.011872,-0.000002,-5.652502,-0.304309,6.570072,1.567221,0.154015,2.063954,-0.005546,0.018224,-0.036448,-0.002848,-0.000000,0.000000,-11.196222,29.708233,0.009508,3.609231,0.325291,0.153447,0.281279,0.126469,1.307704,4
574764264526145,-5.614610,-0.319699,6.621400,1.153966,-0.011872,-0.000002,-5.652524,-0.304299,6.570051,1.567421,0.154006,2.064038,-0.003169,0.013470,-0.037240,0.006645,-0.000000,0.000000,-11.528199,31.631268,0.728443,3.489456,0.382584,0.153213,0.281285,0.126474,1.307702,4
574764265520738,-5.614613,-0.319684,6.621362,1.153965,-0.011873,0.000000,-5.652546,-0.304288,6.570030,1.567621,0.153996,2.064121,-0.003962,0.014262,-0.037240,-0.000000,-0.000000,0.000000,-11.432778,31.286270,0.602021,3.529220,0.367010,0.153357,0.281291,0.126477,1.307700,4
574764266529800,-5.614618,-0.319669,6.621324,1.153968,-0.011873,-0.000002,-5.652568,-0.304277,6.570009,1.567821,0.153986,2.064204,-0.003962,0.015847,-0.038033,0.003797,-0.000000,-0.002848,-11.409769,30.789754,0.432251,3.538195,0.360295,0.153351,0.281297,0.126480,1.307699,4
574764267522964,-5.614624,-0.319652,6.621288,1.153967,-0.011873,0.000001,-5.652590,-0.304267,6.569988,1.568021,0.153976,2.064287,-0.005546,0.016639,-0.036448,-0.000000,-0.000000,0.002848,-11.262938,30.273685,0.226398,3.590558,0.337460,0.153471,0.281301,0.126481,1.307698,4
574764268527678,-5.614627,-0.319638,6.621251,1.153968,-0.011876,-0.000002,-5.652613,-0.304256,6.569967,1.568221,0.153966,2.064371,-0.003169,0.014262,-0.036448,-0.000000,-0.000000,-0.002848,-11.486062,31.222181,0.571877,3.525750,0.368290,0.153395,0.281306,0.126485,1.307697,4
574764269519734,-5.614632,-0.319623,6.621216,1.153971,-0.011874,-0.000002,-5.652635,-0.304246,6.569947,1.568421,0.153956,2.064454,-0.004754,0.015055,-0.035656,0.002848,-0.000000,0.000000,-11.371398,30.809541,0.416694,3.558532,0.352859,0.153448,0.281311,0.126488,1.307696,4
574764270527963,-5.614638,-0.319606,6.621178,1.153969,-0.011875,-0.000001,-5.652657,-0.304235,6.569926,1.568621,0.153946,2.064537,-0.006339,0.016639,-0.037240,-0.000000,-0.000000,0.000000,-11.223440,30.293006,0.250292,3.606142,0.333714,0.153588,0.281316,0.126489,1.307695,4
574764271515227,-5.614641,-0.319589,6.621144,1.153973,-0.011875,-0.000001,-5.652679,-0.304225,6.569905,1.568821,0.153936,2.064621,-0.003169,0.016639,-0.034071,0.003797,-0.000000,0.000000,-11.426740,30.129634,0.145981,3.560944,0.346098,0.153402,0.281318,0.126490,1.307694,4
574764272517800,-5.614648,-0.319576,6.621110,1.153974,-0.011874,-0.000002,-5.652701,-0.304214,6.569885,1.569021,0.153926,2.064704,-0.006339,0.013470,-0.034071,-0.000000,-0.000000,0.000000,-11.298785,31.142229,0.527104,3.584191,0.346770,0.153623,0.281324,0.126492,1.307693,4
574764273528658,-5.614653,-0.319558,6.621076,1.153978,-0.011874,0.000000,-5.652723,-0.304204,6.569864,1.569221,0.153916,2.064787,-0.005546,0.018224,-0.034071,0.003797,-0.000000,0.000000,-11.231787,29.441472,-0.099108,3.622592,0.319489,0.153570,0.281326,0.126492,1.307693,4
574764274527796,-5.614659,-0.319541,6.621041,1.153978,-0.011874,-0.000001,-5.652746,-0.304193,6.569843,1.569421,0.153906,2.064871,-0.005546,0.016639,-0.034863,-0.000000,-0.000000,0.000000,-11.266467,30.056510,0.137324,3.612114,0.329431,0.153633,0.281329,0.126493,1.307692,4
574764275527808,-5.614662,-0.319525,6.621008,1.153978,-0.011875,-0.000001,-5.652768,-0.304183,6.569823,1.569621,0.153896,2.064954,-0.003962,0.015847,-0.034863,-0.000000,-0.000000,0.000000,-11.393110,30.390679,0.257773,3.579491,0.343940,0.153569,0.281332,0.126494,1.307692,4
574764276524325,-5.614668,-0.319508,6.620974,1.153982,-0.011875,-0.000001,-5.652790,-0.304172,6.569802,1.569821,0.153886,2.065037,-0.004754,0.017432,-0.033279,-0.000000,-0.000000,0.000000,-11.289069,29.626185,-0.040304,3.619980,0.322819,0.153637,0.281334,0.126495,1.307692,4
574764277519771,-5.614676,-0.319490,6.620938,1.153985,-0.011874,-0.000002,-5.652812,-0.304162,6.569782,1.570021,0.153876,2.065121,-0.007923,0.017432,-0.035656,0.003797,-0.000000,0.000000,-11.113289,29.716838,0.033725,3.654754,0.312691,0.153772,0.281338,0.126495,1.307691,4
574764278524246,-5.614680,-0.319475,6.620904,1.153986,-0.011877,0.000002,-5.652834,-0.304151,6.569761,1.570221,0.153866,2.065204,-0.003962,0.015055,-0.034071,-0.000000,-0.002848,0.003797,-11.415999,30.566676,0.318420,3.578890,0.348181,0.153608,0.281342,0.126497,1.307690,4
574764279520594,-5.614684,-0.319455,6.620872,1.153985,-0.011876,0.000001,-5.652857,-0.304141,6.569741,1.570421,0.153856,2.065287,-0.003962,0.020601,-0.032486,-0.000000,-0.000000,0.000000,-11.248361,28.376126,-0.508936,3.656718,0.300331,0.153670,0.281341,0.126495,1.307692,4
574764280520878,-5.614692,-0.319440,6.620838,1.153988,-0.011877,-0.000004,-5.652879,-0.304130,6.569721,1.570621,0.153847,2.065371,-0.007923,0.014262,-0.034071,0.002848,-0.000000,-0.004746,-11.192345,30.672354,0.370105,3.632398,0.328266,0.153867,0.281346,0.126497,1.307690,4
574764281522670,-5.614699,-0.319423,6.620804,1.153990,-0.011878,-0.000001,-5.652901,-0.304120,6.569700,1.570821,0.153837,2.065454,-0.006339,0.017432,-0.033279,-0.000000,-0.000000,0.002848,-11.189332,29.480180,-0.083244,3.658323,0.309751,0.153808,0.281348,0.126496,1.307690,4
574764282528070,-5.614703,-0.319406,6.620771,1.153988,-0.011877,0.000000,-5.652923,-0.304110,6.569680,1.571021,0.153827,2.065537,-0.004754,0.016639,-0.033279,-0.000000,-0.000000,0.000000,-11.314124,29.809957,0.035647,3.626249,0.324019,0.153763,0.281351,0.126496,1.307690,4
574764283519762,-5.614710,-0.319390,6.620739,1.153993,-0.011877,-0.000002,-5.652945,-0.304099,6.569660,1.571221,0.153817,2.065621,-0.007131,0.016639,-0.032486,0.004746,-0.000000,0.000000,-11.175723,29.651710,-0.023223,3.658234,0.310645,0.153848,0.281353,0.126496,1.307690,4
574764284518490,-5.614716,-0.319373,6.620708,1.153997,-0.011877,0.000001,-5.652967,-0.304089,6.569639,1.571421,0.153807,2.065704,-0.005546,0.016639,-0.030901,0.003797,-0.000000,0.002848,-11.265291,29.546684,-0.084919,3.644157,0.314132,0.153785,0.281354,0.126496,1.307690,4
574764285519456,-5.614722,-0.319356,6.620675,1.153997,-0.011879,0.000001,-5.652990,-0.304079,6.569619,1.571621,0.153797,2.065787,-0.006339,0.017432,-0.032486,0.002848,-0.000000,0.000000,-11.197089,29.346143,-0.136576,3.665430,0.306531,0.153876,0.281356,0.126496,1.307690,4
574764286519473,-5.614729,-0.319341,6.620645,1.153996,-0.011879,-0.000002,-5.653012,-0.304068,6.569599,1.571821,0.153787,2.065871,-0.006339,0.015055,-0.030109,-0.000000,-0.000000,-0.002848,-11.239234,29.970599,0.064031,3.655500,0.314094,0.153946,0.281359,0.126495,1.307690,4
574764287523527,-5.614735,-0.319324,6.620610,1.153999,-0.011880,0.000001,-5.653034,-0.304058,6.569579,1.572021,0.153777,2.065954,-0.006339,0.016639,-0.034863,0.002848,-0.000000,0.002848,-11.233388,29.815906,0.068376,3.652021,0.317222,0.153897,0.281362,0.126496,1.307689,4
574764288517294,-5.614741,-0.319309,6.620579,1.154002,-0.011883,0.000001,-5.653056,-0.304048,6.569559,1.572221,0.153767,2.066037,-0.006339,0.015055,-0.030901,0.002848,-0.002848,0.000000,-11.259353,30.029537,0.100366,3.649005,0.319844,0.153934,0.281365,0.126497,1.307689,4
574764289522829,-5.614750,-0.319294,6.620547,1.154003,-0.011883,-0.000002,-5.653078,-0.304038,6.569539,1.572421,0.153756,2.066121,-0.008716,0.015055,-0.032486,-0.000000,-0.000000,-0.002848,-11.100402,30.053138,0.133573,3.692019,0.304426,0.154130,0.281369,0.126497,1.307688,4
574764290522459,-5.614755,-0.319278,6.620514,1.154008,-0.011883,-0.000003,-5.653100,-0.304027,6.569519,1.572621,0.153746,2.066204,-0.004754,0.015847,-0.032486,0.004746,-0.000000,0.000000,-11.352830,29.918842,0.077351,3.629606,0.325097,0.153874,0.281371,0.126499,1.307688,4
574764291524594,-5.614763,-0.319263,6.620481,1.154005,-0.011884,-0.000001,-5.653122,-0.304017,6.569499,1.572821,0.153736,2.066287,-0.008716,0.015055,-0.033279,-0.002848,-0.000000,0.000000,-11.094093,30.086473,0.156975,3.701143,0.303000,0.154191,0.281376,0.126498,1.307687,4
574764292516406,-5.614771,-0.319249,6.620450,1.154008,-0.011884,-0.000001,-5.653144,-0.304007,6.569479,1.573021,0.153726,2.066371,-0.007923,0.013470,-0.031694,0.002848,-0.000000,0.000000,-11.203120,30.565753,0.315840,3.664301,0.318366,0.154099,0.281381,0.126500,1.307686,4
574764293523942,-5.614779,-0.319236,6.620417,1.154011,-0.011885,-0.000001,-5.653167,-0.303997,6.569459,1.573221,0.153716,2.066454,-0.007131,0.013470,-0.032486,0.002848,-0.000000,0.000000,-11.259315,30.660709,0.359889,3.651055,0.324656,0.154079,0.281385,0.126502,1.307685,4
574764294479713,-5.614787,-0.319223,6.620385,1.154013,-0.011887,-0.000002,-5.653189,-0.303987,6.569439,1.573421,0.153706,2.066537,-0.008716,0.013470,-0.031694,-0.000000,-0.002848,0.000000,-11.144795,30.517935,0.302426,3.687139,0.313109,0.154218,0.281390,0.126503,1.307684,4
574764295526301,-5.614794,-0.319209,6.620355,1.154013,-0.011887,-0.000001,-5.653211,-0.303977,6.569419,1.573621,0.153696,2.066621,-0.007131,0.013470,-0.030109,-0.000000,-0.000000,0.000000,-11.234649,30.422724,0.243655,3.672377,0.314652,0.154162,0.281394,0.126504,1.307683,4
574764296527317,-5.614804,-0.319195,6.620323,1.154017,-0.011887,0.000000,-5.653233,-0.303966,6.569399,1.573821,0.153686,2.066704,-0.009508,0.014262,-0.032486,-0.000000,-0.000000,0.000000,-11.072271,30.249090,0.216213,3.713343,0.300702,0.154306,0.281399,0.126504,1.307683,4
574764297479068,-5.614809,-0.319182,6.620294,1.154021,-0.011888,-0.000001,-5.653255,-0.303956,6.569379,1.574021,0.153676,2.066788,-0.006339,0.012678,-0.031694,0.002848,-0.000000,0.000000,-11.328723,30.877254,0.432035,3.642304,0.330198,0.154126,0.281402,0.126506,1.307682,4
574764298523332,-5.614817,-0.319168,6.620262,1.154022,-0.011891,-0.000001,-5.653277,-0.303946,6.569360,1.574221,0.153666,2.066871,-0.007131,0.012678,-0.032486,-0.000000,-0.003797,0.000000,-11.275306,30.904789,0.455386,3.659157,0.328577,0.154221,0.281406,0.126508,1.307681,4
574764299527398,-5.614827,-0.319156,6.620233,1.154026,-0.011891,0.000001,-5.653299,-0.303936,6.569340,1.574421,0.153656,2.066954,-0.009508,0.011885,-0.028524,0.003797,-0.000000,0.000000,-11.132979,30.754733,0.358202,3.698158,0.307908,0.154323,0.281411,0.126508,1.307680,4
